milky766/affetto/tests/data/rand_traj_step_async_0-1-2.csv
t,q0,q1,q2,q3,q4,q5,q6,q7,q8,q9,q10,q11,q12,dq0,dq1,dq2,dq3,dq4,dq5,dq6,dq7,dq8,dq9,dq10,dq11,dq12
0.0,57.696233297771506,11.878981267937519,24.38933047672244,50.0,50.0,50.0,50.0,50.0,50.0,50.0,50.0,50.0,50.0,0.0,-0.0,-0.0,0.0,0.0,0.0,0.0,0.0,0.0,0.0,0.0,0.0,0.0
0.01,57.696233297771506,11.878981267937519,24.38933047672244,50.0,50.0,50.0,50.0,50.0,50.0,50.0,50.0,50.0,50.0,0.0,-0.0,-0.0,0.0,0.0,0.0,0.0,0.0,0.0,0.0,0.0,0.0,0.0
0.02,57.696233297771506,11.878981267937519,24.38933047672244,50.0,50.0,50.0,50.0,50.0,50.0,50.0,50.0,50.0,50.0,0.0,-0.0,-0.0,0.0,0.0,0.0,0.0,0.0,0.0,0.0,0.0,0.0,0.0
0.03,57.696233297771506,11.878981267937519,24.38933047672244,50.0,50.0,50.0,50.0,50.0,50.0,50.0,50.0,50.0,50.0,0.0,-0.0,-0.0,0.0,0.0,0.0,0.0,0.0,0.0,0.0,0.0,0.0,0.0
0.04,57.696233297771506,11.878981267937519,24.38933047672244,50.0,50.0,50.0,50.0,50.0,50.0,50.0,50.0,50.0,50.0,0.0,-0.0,-0.0,0.0,0.0,0.0,0.0,0.0,0.0,0.0,0.0,0.0,0.0
0.05,57.696233297771506,11.878981267937519,24.38933047672244,50.0,50.0,50.0,50.0,50.0,50.0,50.0,50.0,50.0,50.0,0.0,-0.0,-0.0,0.0,0.0,0.0,0.0,0.0,0.0,0.0,0.0,0.0,0.0
0.06,57.696233297771506,11.878981267937519,24.38933047672244,50.0,50.0,50.0,50.0,50.0,50.0,50.0,50.0,50.0,50.0,0.0,-0.0,-0.0,0.0,0.0,0.0,0.0,0.0,0.0,0.0,0.0,0.0,0.0
0.07,57.696233297771506,11.878981267937519,24.38933047672244,50.0,50.0,50.0,50.0,50.0,50.0,50.0,50.0,50.0,50.0,0.0,-0.0,-0.0,0.0,0.0,0.0,0.0,0.0,0.0,0.0,0.0,0.0,0.0
0.08,57.696233297771506,11.878981267937519,24.38933047672244,50.0,50.0,50.0,50.0,50.0,50.0,50.0,50.0,50.0,50.0,0.0,-0.0,-0.0,0.0,0.0,0.0,0.0,0.0,0.0,0.0,0.0,0.0,0.0
0.09,57.696233297771506,11.878981267937519,24.38933047672244,50.0,50.0,50.0,50.0,50.0,50.0,50.0,50.0,50.0,50.0,0.0,-0.0,-0.0,0.0,0.0,0.0,0.0,0.0,0.0,0.0,0.0,0.0,0.0
0.1,57.696233297771506,11.878981267937519,24.38933047672244,50.0,50.0,50.0,50.0,50.0,50.0,50.0,50.0,50.0,50.0,0.0,-0.0,-0.0,0.0,0.0,0.0,0.0,0.0,0.0,0.0,0.0,0.0,0.0
0.11,57.696233297771506,11.878981267937519,24.38933047672244,50.0,50.0,50.0,50.0,50.0,50.0,50.0,50.0,50.0,50.0,0.0,-0.0,-0.0,0.0,0.0,0.0,0.0,0.0,0.0,0.0,0.0,0.0,0.0
0.12,57.696233297771506,11.878981267937519,24.38933047672244,50.0,50.0,50.0,50.0,50.0,50.0,50.0,50.0,50.0,50.0,0.0,-0.0,-0.0,0.0,0.0,0.0,0.0,0.0,0.0,0.0,0.0,0.0,0.0
0.13,57.696233297771506,11.878981267937519,24.38933047672244,50.0,50.0,50.0,50.0,50.0,50.0,50.0,50.0,50.0,50.0,0.0,-0.0,-0.0,0.0,0.0,0.0,0.0,0.0,0.0,0.0,0.0,0.0,0.0
0.14,57.696233297771506,11.878981267937519,24.38933047672244,50.0,50.0,50.0,50.0,50.0,50.0,50.0,50.0,50.0,50.0,0.0,-0.0,-0.0,0.0,0.0,0.0,0.0,0.0,0.0,0.0,0.0,0.0,0.0
0.15,57.696233297771506,11.878981267937519,24.38933047672244,50.0,50.0,50.0,50.0,50.0,50.0,50.0,50.0,50.0,50.0,0.0,-0.0,-0.0,0.0,0.0,0.0,0.0,0.0,0.0,0.0,0.0,0.0,0.0
0.16,57.696233297771506,11.878981267937519,24.38933047672244,50.0,50.0,50.0,50.0,50.0,50.0,50.0,50.0,50.0,50.0,0.0,-0.0,-0.0,0.0,0.0,0.0,0.0,0.0,0.0,0.0,0.0,0.0,0.0
0.17,57.696233297771506,11.878981267937519,24.38933047672244,50.0,50.0,50.0,50.0,50.0,50.0,50.0,50.0,50.0,50.0,0.0,-0.0,-0.0,0.0,0.0,0.0,0.0,0.0,0.0,0.0,0.0,0.0,0.0
0.18,57.696233297771506,11.878981267937519,24.38933047672244,50.0,50.0,50.0,50.0,50.0,50.0,50.0,50.0,50.0,50.0,0.0,-0.0,-0.0,0.0,0.0,0.0,0.0,0.0,0.0,0.0,0.0,0.0,0.0
0.19,57.696233297771506,11.878981267937519,24.38933047672244,50.0,50.0,50.0,50.0,50.0,50.0,50.0,50.0,50.0,50.0,0.0,-0.0,-0.0,0.0,0.0,0.0,0.0,0.0,0.0,0.0,0.0,0.0,0.0
0.2,57.696233297771506,11.878981267937519,24.38933047672244,50.0,50.0,50.0,50.0,50.0,50.0,50.0,50.0,50.0,50.0,0.0,-0.0,-0.0,0.0,0.0,0.0,0.0,0.0,0.0,0.0,0.0,0.0,0.0
0.21,57.696233297771506,11.878981267937519,24.38933047672244,50.0,50.0,50.0,50.0,50.0,50.0,50.0,50.0,50.0,50.0,0.0,-0.0,-0.0,0.0,0.0,0.0,0.0,0.0,0.0,0.0,0.0,0.0,0.0
0.22,57.696233297771506,11.878981267937519,24.38933047672244,50.0,50.0,50.0,50.0,50.0,50.0,50.0,50.0,50.0,50.0,0.0,-0.0,-0.0,0.0,0.0,0.0,0.0,0.0,0.0,0.0,0.0,0.0,0.0
0.23,57.696233297771506,11.878981267937519,24.38933047672244,50.0,50.0,50.0,50.0,50.0,50.0,50.0,50.0,50.0,50.0,0.0,-0.0,-0.0,0.0,0.0,0.0,0.0,0.0,0.0,0.0,0.0,0.0,0.0
0.24,57.696233297771506,11.878981267937519,24.38933047672244,50.0,50.0,50.0,50.0,50.0,50.0,50.0,50.0,50.0,50.0,0.0,-0.0,-0.0,0.0,0.0,0.0,0.0,0.0,0.0,0.0,0.0,0.0,0.0
0.25,57.696233297771506,11.878981267937519,24.38933047672244,50.0,50.0,50.0,50.0,50.0,50.0,50.0,50.0,50.0,50.0,0.0,-0.0,-0.0,0.0,0.0,0.0,0.0,0.0,0.0,0.0,0.0,0.0,0.0
0.26,57.696233297771506,11.878981267937519,24.38933047672244,50.0,50.0,50.0,50.0,50.0,50.0,50.0,50.0,50.0,50.0,0.0,-0.0,-0.0,0.0,0.0,0.0,0.0,0.0,0.0,0.0,0.0,0.0,0.0
0.27,57.696233297771506,11.878981267937519,24.38933047672244,50.0,50.0,50.0,50.0,50.0,50.0,50.0,50.0,50.0,50.0,0.0,-0.0,-0.0,0.0,0.0,0.0,0.0,0.0,0.0,0.0,0.0,0.0,0.0
0.28,57.696233297771506,11.878981267937519,24.38933047672244,50.0,50.0,50.0,50.0,50.0,50.0,50.0,50.0,50.0,50.0,0.0,-0.0,-0.0,0.0,0.0,0.0,0.0,0.0,0.0,0.0,0.0,0.0,0.0
0.29,57.696233297771506,11.878981267937519,24.38933047672244,50.0,50.0,50.0,50.0,50.0,50.0,50.0,50.0,50.0,50.0,0.0,-0.0,-0.0,0.0,0.0,0.0,0.0,0.0,0.0,0.0,0.0,0.0,0.0
0.3,57.696233297771506,11.878981267937519,24.38933047672244,50.0,50.0,50.0,50.0,50.0,50.0,50.0,50.0,50.0,50.0,0.0,-0.0,-0.0,0.0,0.0,0.0,0.0,0.0,0.0,0.0,0.0,0.0,0.0
0.31,57.696233297771506,11.878981267937519,24.38933047672244,50.0,50.0,50.0,50.0,50.0,50.0,50.0,50.0,50.0,50.0,0.0,-0.0,-0.0,0.0,0.0,0.0,0.0,0.0,0.0,0.0,0.0,0.0,0.0
0.32,57.696233297771506,11.878981267937519,24.38933047672244,50.0,50.0,50.0,50.0,50.0,50.0,50.0,50.0,50.0,50.0,0.0,-0.0,-0.0,0.0,0.0,0.0,0.0,0.0,0.0,0.0,0.0,0.0,0.0
0.33,57.696233297771506,11.878981267937519,24.38933047672244,50.0,50.0,50.0,50.0,50.0,50.0,50.0,50.0,50.0,50.0,0.0,-0.0,-0.0,0.0,0.0,0.0,0.0,0.0,0.0,0.0,0.0,0.0,0.0
0.34,57.696233297771506,11.878981267937519,24.38933047672244,50.0,50.0,50.0,50.0,50.0,50.0,50.0,50.0,50.0,50.0,0.0,-0.0,-0.0,0.0,0.0,0.0,0.0,0.0,0.0,0.0,0.0,0.0,0.0
0.35,57.696233297771506,11.878981267937519,24.38933047672244,50.0,50.0,50.0,50.0,50.0,50.0,50.0,50.0,50.0,50.0,0.0,-0.0,-0.0,0.0,0.0,0.0,0.0,0.0,0.0,0.0,0.0,0.0,0.0
0.36,57.696233297771506,11.878981267937519,24.38933047672244,50.0,50.0,50.0,50.0,50.0,50.0,50.0,50.0,50.0,50.0,0.0,-0.0,-0.0,0.0,0.0,0.0,0.0,0.0,0.0,0.0,0.0,0.0,0.0
0.37,57.696233297771506,11.878981267937519,24.38933047672244,50.0,50.0,50.0,50.0,50.0,50.0,50.0,50.0,50.0,50.0,0.0,-0.0,-0.0,0.0,0.0,0.0,0.0,0.0,0.0,0.0,0.0,0.0,0.0
0.38,57.696233297771506,11.878981267937519,24.38933047672244,50.0,50.0,50.0,50.0,50.0,50.0,50.0,50.0,50.0,50.0,0.0,-0.0,-0.0,0.0,0.0,0.0,0.0,0.0,0.0,0.0,0.0,0.0,0.0
0.39,57.696233297771506,11.878981267937519,24.38933047672244,50.0,50.0,50.0,50.0,50.0,50.0,50.0,50.0,50.0,50.0,0.0,-0.0,-0.0,0.0,0.0,0.0,0.0,0.0,0.0,0.0,0.0,0.0,0.0
0.4,57.696233297771506,11.878981267937519,24.38933047672244,50.0,50.0,50.0,50.0,50.0,50.0,50.0,50.0,50.0,50.0,0.0,-0.0,-0.0,0.0,0.0,0.0,0.0,0.0,0.0,0.0,0.0,0.0,0.0
0.41,57.696233297771506,11.878981267937519,24.38933047672244,50.0,50.0,50.0,50.0,50.0,50.0,50.0,50.0,50.0,50.0,0.0,-0.0,-0.0,0.0,0.0,0.0,0.0,0.0,0.0,0.0,0.0,0.0,0.0
0.42,57.696233297771506,11.878981267937519,24.38933047672244,50.0,50.0,50.0,50.0,50.0,50.0,50.0,50.0,50.0,50.0,0.0,-0.0,-0.0,0.0,0.0,0.0,0.0,0.0,0.0,0.0,0.0,0.0,0.0
0.43,57.696233297771506,11.878981267937519,24.38933047672244,50.0,50.0,50.0,50.0,50.0,50.0,50.0,50.0,50.0,50.0,0.0,-0.0,-0.0,0.0,0.0,0.0,0.0,0.0,0.0,0.0,0.0,0.0,0.0
0.44,57.696233297771506,11.878981267937519,24.38933047672244,50.0,50.0,50.0,50.0,50.0,50.0,50.0,50.0,50.0,50.0,0.0,-0.0,-0.0,0.0,0.0,0.0,0.0,0.0,0.0,0.0,0.0,0.0,0.0
0.45,57.696233297771506,11.878981267937519,24.38933047672244,50.0,50.0,50.0,50.0,50.0,50.0,50.0,50.0,50.0,50.0,0.0,-0.0,-0.0,0.0,0.0,0.0,0.0,0.0,0.0,0.0,0.0,0.0,0.0
0.46,57.696233297771506,11.878981267937519,24.38933047672244,50.0,50.0,50.0,50.0,50.0,50.0,50.0,50.0,50.0,50.0,0.0,-0.0,-0.0,0.0,0.0,0.0,0.0,0.0,0.0,0.0,0.0,0.0,0.0
0.47,57.696233297771506,11.878981267937519,24.38933047672244,50.0,50.0,50.0,50.0,50.0,50.0,50.0,50.0,50.0,50.0,0.0,-0.0,-0.0,0.0,0.0,0.0,0.0,0.0,0.0,0.0,0.0,0.0,0.0
0.48,57.696233297771506,11.878981267937519,24.38933047672244,50.0,50.0,50.0,50.0,50.0,50.0,50.0,50.0,50.0,50.0,0.0,-0.0,-0.0,0.0,0.0,0.0,0.0,0.0,0.0,0.0,0.0,0.0,0.0
0.49,57.696233297771506,11.878981267937519,24.38933047672244,50.0,50.0,50.0,50.0,50.0,50.0,50.0,50.0,50.0,50.0,0.0,-0.0,-0.0,0.0,0.0,0.0,0.0,0.0,0.0,0.0,0.0,0.0,0.0
0.5,57.696233297771506,11.878981267937519,24.38933047672244,50.0,50.0,50.0,50.0,50.0,50.0,50.0,50.0,50.0,50.0,0.0,-0.0,-0.0,0.0,0.0,0.0,0.0,0.0,0.0,0.0,0.0,0.0,0.0
0.51,57.696233297771506,11.878981267937519,24.38933047672244,50.0,50.0,50.0,50.0,50.0,50.0,50.0,50.0,50.0,50.0,0.0,-0.0,-0.0,0.0,0.0,0.0,0.0,0.0,0.0,0.0,0.0,0.0,0.0
0.52,57.696233297771506,11.878981267937519,24.38933047672244,50.0,50.0,50.0,50.0,50.0,50.0,50.0,50.0,50.0,50.0,0.0,-0.0,-0.0,0.0,0.0,0.0,0.0,0.0,0.0,0.0,0.0,0.0,0.0
0.53,57.696233297771506,11.878981267937519,24.38933047672244,50.0,50.0,50.0,50.0,50.0,50.0,50.0,50.0,50.0,50.0,0.0,-0.0,-0.0,0.0,0.0,0.0,0.0,0.0,0.0,0.0,0.0,0.0,0.0
0.54,57.696233297771506,11.878981267937519,24.38933047672244,50.0,50.0,50.0,50.0,50.0,50.0,50.0,50.0,50.0,50.0,0.0,-0.0,-0.0,0.0,0.0,0.0,0.0,0.0,0.0,0.0,0.0,0.0,0.0
0.55,57.696233297771506,11.878981267937519,24.38933047672244,50.0,50.0,50.0,50.0,50.0,50.0,50.0,50.0,50.0,50.0,0.0,-0.0,-0.0,0.0,0.0,0.0,0.0,0.0,0.0,0.0,0.0,0.0,0.0
0.56,57.696233297771506,11.878981267937519,24.38933047672244,50.0,50.0,50.0,50.0,50.0,50.0,50.0,50.0,50.0,50.0,0.0,-0.0,-0.0,0.0,0.0,0.0,0.0,0.0,0.0,0.0,0.0,0.0,0.0
0.57,57.696233297771506,11.878981267937519,24.38933047672244,50.0,50.0,50.0,50.0,50.0,50.0,50.0,50.0,50.0,50.0,0.0,-0.0,-0.0,0.0,0.0,0.0,0.0,0.0,0.0,0.0,0.0,0.0,0.0
0.58,57.696233297771506,11.878981267937519,24.38933047672244,50.0,50.0,50.0,50.0,50.0,50.0,50.0,50.0,50.0,50.0,0.0,-0.0,-0.0,0.0,0.0,0.0,0.0,0.0,0.0,0.0,0.0,0.0,0.0
0.59,57.696233297771506,11.878981267937519,24.38933047672244,50.0,50.0,50.0,50.0,50.0,50.0,50.0,50.0,50.0,50.0,0.0,-0.0,-0.0,0.0,0.0,0.0,0.0,0.0,0.0,0.0,0.0,0.0,0.0
0.6,57.696233297771506,11.878981267937519,24.38933047672244,50.0,50.0,50.0,50.0,50.0,50.0,50.0,50.0,50.0,50.0,0.0,-0.0,-0.0,0.0,0.0,0.0,0.0,0.0,0.0,0.0,0.0,0.0,0.0
0.61,57.696233297771506,11.878981267937519,24.38933047672244,50.0,50.0,50.0,50.0,50.0,50.0,50.0,50.0,50.0,50.0,0.0,-0.0,-0.0,0.0,0.0,0.0,0.0,0.0,0.0,0.0,0.0,0.0,0.0
0.62,57.696233297771506,11.878981267937519,24.38933047672244,50.0,50.0,50.0,50.0,50.0,50.0,50.0,50.0,50.0,50.0,0.0,-0.0,-0.0,0.0,0.0,0.0,0.0,0.0,0.0,0.0,0.0,0.0,0.0
0.63,57.696233297771506,11.878981267937519,24.38933047672244,50.0,50.0,50.0,50.0,50.0,50.0,50.0,50.0,50.0,50.0,0.0,-0.0,-0.0,0.0,0.0,0.0,0.0,0.0,0.0,0.0,0.0,0.0,0.0
0.64,57.696233297771506,11.878981267937519,24.38933047672244,50.0,50.0,50.0,50.0,50.0,50.0,50.0,50.0,50.0,50.0,0.0,-0.0,-0.0,0.0,0.0,0.0,0.0,0.0,0.0,0.0,0.0,0.0,0.0
0.65,57.696233297771506,11.878981267937519,24.38933047672244,50.0,50.0,50.0,50.0,50.0,50.0,50.0,50.0,50.0,50.0,0.0,-0.0,-0.0,0.0,0.0,0.0,0.0,0.0,0.0,0.0,0.0,0.0,0.0
0.66,57.696233297771506,11.878981267937519,24.38933047672244,50.0,50.0,50.0,50.0,50.0,50.0,50.0,50.0,50.0,50.0,0.0,-0.0,-0.0,0.0,0.0,0.0,0.0,0.0,0.0,0.0,0.0,0.0,0.0
0.67,57.696233297771506,11.878981267937519,24.38933047672244,50.0,50.0,50.0,50.0,50.0,50.0,50.0,50.0,50.0,50.0,0.0,-0.0,-0.0,0.0,0.0,0.0,0.0,0.0,0.0,0.0,0.0,0.0,0.0
0.68,57.696233297771506,11.878981267937519,24.38933047672244,50.0,50.0,50.0,50.0,50.0,50.0,50.0,50.0,50.0,50.0,0.0,-0.0,-0.0,0.0,0.0,0.0,0.0,0.0,0.0,0.0,0.0,0.0,0.0
0.69,57.696233297771506,11.878981267937519,24.38933047672244,50.0,50.0,50.0,50.0,50.0,50.0,50.0,50.0,50.0,50.0,0.0,-0.0,-0.0,0.0,0.0,0.0,0.0,0.0,0.0,0.0,0.0,0.0,0.0
0.7,57.696233297771506,11.878981267937519,24.38933047672244,50.0,50.0,50.0,50.0,50.0,50.0,50.0,50.0,50.0,50.0,0.0,-0.0,-0.0,0.0,0.0,0.0,0.0,0.0,0.0,0.0,0.0,0.0,0.0
0.71,57.696233297771506,11.878981267937519,24.38933047672244,50.0,50.0,50.0,50.0,50.0,50.0,50.0,50.0,50.0,50.0,0.0,-0.0,-0.0,0.0,0.0,0.0,0.0,0.0,0.0,0.0,0.0,0.0,0.0
0.72,57.696233297771506,11.878981267937519,24.38933047672244,50.0,50.0,50.0,50.0,50.0,50.0,50.0,50.0,50.0,50.0,0.0,-0.0,-0.0,0.0,0.0,0.0,0.0,0.0,0.0,0.0,0.0,0.0,0.0
0.73,57.696233297771506,11.878981267937519,24.38933047672244,50.0,50.0,50.0,50.0,50.0,50.0,50.0,50.0,50.0,50.0,0.0,-0.0,-0.0,0.0,0.0,0.0,0.0,0.0,0.0,0.0,0.0,0.0,0.0
0.74,57.696233297771506,11.878981267937519,24.38933047672244,50.0,50.0,50.0,50.0,50.0,50.0,50.0,50.0,50.0,50.0,0.0,-0.0,-0.0,0.0,0.0,0.0,0.0,0.0,0.0,0.0,0.0,0.0,0.0
0.75,57.696233297771506,11.878981267937519,24.38933047672244,50.0,50.0,50.0,50.0,50.0,50.0,50.0,50.0,50.0,50.0,0.0,-0.0,-0.0,0.0,0.0,0.0,0.0,0.0,0.0,0.0,0.0,0.0,0.0
0.76,57.696233297771506,11.878981267937519,24.38933047672244,50.0,50.0,50.0,50.0,50.0,50.0,50.0,50.0,50.0,50.0,0.0,-0.0,-0.0,0.0,0.0,0.0,0.0,0.0,0.0,0.0,0.0,0.0,0.0
0.77,57.696233297771506,11.878981267937519,24.38933047672244,50.0,50.0,50.0,50.0,50.0,50.0,50.0,50.0,50.0,50.0,0.0,-0.0,-0.0,0.0,0.0,0.0,0.0,0.0,0.0,0.0,0.0,0.0,0.0
0.78,57.696233297771506,11.878981267937519,24.38933047672244,50.0,50.0,50.0,50.0,50.0,50.0,50.0,50.0,50.0,50.0,0.0,-0.0,-0.0,0.0,0.0,0.0,0.0,0.0,0.0,0.0,0.0,0.0,0.0
0.79,57.696233297771506,11.878981267937519,24.38933047672244,50.0,50.0,50.0,50.0,50.0,50.0,50.0,50.0,50.0,50.0,0.0,-0.0,-0.0,0.0,0.0,0.0,0.0,0.0,0.0,0.0,0.0,0.0,0.0
0.8,57.696233297771506,11.878981267937519,24.38933047672244,50.0,50.0,50.0,50.0,50.0,50.0,50.0,50.0,50.0,50.0,0.0,-0.0,-0.0,0.0,0.0,0.0,0.0,0.0,0.0,0.0,0.0,0.0,0.0
0.81,57.696233297771506,11.878981267937519,24.38933047672244,50.0,50.0,50.0,50.0,50.0,50.0,50.0,50.0,50.0,50.0,0.0,-0.0,-0.0,0.0,0.0,0.0,0.0,0.0,0.0,0.0,0.0,0.0,0.0
0.82,57.696233297771506,11.878981267937519,24.38933047672244,50.0,50.0,50.0,50.0,50.0,50.0,50.0,50.0,50.0,50.0,0.0,-0.0,-0.0,0.0,0.0,0.0,0.0,0.0,0.0,0.0,0.0,0.0,0.0
0.83,57.696233297771506,11.878981267937519,24.38933047672244,50.0,50.0,50.0,50.0,50.0,50.0,50.0,50.0,50.0,50.0,0.0,-0.0,-0.0,0.0,0.0,0.0,0.0,0.0,0.0,0.0,0.0,0.0,0.0
0.84,57.696233297771506,11.878981267937519,24.38933047672244,50.0,50.0,50.0,50.0,50.0,50.0,50.0,50.0,50.0,50.0,0.0,-0.0,-0.0,0.0,0.0,0.0,0.0,0.0,0.0,0.0,0.0,0.0,0.0
0.85,57.696233297771506,11.878981267937519,24.38933047672244,50.0,50.0,50.0,50.0,50.0,50.0,50.0,50.0,50.0,50.0,0.0,-0.0,-0.0,0.0,0.0,0.0,0.0,0.0,0.0,0.0,0.0,0.0,0.0
0.86,57.696233297771506,11.878981267937519,24.38933047672244,50.0,50.0,50.0,50.0,50.0,50.0,50.0,50.0,50.0,50.0,0.0,-0.0,-0.0,0.0,0.0,0.0,0.0,0.0,0.0,0.0,0.0,0.0,0.0
0.87,57.696233297771506,11.878981267937519,24.38933047672244,50.0,50.0,50.0,50.0,50.0,50.0,50.0,50.0,50.0,50.0,0.0,-0.0,-0.0,0.0,0.0,0.0,0.0,0.0,0.0,0.0,0.0,0.0,0.0
0.88,57.696233297771506,11.878981267937519,24.38933047672244,50.0,50.0,50.0,50.0,50.0,50.0,50.0,50.0,50.0,50.0,0.0,-0.0,-0.0,0.0,0.0,0.0,0.0,0.0,0.0,0.0,0.0,0.0,0.0
0.89,57.696233297771506,11.878981267937519,24.38933047672244,50.0,50.0,50.0,50.0,50.0,50.0,50.0,50.0,50.0,50.0,0.0,-0.0,-0.0,0.0,0.0,0.0,0.0,0.0,0.0,0.0,0.0,0.0,0.0
0.9,57.696233297771506,11.878981267937519,24.38933047672244,50.0,50.0,50.0,50.0,50.0,50.0,50.0,50.0,50.0,50.0,0.0,-0.0,-0.0,0.0,0.0,0.0,0.0,0.0,0.0,0.0,0.0,0.0,0.0
0.91,57.696233297771506,11.878981267937519,24.38933047672244,50.0,50.0,50.0,50.0,50.0,50.0,50.0,50.0,50.0,50.0,0.0,-0.0,-0.0,0.0,0.0,0.0,0.0,0.0,0.0,0.0,0.0,0.0,0.0
0.92,57.696233297771506,11.878981267937519,24.38933047672244,50.0,50.0,50.0,50.0,50.0,50.0,50.0,50.0,50.0,50.0,0.0,-0.0,-0.0,0.0,0.0,0.0,0.0,0.0,0.0,0.0,0.0,0.0,0.0
0.93,57.696233297771506,11.878981267937519,24.38933047672244,50.0,50.0,50.0,50.0,50.0,50.0,50.0,50.0,50.0,50.0,0.0,-0.0,-0.0,0.0,0.0,0.0,0.0,0.0,0.0,0.0,0.0,0.0,0.0
0.94,57.696233297771506,11.878981267937519,24.38933047672244,50.0,50.0,50.0,50.0,50.0,50.0,50.0,50.0,50.0,50.0,0.0,-0.0,-0.0,0.0,0.0,0.0,0.0,0.0,0.0,0.0,0.0,0.0,0.0
0.95,57.696233297771506,11.878981267937519,24.38933047672244,50.0,50.0,50.0,50.0,50.0,50.0,50.0,50.0,50.0,50.0,0.0,-0.0,-0.0,0.0,0.0,0.0,0.0,0.0,0.0,0.0,0.0,0.0,0.0
0.96,57.696233297771506,11.878981267937519,60.63796620316816,50.0,50.0,50.0,50.0,50.0,50.0,50.0,50.0,50.0,50.0,0.0,-0.0,0.0,0.0,0.0,0.0,0.0,0.0,0.0,0.0,0.0,0.0,0.0
0.97,57.696233297771506,11.878981267937519,60.63796620316816,50.0,50.0,50.0,50.0,50.0,50.0,50.0,50.0,50.0,50.0,0.0,-0.0,0.0,0.0,0.0,0.0,0.0,0.0,0.0,0.0,0.0,0.0,0.0
0.98,57.696233297771506,11.878981267937519,60.63796620316816,50.0,50.0,50.0,50.0,50.0,50.0,50.0,50.0,50.0,50.0,0.0,-0.0,0.0,0.0,0.0,0.0,0.0,0.0,0.0,0.0,0.0,0.0,0.0
0.99,57.696233297771506,11.878981267937519,60.63796620316816,50.0,50.0,50.0,50.0,50.0,50.0,50.0,50.0,50.0,50.0,0.0,-0.0,0.0,0.0,0.0,0.0,0.0,0.0,0.0,0.0,0.0,0.0,0.0
1.0,57.696233297771506,11.878981267937519,60.63796620316816,50.0,50.0,50.0,50.0,50.0,50.0,50.0,50.0,50.0,50.0,0.0,-0.0,0.0,0.0,0.0,0.0,0.0,0.0,0.0,0.0,0.0,0.0,0.0
1.01,57.696233297771506,11.878981267937519,60.63796620316816,50.0,50.0,50.0,50.0,50.0,50.0,50.0,50.0,50.0,50.0,0.0,-0.0,0.0,0.0,0.0,0.0,0.0,0.0,0.0,0.0,0.0,0.0,0.0
1.02,57.696233297771506,11.878981267937519,60.63796620316816,50.0,50.0,50.0,50.0,50.0,50.0,50.0,50.0,50.0,50.0,0.0,-0.0,0.0,0.0,0.0,0.0,0.0,0.0,0.0,0.0,0.0,0.0,0.0
1.03,57.696233297771506,11.878981267937519,60.63796620316816,50.0,50.0,50.0,50.0,50.0,50.0,50.0,50.0,50.0,50.0,0.0,-0.0,0.0,0.0,0.0,0.0,0.0,0.0,0.0,0.0,0.0,0.0,0.0
1.04,57.696233297771506,11.878981267937519,60.63796620316816,50.0,50.0,50.0,50.0,50.0,50.0,50.0,50.0,50.0,50.0,0.0,-0.0,0.0,0.0,0.0,0.0,0.0,0.0,0.0,0.0,0.0,0.0,0.0
1.05,57.696233297771506,11.878981267937519,60.63796620316816,50.0,50.0,50.0,50.0,50.0,50.0,50.0,50.0,50.0,50.0,0.0,-0.0,0.0,0.0,0.0,0.0,0.0,0.0,0.0,0.0,0.0,0.0,0.0
1.06,57.696233297771506,11.878981267937519,60.63796620316816,50.0,50.0,50.0,50.0,50.0,50.0,50.0,50.0,50.0,50.0,0.0,-0.0,0.0,0.0,0.0,0.0,0.0,0.0,0.0,0.0,0.0,0.0,0.0
1.07,57.696233297771506,11.878981267937519,60.63796620316816,50.0,50.0,50.0,50.0,50.0,50.0,50.0,50.0,50.0,50.0,0.0,-0.0,0.0,0.0,0.0,0.0,0.0,0.0,0.0,0.0,0.0,0.0,0.0
1.08,57.696233297771506,11.878981267937519,60.63796620316816,50.0,50.0,50.0,50.0,50.0,50.0,50.0,50.0,50.0,50.0,0.0,-0.0,0.0,0.0,0.0,0.0,0.0,0.0,0.0,0.0,0.0,0.0,0.0
1.09,57.696233297771506,11.878981267937519,60.63796620316816,50.0,50.0,50.0,50.0,50.0,50.0,50.0,50.0,50.0,50.0,0.0,-0.0,0.0,0.0,0.0,0.0,0.0,0.0,0.0,0.0,0.0,0.0,0.0
1.1,57.696233297771506,11.878981267937519,60.63796620316816,50.0,50.0,50.0,50.0,50.0,50.0,50.0,50.0,50.0,50.0,0.0,-0.0,0.0,0.0,0.0,0.0,0.0,0.0,0.0,0.0,0.0,0.0,0.0
1.11,57.696233297771506,11.878981267937519,60.63796620316816,50.0,50.0,50.0,50.0,50.0,50.0,50.0,50.0,50.0,50.0,0.0,-0.0,0.0,0.0,0.0,0.0,0.0,0.0,0.0,0.0,0.0,0.0,0.0
1.12,57.696233297771506,11.878981267937519,60.63796620316816,50.0,50.0,50.0,50.0,50.0,50.0,50.0,50.0,50.0,50.0,0.0,-0.0,0.0,0.0,0.0,0.0,0.0,0.0,0.0,0.0,0.0,0.0,0.0
1.13,57.696233297771506,11.878981267937519,60.63796620316816,50.0,50.0,50.0,50.0,50.0,50.0,50.0,50.0,50.0,50.0,0.0,-0.0,0.0,0.0,0.0,0.0,0.0,0.0,0.0,0.0,0.0,0.0,0.0
1.14,53.663985853953946,11.878981267937519,60.63796620316816,50.0,50.0,50.0,50.0,50.0,50.0,50.0,50.0,50.0,50.0,-0.0,-0.0,0.0,0.0,0.0,0.0,0.0,0.0,0.0,0.0,0.0,0.0,0.0
1.15,53.663985853953946,11.878981267937519,60.63796620316816,50.0,50.0,50.0,50.0,50.0,50.0,50.0,50.0,50.0,50.0,-0.0,-0.0,0.0,0.0,0.0,0.0,0.0,0.0,0.0,0.0,0.0,0.0,0.0
1.16,53.663985853953946,11.878981267937519,60.63796620316816,50.0,50.0,50.0,50.0,50.0,50.0,50.0,50.0,50.0,50.0,-0.0,-0.0,0.0,0.0,0.0,0.0,0.0,0.0,0.0,0.0,0.0,0.0,0.0
1.17,53.663985853953946,11.878981267937519,60.63796620316816,50.0,50.0,50.0,50.0,50.0,50.0,50.0,50.0,50.0,50.0,-0.0,-0.0,0.0,0.0,0.0,0.0,0.0,0.0,0.0,0.0,0.0,0.0,0.0
1.18,53.663985853953946,11.878981267937519,60.63796620316816,50.0,50.0,50.0,50.0,50.0,50.0,50.0,50.0,50.0,50.0,-0.0,-0.0,0.0,0.0,0.0,0.0,0.0,0.0,0.0,0.0,0.0,0.0,0.0
1.19,53.663985853953946,11.878981267937519,60.63796620316816,50.0,50.0,50.0,50.0,50.0,50.0,50.0,50.0,50.0,50.0,-0.0,-0.0,0.0,0.0,0.0,0.0,0.0,0.0,0.0,0.0,0.0,0.0,0.0
1.2,53.663985853953946,11.878981267937519,60.63796620316816,50.0,50.0,50.0,50.0,50.0,50.0,50.0,50.0,50.0,50.0,-0.0,-0.0,0.0,0.0,0.0,0.0,0.0,0.0,0.0,0.0,0.0,0.0,0.0
1.21,53.663985853953946,11.878981267937519,60.63796620316816,50.0,50.0,50.0,50.0,50.0,50.0,50.0,50.0,50.0,50.0,-0.0,-0.0,0.0,0.0,0.0,0.0,0.0,0.0,0.0,0.0,0.0,0.0,0.0
1.22,53.663985853953946,11.878981267937519,60.63796620316816,50.0,50.0,50.0,50.0,50.0,50.0,50.0,50.0,50.0,50.0,-0.0,-0.0,0.0,0.0,0.0,0.0,0.0,0.0,0.0,0.0,0.0,0.0,0.0
1.23,53.663985853953946,11.878981267937519,60.63796620316816,50.0,50.0,50.0,50.0,50.0,50.0,50.0,50.0,50.0,50.0,-0.0,-0.0,0.0,0.0,0.0,0.0,0.0,0.0,0.0,0.0,0.0,0.0,0.0
1.24,53.663985853953946,11.878981267937519,60.63796620316816,50.0,50.0,50.0,50.0,50.0,50.0,50.0,50.0,50.0,50.0,-0.0,-0.0,0.0,0.0,0.0,0.0,0.0,0.0,0.0,0.0,0.0,0.0,0.0
1.25,53.663985853953946,11.878981267937519,60.63796620316816,50.0,50.0,50.0,50.0,50.0,50.0,50.0,50.0,50.0,50.0,-0.0,-0.0,0.0,0.0,0.0,0.0,0.0,0.0,0.0,0.0,0.0,0.0,0.0
1.26,53.663985853953946,11.878981267937519,60.63796620316816,50.0,50.0,50.0,50.0,50.0,50.0,50.0,50.0,50.0,50.0,-0.0,-0.0,0.0,0.0,0.0,0.0,0.0,0.0,0.0,0.0,0.0,0.0,0.0
1.27,53.663985853953946,11.878981267937519,60.63796620316816,50.0,50.0,50.0,50.0,50.0,50.0,50.0,50.0,50.0,50.0,-0.0,-0.0,0.0,0.0,0.0,0.0,0.0,0.0,0.0,0.0,0.0,0.0,0.0
1.28,53.663985853953946,11.878981267937519,60.63796620316816,50.0,50.0,50.0,50.0,50.0,50.0,50.0,50.0,50.0,50.0,-0.0,-0.0,0.0,0.0,0.0,0.0,0.0,0.0,0.0,0.0,0.0,0.0,0.0
1.29,53.663985853953946,11.878981267937519,60.63796620316816,50.0,50.0,50.0,50.0,50.0,50.0,50.0,50.0,50.0,50.0,-0.0,-0.0,0.0,0.0,0.0,0.0,0.0,0.0,0.0,0.0,0.0,0.0,0.0
1.3,53.663985853953946,11.878981267937519,60.63796620316816,50.0,50.0,50.0,50.0,50.0,50.0,50.0,50.0,50.0,50.0,-0.0,-0.0,0.0,0.0,0.0,0.0,0.0,0.0,0.0,0.0,0.0,0.0,0.0
1.31,53.663985853953946,11.878981267937519,60.63796620316816,50.0,50.0,50.0,50.0,50.0,50.0,50.0,50.0,50.0,50.0,-0.0,-0.0,0.0,0.0,0.0,0.0,0.0,0.0,0.0,0.0,0.0,0.0,0.0
1.32,53.663985853953946,11.878981267937519,60.63796620316816,50.0,50.0,50.0,50.0,50.0,50.0,50.0,50.0,50.0,50.0,-0.0,-0.0,0.0,0.0,0.0,0.0,0.0,0.0,0.0,0.0,0.0,0.0,0.0
1.33,53.663985853953946,11.878981267937519,60.63796620316816,50.0,50.0,50.0,50.0,50.0,50.0,50.0,50.0,50.0,50.0,-0.0,-0.0,0.0,0.0,0.0,0.0,0.0,0.0,0.0,0.0,0.0,0.0,0.0
1.34,53.663985853953946,11.878981267937519,60.63796620316816,50.0,50.0,50.0,50.0,50.0,50.0,50.0,50.0,50.0,50.0,-0.0,-0.0,0.0,0.0,0.0,0.0,0.0,0.0,0.0,0.0,0.0,0.0,0.0
1.35,53.663985853953946,11.878981267937519,60.63796620316816,50.0,50.0,50.0,50.0,50.0,50.0,50.0,50.0,50.0,50.0,-0.0,-0.0,0.0,0.0,0.0,0.0,0.0,0.0,0.0,0.0,0.0,0.0,0.0
1.36,53.663985853953946,11.878981267937519,60.63796620316816,50.0,50.0,50.0,50.0,50.0,50.0,50.0,50.0,50.0,50.0,-0.0,-0.0,0.0,0.0,0.0,0.0,0.0,0.0,0.0,0.0,0.0,0.0,0.0
1.37,53.663985853953946,11.878981267937519,60.63796620316816,50.0,50.0,50.0,50.0,50.0,50.0,50.0,50.0,50.0,50.0,-0.0,-0.0,0.0,0.0,0.0,0.0,0.0,0.0,0.0,0.0,0.0,0.0,0.0
1.38,53.663985853953946,11.878981267937519,60.63796620316816,50.0,50.0,50.0,50.0,50.0,50.0,50.0,50.0,50.0,50.0,-0.0,-0.0,0.0,0.0,0.0,0.0,0.0,0.0,0.0,0.0,0.0,0.0,0.0
1.39,53.663985853953946,11.878981267937519,60.63796620316816,50.0,50.0,50.0,50.0,50.0,50.0,50.0,50.0,50.0,50.0,-0.0,-0.0,0.0,0.0,0.0,0.0,0.0,0.0,0.0,0.0,0.0,0.0,0.0
1.4,53.663985853953946,11.878981267937519,60.63796620316816,50.0,50.0,50.0,50.0,50.0,50.0,50.0,50.0,50.0,50.0,-0.0,-0.0,0.0,0.0,0.0,0.0,0.0,0.0,0.0,0.0,0.0,0.0,0.0
1.41,53.663985853953946,11.878981267937519,60.63796620316816,50.0,50.0,50.0,50.0,50.0,50.0,50.0,50.0,50.0,50.0,-0.0,-0.0,0.0,0.0,0.0,0.0,0.0,0.0,0.0,0.0,0.0,0.0,0.0
1.42,53.663985853953946,11.878981267937519,60.63796620316816,50.0,50.0,50.0,50.0,50.0,50.0,50.0,50.0,50.0,50.0,-0.0,-0.0,0.0,0.0,0.0,0.0,0.0,0.0,0.0,0.0,0.0,0.0,0.0
1.43,53.663985853953946,11.878981267937519,60.63796620316816,50.0,50.0,50.0,50.0,50.0,50.0,50.0,50.0,50.0,50.0,-0.0,-0.0,0.0,0.0,0.0,0.0,0.0,0.0,0.0,0.0,0.0,0.0,0.0
1.44,53.663985853953946,11.878981267937519,60.63796620316816,50.0,50.0,50.0,50.0,50.0,50.0,50.0,50.0,50.0,50.0,-0.0,-0.0,0.0,0.0,0.0,0.0,0.0,0.0,0.0,0.0,0.0,0.0,0.0
1.45,53.663985853953946,11.878981267937519,60.63796620316816,50.0,50.0,50.0,50.0,50.0,50.0,50.0,50.0,50.0,50.0,-0.0,-0.0,0.0,0.0,0.0,0.0,0.0,0.0,0.0,0.0,0.0,0.0,0.0
1.46,53.663985853953946,26.36484565433734,60.63796620316816,50.0,50.0,50.0,50.0,50.0,50.0,50.0,50.0,50.0,50.0,-0.0,0.0,0.0,0.0,0.0,0.0,0.0,0.0,0.0,0.0,0.0,0.0,0.0
1.47,53.663985853953946,26.36484565433734,60.63796620316816,50.0,50.0,50.0,50.0,50.0,50.0,50.0,50.0,50.0,50.0,-0.0,0.0,0.0,0.0,0.0,0.0,0.0,0.0,0.0,0.0,0.0,0.0,0.0
1.48,53.663985853953946,26.36484565433734,60.63796620316816,50.0,50.0,50.0,50.0,50.0,50.0,50.0,50.0,50.0,50.0,-0.0,0.0,0.0,0.0,0.0,0.0,0.0,0.0,0.0,0.0,0.0,0.0,0.0
1.49,53.663985853953946,26.36484565433734,60.63796620316816,50.0,50.0,50.0,50.0,50.0,50.0,50.0,50.0,50.0,50.0,-0.0,0.0,0.0,0.0,0.0,0.0,0.0,0.0,0.0,0.0,0.0,0.0,0.0
1.5,53.663985853953946,26.36484565433734,60.63796620316816,50.0,50.0,50.0,50.0,50.0,50.0,50.0,50.0,50.0,50.0,-0.0,0.0,0.0,0.0,0.0,0.0,0.0,0.0,0.0,0.0,0.0,0.0,0.0
1.51,53.663985853953946,26.36484565433734,60.63796620316816,50.0,50.0,50.0,50.0,50.0,50.0,50.0,50.0,50.0,50.0,-0.0,0.0,0.0,0.0,0.0,0.0,0.0,0.0,0.0,0.0,0.0,0.0,0.0
1.52,53.663985853953946,26.36484565433734,60.63796620316816,50.0,50.0,50.0,50.0,50.0,50.0,50.0,50.0,50.0,50.0,-0.0,0.0,0.0,0.0,0.0,0.0,0.0,0.0,0.0,0.0,0.0,0.0,0.0
1.53,53.663985853953946,26.36484565433734,60.63796620316816,50.0,50.0,50.0,50.0,50.0,50.0,50.0,50.0,50.0,50.0,-0.0,0.0,0.0,0.0,0.0,0.0,0.0,0.0,0.0,0.0,0.0,0.0,0.0
1.54,53.663985853953946,26.36484565433734,60.63796620316816,50.0,50.0,50.0,50.0,50.0,50.0,50.0,50.0,50.0,50.0,-0.0,0.0,0.0,0.0,0.0,0.0,0.0,0.0,0.0,0.0,0.0,0.0,0.0
1.55,53.663985853953946,26.36484565433734,60.63796620316816,50.0,50.0,50.0,50.0,50.0,50.0,50.0,50.0,50.0,50.0,-0.0,0.0,0.0,0.0,0.0,0.0,0.0,0.0,0.0,0.0,0.0,0.0,0.0
1.56,53.663985853953946,26.36484565433734,60.63796620316816,50.0,50.0,50.0,50.0,50.0,50.0,50.0,50.0,50.0,50.0,-0.0,0.0,0.0,0.0,0.0,0.0,0.0,0.0,0.0,0.0,0.0,0.0,0.0
1.57,53.663985853953946,26.36484565433734,60.63796620316816,50.0,50.0,50.0,50.0,50.0,50.0,50.0,50.0,50.0,50.0,-0.0,0.0,0.0,0.0,0.0,0.0,0.0,0.0,0.0,0.0,0.0,0.0,0.0
1.58,53.663985853953946,26.36484565433734,60.63796620316816,50.0,50.0,50.0,50.0,50.0,50.0,50.0,50.0,50.0,50.0,-0.0,0.0,0.0,0.0,0.0,0.0,0.0,0.0,0.0,0.0,0.0,0.0,0.0
1.59,53.663985853953946,26.36484565433734,60.63796620316816,50.0,50.0,50.0,50.0,50.0,50.0,50.0,50.0,50.0,50.0,-0.0,0.0,0.0,0.0,0.0,0.0,0.0,0.0,0.0,0.0,0.0,0.0,0.0
1.6,53.663985853953946,26.36484565433734,60.63796620316816,50.0,50.0,50.0,50.0,50.0,50.0,50.0,50.0,50.0,50.0,-0.0,0.0,0.0,0.0,0.0,0.0,0.0,0.0,0.0,0.0,0.0,0.0,0.0
1.61,53.663985853953946,26.36484565433734,60.63796620316816,50.0,50.0,50.0,50.0,50.0,50.0,50.0,50.0,50.0,50.0,-0.0,0.0,0.0,0.0,0.0,0.0,0.0,0.0,0.0,0.0,0.0,0.0,0.0
1.62,53.663985853953946,26.36484565433734,60.63796620316816,50.0,50.0,50.0,50.0,50.0,50.0,50.0,50.0,50.0,50.0,-0.0,0.0,0.0,0.0,0.0,0.0,0.0,0.0,0.0,0.0,0.0,0.0,0.0
1.63,53.663985853953946,26.36484565433734,60.63796620316816,50.0,50.0,50.0,50.0,50.0,50.0,50.0,50.0,50.0,50.0,-0.0,0.0,0.0,0.0,0.0,0.0,0.0,0.0,0.0,0.0,0.0,0.0,0.0
1.64,53.663985853953946,26.36484565433734,60.63796620316816,50.0,50.0,50.0,50.0,50.0,50.0,50.0,50.0,50.0,50.0,-0.0,0.0,0.0,0.0,0.0,0.0,0.0,0.0,0.0,0.0,0.0,0.0,0.0
1.65,53.663985853953946,26.36484565433734,60.63796620316816,50.0,50.0,50.0,50.0,50.0,50.0,50.0,50.0,50.0,50.0,-0.0,0.0,0.0,0.0,0.0,0.0,0.0,0.0,0.0,0.0,0.0,0.0,0.0
1.66,53.663985853953946,26.36484565433734,60.63796620316816,50.0,50.0,50.0,50.0,50.0,50.0,50.0,50.0,50.0,50.0,-0.0,0.0,0.0,0.0,0.0,0.0,0.0,0.0,0.0,0.0,0.0,0.0,0.0
1.67,53.663985853953946,26.36484565433734,60.63796620316816,50.0,50.0,50.0,50.0,50.0,50.0,50.0,50.0,50.0,50.0,-0.0,0.0,0.0,0.0,0.0,0.0,0.0,0.0,0.0,0.0,0.0,0.0,0.0
1.68,53.663985853953946,26.36484565433734,60.63796620316816,50.0,50.0,50.0,50.0,50.0,50.0,50.0,50.0,50.0,50.0,-0.0,0.0,0.0,0.0,0.0,0.0,0.0,0.0,0.0,0.0,0.0,0.0,0.0
1.69,53.663985853953946,26.36484565433734,60.63796620316816,50.0,50.0,50.0,50.0,50.0,50.0,50.0,50.0,50.0,50.0,-0.0,0.0,0.0,0.0,0.0,0.0,0.0,0.0,0.0,0.0,0.0,0.0,0.0
1.7,53.663985853953946,26.36484565433734,60.63796620316816,50.0,50.0,50.0,50.0,50.0,50.0,50.0,50.0,50.0,50.0,-0.0,0.0,0.0,0.0,0.0,0.0,0.0,0.0,0.0,0.0,0.0,0.0,0.0
1.71,53.663985853953946,26.36484565433734,60.63796620316816,50.0,50.0,50.0,50.0,50.0,50.0,50.0,50.0,50.0,50.0,-0.0,0.0,0.0,0.0,0.0,0.0,0.0,0.0,0.0,0.0,0.0,0.0,0.0
1.72,53.663985853953946,26.36484565433734,60.63796620316816,50.0,50.0,50.0,50.0,50.0,50.0,50.0,50.0,50.0,50.0,-0.0,0.0,0.0,0.0,0.0,0.0,0.0,0.0,0.0,0.0,0.0,0.0,0.0
1.73,53.663985853953946,26.36484565433734,60.63796620316816,50.0,50.0,50.0,50.0,50.0,50.0,50.0,50.0,50.0,50.0,-0.0,0.0,0.0,0.0,0.0,0.0,0.0,0.0,0.0,0.0,0.0,0.0,0.0
1.74,53.663985853953946,26.36484565433734,60.63796620316816,50.0,50.0,50.0,50.0,50.0,50.0,50.0,50.0,50.0,50.0,-0.0,0.0,0.0,0.0,0.0,0.0,0.0,0.0,0.0,0.0,0.0,0.0,0.0
1.75,53.663985853953946,26.36484565433734,60.63796620316816,50.0,50.0,50.0,50.0,50.0,50.0,50.0,50.0,50.0,50.0,-0.0,0.0,0.0,0.0,0.0,0.0,0.0,0.0,0.0,0.0,0.0,0.0,0.0
1.76,53.663985853953946,26.36484565433734,60.63796620316816,50.0,50.0,50.0,50.0,50.0,50.0,50.0,50.0,50.0,50.0,-0.0,0.0,0.0,0.0,0.0,0.0,0.0,0.0,0.0,0.0,0.0,0.0,0.0
1.77,53.663985853953946,26.36484565433734,60.63796620316816,50.0,50.0,50.0,50.0,50.0,50.0,50.0,50.0,50.0,50.0,-0.0,0.0,0.0,0.0,0.0,0.0,0.0,0.0,0.0,0.0,0.0,0.0,0.0
1.78,53.663985853953946,26.36484565433734,60.63796620316816,50.0,50.0,50.0,50.0,50.0,50.0,50.0,50.0,50.0,50.0,-0.0,0.0,0.0,0.0,0.0,0.0,0.0,0.0,0.0,0.0,0.0,0.0,0.0
1.79,53.663985853953946,26.36484565433734,60.63796620316816,50.0,50.0,50.0,50.0,50.0,50.0,50.0,50.0,50.0,50.0,-0.0,0.0,0.0,0.0,0.0,0.0,0.0,0.0,0.0,0.0,0.0,0.0,0.0
1.8,53.663985853953946,26.36484565433734,60.63796620316816,50.0,50.0,50.0,50.0,50.0,50.0,50.0,50.0,50.0,50.0,-0.0,0.0,0.0,0.0,0.0,0.0,0.0,0.0,0.0,0.0,0.0,0.0,0.0
1.81,53.663985853953946,26.36484565433734,60.63796620316816,50.0,50.0,50.0,50.0,50.0,50.0,50.0,50.0,50.0,50.0,-0.0,0.0,0.0,0.0,0.0,0.0,0.0,0.0,0.0,0.0,0.0,0.0,0.0
1.82,53.663985853953946,26.36484565433734,60.63796620316816,50.0,50.0,50.0,50.0,50.0,50.0,50.0,50.0,50.0,50.0,-0.0,0.0,0.0,0.0,0.0,0.0,0.0,0.0,0.0,0.0,0.0,0.0,0.0
1.83,53.663985853953946,26.36484565433734,60.63796620316816,50.0,50.0,50.0,50.0,50.0,50.0,50.0,50.0,50.0,50.0,-0.0,0.0,0.0,0.0,0.0,0.0,0.0,0.0,0.0,0.0,0.0,0.0,0.0
1.84,53.663985853953946,26.36484565433734,60.63796620316816,50.0,50.0,50.0,50.0,50.0,50.0,50.0,50.0,50.0,50.0,-0.0,0.0,0.0,0.0,0.0,0.0,0.0,0.0,0.0,0.0,0.0,0.0,0.0
1.85,53.663985853953946,26.36484565433734,60.63796620316816,50.0,50.0,50.0,50.0,50.0,50.0,50.0,50.0,50.0,50.0,-0.0,0.0,0.0,0.0,0.0,0.0,0.0,0.0,0.0,0.0,0.0,0.0,0.0
1.86,53.663985853953946,26.36484565433734,60.63796620316816,50.0,50.0,50.0,50.0,50.0,50.0,50.0,50.0,50.0,50.0,-0.0,0.0,0.0,0.0,0.0,0.0,0.0,0.0,0.0,0.0,0.0,0.0,0.0
1.87,53.663985853953946,26.36484565433734,60.63796620316816,50.0,50.0,50.0,50.0,50.0,50.0,50.0,50.0,50.0,50.0,-0.0,0.0,0.0,0.0,0.0,0.0,0.0,0.0,0.0,0.0,0.0,0.0,0.0
1.88,53.663985853953946,26.36484565433734,60.63796620316816,50.0,50.0,50.0,50.0,50.0,50.0,50.0,50.0,50.0,50.0,-0.0,0.0,0.0,0.0,0.0,0.0,0.0,0.0,0.0,0.0,0.0,0.0,0.0
1.89,53.663985853953946,26.36484565433734,60.63796620316816,50.0,50.0,50.0,50.0,50.0,50.0,50.0,50.0,50.0,50.0,-0.0,0.0,0.0,0.0,0.0,0.0,0.0,0.0,0.0,0.0,0.0,0.0,0.0
1.9,53.663985853953946,26.36484565433734,60.63796620316816,50.0,50.0,50.0,50.0,50.0,50.0,50.0,50.0,50.0,50.0,-0.0,0.0,0.0,0.0,0.0,0.0,0.0,0.0,0.0,0.0,0.0,0.0,0.0
1.91,53.663985853953946,26.36484565433734,60.63796620316816,50.0,50.0,50.0,50.0,50.0,50.0,50.0,50.0,50.0,50.0,-0.0,0.0,0.0,0.0,0.0,0.0,0.0,0.0,0.0,0.0,0.0,0.0,0.0
1.92,53.663985853953946,26.36484565433734,60.63796620316816,50.0,50.0,50.0,50.0,50.0,50.0,50.0,50.0,50.0,50.0,-0.0,0.0,0.0,0.0,0.0,0.0,0.0,0.0,0.0,0.0,0.0,0.0,0.0
1.93,53.663985853953946,26.36484565433734,60.63796620316816,50.0,50.0,50.0,50.0,50.0,50.0,50.0,50.0,50.0,50.0,-0.0,0.0,0.0,0.0,0.0,0.0,0.0,0.0,0.0,0.0,0.0,0.0,0.0
1.94,53.663985853953946,26.36484565433734,60.63796620316816,50.0,50.0,50.0,50.0,50.0,50.0,50.0,50.0,50.0,50.0,-0.0,0.0,0.0,0.0,0.0,0.0,0.0,0.0,0.0,0.0,0.0,0.0,0.0
1.95,40.0,26.36484565433734,60.63796620316816,50.0,50.0,50.0,50.0,50.0,50.0,50.0,50.0,50.0,50.0,-0.0,0.0,0.0,0.0,0.0,0.0,0.0,0.0,0.0,0.0,0.0,0.0,0.0
1.96,40.0,26.36484565433734,60.63796620316816,50.0,50.0,50.0,50.0,50.0,50.0,50.0,50.0,50.0,50.0,-0.0,0.0,0.0,0.0,0.0,0.0,0.0,0.0,0.0,0.0,0.0,0.0,0.0
1.97,40.0,26.36484565433734,60.63796620316816,50.0,50.0,50.0,50.0,50.0,50.0,50.0,50.0,50.0,50.0,-0.0,0.0,0.0,0.0,0.0,0.0,0.0,0.0,0.0,0.0,0.0,0.0,0.0
1.98,40.0,26.36484565433734,60.63796620316816,50.0,50.0,50.0,50.0,50.0,50.0,50.0,50.0,50.0,50.0,-0.0,0.0,0.0,0.0,0.0,0.0,0.0,0.0,0.0,0.0,0.0,0.0,0.0
1.99,40.0,26.36484565433734,60.63796620316816,50.0,50.0,50.0,50.0,50.0,50.0,50.0,50.0,50.0,50.0,-0.0,0.0,0.0,0.0,0.0,0.0,0.0,0.0,0.0,0.0,0.0,0.0,0.0
2.0,40.0,26.36484565433734,60.63796620316816,50.0,50.0,50.0,50.0,50.0,50.0,50.0,50.0,50.0,50.0,-0.0,0.0,0.0,0.0,0.0,0.0,0.0,0.0,0.0,0.0,0.0,0.0,0.0
2.01,40.0,26.36484565433734,60.63796620316816,50.0,50.0,50.0,50.0,50.0,50.0,50.0,50.0,50.0,50.0,-0.0,0.0,0.0,0.0,0.0,0.0,0.0,0.0,0.0,0.0,0.0,0.0,0.0
2.02,40.0,26.36484565433734,60.63796620316816,50.0,50.0,50.0,50.0,50.0,50.0,50.0,50.0,50.0,50.0,-0.0,0.0,0.0,0.0,0.0,0.0,0.0,0.0,0.0,0.0,0.0,0.0,0.0
2.03,40.0,26.36484565433734,60.63796620316816,50.0,50.0,50.0,50.0,50.0,50.0,50.0,50.0,50.0,50.0,-0.0,0.0,0.0,0.0,0.0,0.0,0.0,0.0,0.0,0.0,0.0,0.0,0.0
2.04,40.0,26.36484565433734,60.63796620316816,50.0,50.0,50.0,50.0,50.0,50.0,50.0,50.0,50.0,50.0,-0.0,0.0,0.0,0.0,0.0,0.0,0.0,0.0,0.0,0.0,0.0,0.0,0.0
2.05,40.0,26.36484565433734,60.63796620316816,50.0,50.0,50.0,50.0,50.0,50.0,50.0,50.0,50.0,50.0,-0.0,0.0,0.0,0.0,0.0,0.0,0.0,0.0,0.0,0.0,0.0,0.0,0.0
2.06,40.0,26.36484565433734,60.63796620316816,50.0,50.0,50.0,50.0,50.0,50.0,50.0,50.0,50.0,50.0,-0.0,0.0,0.0,0.0,0.0,0.0,0.0,0.0,0.0,0.0,0.0,0.0,0.0
2.07,40.0,26.36484565433734,60.63796620316816,50.0,50.0,50.0,50.0,50.0,50.0,50.0,50.0,50.0,50.0,-0.0,0.0,0.0,0.0,0.0,0.0,0.0,0.0,0.0,0.0,0.0,0.0,0.0
2.08,40.0,26.36484565433734,60.63796620316816,50.0,50.0,50.0,50.0,50.0,50.0,50.0,50.0,50.0,50.0,-0.0,0.0,0.0,0.0,0.0,0.0,0.0,0.0,0.0,0.0,0.0,0.0,0.0
2.09,40.0,26.36484565433734,60.63796620316816,50.0,50.0,50.0,50.0,50.0,50.0,50.0,50.0,50.0,50.0,-0.0,0.0,0.0,0.0,0.0,0.0,0.0,0.0,0.0,0.0,0.0,0.0,0.0
2.1,40.0,26.36484565433734,60.63796620316816,50.0,50.0,50.0,50.0,50.0,50.0,50.0,50.0,50.0,50.0,-0.0,0.0,0.0,0.0,0.0,0.0,0.0,0.0,0.0,0.0,0.0,0.0,0.0
2.11,40.0,26.36484565433734,60.63796620316816,50.0,50.0,50.0,50.0,50.0,50.0,50.0,50.0,50.0,50.0,-0.0,0.0,0.0,0.0,0.0,0.0,0.0,0.0,0.0,0.0,0.0,0.0,0.0
2.12,40.0,26.36484565433734,60.63796620316816,50.0,50.0,50.0,50.0,50.0,50.0,50.0,50.0,50.0,50.0,-0.0,0.0,0.0,0.0,0.0,0.0,0.0,0.0,0.0,0.0,0.0,0.0,0.0
2.13,40.0,26.36484565433734,60.63796620316816,50.0,50.0,50.0,50.0,50.0,50.0,50.0,50.0,50.0,50.0,-0.0,0.0,0.0,0.0,0.0,0.0,0.0,0.0,0.0,0.0,0.0,0.0,0.0
2.14,40.0,26.36484565433734,60.63796620316816,50.0,50.0,50.0,50.0,50.0,50.0,50.0,50.0,50.0,50.0,-0.0,0.0,0.0,0.0,0.0,0.0,0.0,0.0,0.0,0.0,0.0,0.0,0.0
2.15,40.0,26.36484565433734,60.63796620316816,50.0,50.0,50.0,50.0,50.0,50.0,50.0,50.0,50.0,50.0,-0.0,0.0,0.0,0.0,0.0,0.0,0.0,0.0,0.0,0.0,0.0,0.0,0.0
2.16,40.0,26.36484565433734,60.63796620316816,50.0,50.0,50.0,50.0,50.0,50.0,50.0,50.0,50.0,50.0,-0.0,0.0,0.0,0.0,0.0,0.0,0.0,0.0,0.0,0.0,0.0,0.0,0.0
2.17,40.0,26.36484565433734,60.63796620316816,50.0,50.0,50.0,50.0,50.0,50.0,50.0,50.0,50.0,50.0,-0.0,0.0,0.0,0.0,0.0,0.0,0.0,0.0,0.0,0.0,0.0,0.0,0.0
2.18,40.0,26.36484565433734,60.63796620316816,50.0,50.0,50.0,50.0,50.0,50.0,50.0,50.0,50.0,50.0,-0.0,0.0,0.0,0.0,0.0,0.0,0.0,0.0,0.0,0.0,0.0,0.0,0.0
2.19,40.0,26.36484565433734,60.63796620316816,50.0,50.0,50.0,50.0,50.0,50.0,50.0,50.0,50.0,50.0,-0.0,0.0,0.0,0.0,0.0,0.0,0.0,0.0,0.0,0.0,0.0,0.0,0.0
2.2,40.0,26.36484565433734,60.63796620316816,50.0,50.0,50.0,50.0,50.0,50.0,50.0,50.0,50.0,50.0,-0.0,0.0,0.0,0.0,0.0,0.0,0.0,0.0,0.0,0.0,0.0,0.0,0.0
2.21,40.0,26.36484565433734,60.63796620316816,50.0,50.0,50.0,50.0,50.0,50.0,50.0,50.0,50.0,50.0,-0.0,0.0,0.0,0.0,0.0,0.0,0.0,0.0,0.0,0.0,0.0,0.0,0.0
2.22,40.0,26.36484565433734,60.63796620316816,50.0,50.0,50.0,50.0,50.0,50.0,50.0,50.0,50.0,50.0,-0.0,0.0,0.0,0.0,0.0,0.0,0.0,0.0,0.0,0.0,0.0,0.0,0.0
2.23,40.0,26.36484565433734,60.63796620316816,50.0,50.0,50.0,50.0,50.0,50.0,50.0,50.0,50.0,50.0,-0.0,0.0,0.0,0.0,0.0,0.0,0.0,0.0,0.0,0.0,0.0,0.0,0.0
2.24,40.0,26.36484565433734,60.63796620316816,50.0,50.0,50.0,50.0,50.0,50.0,50.0,50.0,50.0,50.0,-0.0,0.0,0.0,0.0,0.0,0.0,0.0,0.0,0.0,0.0,0.0,0.0,0.0
2.25,40.0,26.36484565433734,60.63796620316816,50.0,50.0,50.0,50.0,50.0,50.0,50.0,50.0,50.0,50.0,-0.0,0.0,0.0,0.0,0.0,0.0,0.0,0.0,0.0,0.0,0.0,0.0,0.0
2.26,40.0,26.36484565433734,60.63796620316816,50.0,50.0,50.0,50.0,50.0,50.0,50.0,50.0,50.0,50.0,-0.0,0.0,0.0,0.0,0.0,0.0,0.0,0.0,0.0,0.0,0.0,0.0,0.0
2.27,40.0,26.36484565433734,60.63796620316816,50.0,50.0,50.0,50.0,50.0,50.0,50.0,50.0,50.0,50.0,-0.0,0.0,0.0,0.0,0.0,0.0,0.0,0.0,0.0,0.0,0.0,0.0,0.0
2.28,40.0,26.36484565433734,60.63796620316816,50.0,50.0,50.0,50.0,50.0,50.0,50.0,50.0,50.0,50.0,-0.0,0.0,0.0,0.0,0.0,0.0,0.0,0.0,0.0,0.0,0.0,0.0,0.0
2.29,40.0,26.36484565433734,60.63796620316816,50.0,50.0,50.0,50.0,50.0,50.0,50.0,50.0,50.0,50.0,-0.0,0.0,0.0,0.0,0.0,0.0,0.0,0.0,0.0,0.0,0.0,0.0,0.0
2.3,40.0,26.36484565433734,60.63796620316816,50.0,50.0,50.0,50.0,50.0,50.0,50.0,50.0,50.0,50.0,-0.0,0.0,0.0,0.0,0.0,0.0,0.0,0.0,0.0,0.0,0.0,0.0,0.0
2.31,40.0,26.36484565433734,60.63796620316816,50.0,50.0,50.0,50.0,50.0,50.0,50.0,50.0,50.0,50.0,-0.0,0.0,0.0,0.0,0.0,0.0,0.0,0.0,0.0,0.0,0.0,0.0,0.0
2.32,40.0,26.36484565433734,60.63796620316816,50.0,50.0,50.0,50.0,50.0,50.0,50.0,50.0,50.0,50.0,-0.0,0.0,0.0,0.0,0.0,0.0,0.0,0.0,0.0,0.0,0.0,0.0,0.0
2.33,40.0,26.36484565433734,60.63796620316816,50.0,50.0,50.0,50.0,50.0,50.0,50.0,50.0,50.0,50.0,-0.0,0.0,0.0,0.0,0.0,0.0,0.0,0.0,0.0,0.0,0.0,0.0,0.0
2.34,40.0,26.36484565433734,60.63796620316816,50.0,50.0,50.0,50.0,50.0,50.0,50.0,50.0,50.0,50.0,-0.0,0.0,0.0,0.0,0.0,0.0,0.0,0.0,0.0,0.0,0.0,0.0,0.0
2.35,40.0,26.36484565433734,60.63796620316816,50.0,50.0,50.0,50.0,50.0,50.0,50.0,50.0,50.0,50.0,-0.0,0.0,0.0,0.0,0.0,0.0,0.0,0.0,0.0,0.0,0.0,0.0,0.0
2.36,40.0,26.36484565433734,60.63796620316816,50.0,50.0,50.0,50.0,50.0,50.0,50.0,50.0,50.0,50.0,-0.0,0.0,0.0,0.0,0.0,0.0,0.0,0.0,0.0,0.0,0.0,0.0,0.0
2.37,40.0,26.36484565433734,60.63796620316816,50.0,50.0,50.0,50.0,50.0,50.0,50.0,50.0,50.0,50.0,-0.0,0.0,0.0,0.0,0.0,0.0,0.0,0.0,0.0,0.0,0.0,0.0,0.0
2.38,40.0,26.36484565433734,60.63796620316816,50.0,50.0,50.0,50.0,50.0,50.0,50.0,50.0,50.0,50.0,-0.0,0.0,0.0,0.0,0.0,0.0,0.0,0.0,0.0,0.0,0.0,0.0,0.0
2.39,40.0,26.36484565433734,60.63796620316816,50.0,50.0,50.0,50.0,50.0,50.0,50.0,50.0,50.0,50.0,-0.0,0.0,0.0,0.0,0.0,0.0,0.0,0.0,0.0,0.0,0.0,0.0,0.0
2.4,40.0,26.36484565433734,60.63796620316816,50.0,50.0,50.0,50.0,50.0,50.0,50.0,50.0,50.0,50.0,-0.0,0.0,0.0,0.0,0.0,0.0,0.0,0.0,0.0,0.0,0.0,0.0,0.0
2.41,40.0,26.36484565433734,60.63796620316816,50.0,50.0,50.0,50.0,50.0,50.0,50.0,50.0,50.0,50.0,-0.0,0.0,0.0,0.0,0.0,0.0,0.0,0.0,0.0,0.0,0.0,0.0,0.0
2.42,40.0,26.36484565433734,60.63796620316816,50.0,50.0,50.0,50.0,50.0,50.0,50.0,50.0,50.0,50.0,-0.0,0.0,0.0,0.0,0.0,0.0,0.0,0.0,0.0,0.0,0.0,0.0,0.0
2.43,40.0,26.36484565433734,60.63796620316816,50.0,50.0,50.0,50.0,50.0,50.0,50.0,50.0,50.0,50.0,-0.0,0.0,0.0,0.0,0.0,0.0,0.0,0.0,0.0,0.0,0.0,0.0,0.0
2.44,40.0,26.36484565433734,35.612115673898984,50.0,50.0,50.0,50.0,50.0,50.0,50.0,50.0,50.0,50.0,-0.0,0.0,-0.0,0.0,0.0,0.0,0.0,0.0,0.0,0.0,0.0,0.0,0.0
2.45,40.0,26.36484565433734,35.612115673898984,50.0,50.0,50.0,50.0,50.0,50.0,50.0,50.0,50.0,50.0,-0.0,0.0,-0.0,0.0,0.0,0.0,0.0,0.0,0.0,0.0,0.0,0.0,0.0
2.46,40.0,26.36484565433734,35.612115673898984,50.0,50.0,50.0,50.0,50.0,50.0,50.0,50.0,50.0,50.0,-0.0,0.0,-0.0,0.0,0.0,0.0,0.0,0.0,0.0,0.0,0.0,0.0,0.0
2.47,40.0,26.36484565433734,35.612115673898984,50.0,50.0,50.0,50.0,50.0,50.0,50.0,50.0,50.0,50.0,-0.0,0.0,-0.0,0.0,0.0,0.0,0.0,0.0,0.0,0.0,0.0,0.0,0.0
2.48,40.0,26.36484565433734,35.612115673898984,50.0,50.0,50.0,50.0,50.0,50.0,50.0,50.0,50.0,50.0,-0.0,0.0,-0.0,0.0,0.0,0.0,0.0,0.0,0.0,0.0,0.0,0.0,0.0
2.49,40.0,26.36484565433734,35.612115673898984,50.0,50.0,50.0,50.0,50.0,50.0,50.0,50.0,50.0,50.0,-0.0,0.0,-0.0,0.0,0.0,0.0,0.0,0.0,0.0,0.0,0.0,0.0,0.0
2.5,40.0,26.36484565433734,35.612115673898984,50.0,50.0,50.0,50.0,50.0,50.0,50.0,50.0,50.0,50.0,-0.0,0.0,-0.0,0.0,0.0,0.0,0.0,0.0,0.0,0.0,0.0,0.0,0.0
2.51,40.0,26.36484565433734,35.612115673898984,50.0,50.0,50.0,50.0,50.0,50.0,50.0,50.0,50.0,50.0,-0.0,0.0,-0.0,0.0,0.0,0.0,0.0,0.0,0.0,0.0,0.0,0.0,0.0
2.52,40.0,26.36484565433734,35.612115673898984,50.0,50.0,50.0,50.0,50.0,50.0,50.0,50.0,50.0,50.0,-0.0,0.0,-0.0,0.0,0.0,0.0,0.0,0.0,0.0,0.0,0.0,0.0,0.0
2.53,40.0,16.01800177596842,35.612115673898984,50.0,50.0,50.0,50.0,50.0,50.0,50.0,50.0,50.0,50.0,-0.0,-0.0,-0.0,0.0,0.0,0.0,0.0,0.0,0.0,0.0,0.0,0.0,0.0
2.54,40.0,16.01800177596842,35.612115673898984,50.0,50.0,50.0,50.0,50.0,50.0,50.0,50.0,50.0,50.0,-0.0,-0.0,-0.0,0.0,0.0,0.0,0.0,0.0,0.0,0.0,0.0,0.0,0.0
2.55,40.0,16.01800177596842,35.612115673898984,50.0,50.0,50.0,50.0,50.0,50.0,50.0,50.0,50.0,50.0,-0.0,-0.0,-0.0,0.0,0.0,0.0,0.0,0.0,0.0,0.0,0.0,0.0,0.0
2.56,40.0,16.01800177596842,35.612115673898984,50.0,50.0,50.0,50.0,50.0,50.0,50.0,50.0,50.0,50.0,-0.0,-0.0,-0.0,0.0,0.0,0.0,0.0,0.0,0.0,0.0,0.0,0.0,0.0
2.57,40.0,16.01800177596842,35.612115673898984,50.0,50.0,50.0,50.0,50.0,50.0,50.0,50.0,50.0,50.0,-0.0,-0.0,-0.0,0.0,0.0,0.0,0.0,0.0,0.0,0.0,0.0,0.0,0.0
2.58,40.0,16.01800177596842,35.612115673898984,50.0,50.0,50.0,50.0,50.0,50.0,50.0,50.0,50.0,50.0,-0.0,-0.0,-0.0,0.0,0.0,0.0,0.0,0.0,0.0,0.0,0.0,0.0,0.0
2.59,40.0,16.01800177596842,35.612115673898984,50.0,50.0,50.0,50.0,50.0,50.0,50.0,50.0,50.0,50.0,-0.0,-0.0,-0.0,0.0,0.0,0.0,0.0,0.0,0.0,0.0,0.0,0.0,0.0
2.6,40.0,16.01800177596842,35.612115673898984,50.0,50.0,50.0,50.0,50.0,50.0,50.0,50.0,50.0,50.0,-0.0,-0.0,-0.0,0.0,0.0,0.0,0.0,0.0,0.0,0.0,0.0,0.0,0.0
2.61,40.0,16.01800177596842,35.612115673898984,50.0,50.0,50.0,50.0,50.0,50.0,50.0,50.0,50.0,50.0,-0.0,-0.0,-0.0,0.0,0.0,0.0,0.0,0.0,0.0,0.0,0.0,0.0,0.0
2.62,40.0,16.01800177596842,35.612115673898984,50.0,50.0,50.0,50.0,50.0,50.0,50.0,50.0,50.0,50.0,-0.0,-0.0,-0.0,0.0,0.0,0.0,0.0,0.0,0.0,0.0,0.0,0.0,0.0
2.63,40.0,16.01800177596842,35.612115673898984,50.0,50.0,50.0,50.0,50.0,50.0,50.0,50.0,50.0,50.0,-0.0,-0.0,-0.0,0.0,0.0,0.0,0.0,0.0,0.0,0.0,0.0,0.0,0.0
2.64,40.0,16.01800177596842,35.612115673898984,50.0,50.0,50.0,50.0,50.0,50.0,50.0,50.0,50.0,50.0,-0.0,-0.0,-0.0,0.0,0.0,0.0,0.0,0.0,0.0,0.0,0.0,0.0,0.0
2.65,40.0,16.01800177596842,35.612115673898984,50.0,50.0,50.0,50.0,50.0,50.0,50.0,50.0,50.0,50.0,-0.0,-0.0,-0.0,0.0,0.0,0.0,0.0,0.0,0.0,0.0,0.0,0.0,0.0
2.66,40.0,16.01800177596842,35.612115673898984,50.0,50.0,50.0,50.0,50.0,50.0,50.0,50.0,50.0,50.0,-0.0,-0.0,-0.0,0.0,0.0,0.0,0.0,0.0,0.0,0.0,0.0,0.0,0.0
2.67,40.0,16.01800177596842,35.612115673898984,50.0,50.0,50.0,50.0,50.0,50.0,50.0,50.0,50.0,50.0,-0.0,-0.0,-0.0,0.0,0.0,0.0,0.0,0.0,0.0,0.0,0.0,0.0,0.0
2.68,40.0,16.01800177596842,35.612115673898984,50.0,50.0,50.0,50.0,50.0,50.0,50.0,50.0,50.0,50.0,-0.0,-0.0,-0.0,0.0,0.0,0.0,0.0,0.0,0.0,0.0,0.0,0.0,0.0
2.69,40.0,16.01800177596842,35.612115673898984,50.0,50.0,50.0,50.0,50.0,50.0,50.0,50.0,50.0,50.0,-0.0,-0.0,-0.0,0.0,0.0,0.0,0.0,0.0,0.0,0.0,0.0,0.0,0.0
2.7,40.0,16.01800177596842,35.612115673898984,50.0,50.0,50.0,50.0,50.0,50.0,50.0,50.0,50.0,50.0,-0.0,-0.0,-0.0,0.0,0.0,0.0,0.0,0.0,0.0,0.0,0.0,0.0,0.0
2.71,40.0,16.01800177596842,35.612115673898984,50.0,50.0,50.0,50.0,50.0,50.0,50.0,50.0,50.0,50.0,-0.0,-0.0,-0.0,0.0,0.0,0.0,0.0,0.0,0.0,0.0,0.0,0.0,0.0
2.72,40.0,16.01800177596842,35.612115673898984,50.0,50.0,50.0,50.0,50.0,50.0,50.0,50.0,50.0,50.0,-0.0,-0.0,-0.0,0.0,0.0,0.0,0.0,0.0,0.0,0.0,0.0,0.0,0.0
2.73,40.0,16.01800177596842,35.612115673898984,50.0,50.0,50.0,50.0,50.0,50.0,50.0,50.0,50.0,50.0,-0.0,-0.0,-0.0,0.0,0.0,0.0,0.0,0.0,0.0,0.0,0.0,0.0,0.0
2.74,40.0,16.01800177596842,35.612115673898984,50.0,50.0,50.0,50.0,50.0,50.0,50.0,50.0,50.0,50.0,-0.0,-0.0,-0.0,0.0,0.0,0.0,0.0,0.0,0.0,0.0,0.0,0.0,0.0
2.75,40.0,16.01800177596842,35.612115673898984,50.0,50.0,50.0,50.0,50.0,50.0,50.0,50.0,50.0,50.0,-0.0,-0.0,-0.0,0.0,0.0,0.0,0.0,0.0,0.0,0.0,0.0,0.0,0.0
2.76,40.0,16.01800177596842,35.612115673898984,50.0,50.0,50.0,50.0,50.0,50.0,50.0,50.0,50.0,50.0,-0.0,-0.0,-0.0,0.0,0.0,0.0,0.0,0.0,0.0,0.0,0.0,0.0,0.0
2.77,40.0,16.01800177596842,35.612115673898984,50.0,50.0,50.0,50.0,50.0,50.0,50.0,50.0,50.0,50.0,-0.0,-0.0,-0.0,0.0,0.0,0.0,0.0,0.0,0.0,0.0,0.0,0.0,0.0
2.78,40.0,16.01800177596842,35.612115673898984,50.0,50.0,50.0,50.0,50.0,50.0,50.0,50.0,50.0,50.0,-0.0,-0.0,-0.0,0.0,0.0,0.0,0.0,0.0,0.0,0.0,0.0,0.0,0.0
2.79,53.0215873613237,16.01800177596842,35.612115673898984,50.0,50.0,50.0,50.0,50.0,50.0,50.0,50.0,50.0,50.0,0.0,-0.0,-0.0,0.0,0.0,0.0,0.0,0.0,0.0,0.0,0.0,0.0,0.0
2.8,53.0215873613237,16.01800177596842,35.612115673898984,50.0,50.0,50.0,50.0,50.0,50.0,50.0,50.0,50.0,50.0,0.0,-0.0,-0.0,0.0,0.0,0.0,0.0,0.0,0.0,0.0,0.0,0.0,0.0
2.81,53.0215873613237,16.01800177596842,35.612115673898984,50.0,50.0,50.0,50.0,50.0,50.0,50.0,50.0,50.0,50.0,0.0,-0.0,-0.0,0.0,0.0,0.0,0.0,0.0,0.0,0.0,0.0,0.0,0.0
2.82,53.0215873613237,16.01800177596842,35.612115673898984,50.0,50.0,50.0,50.0,50.0,50.0,50.0,50.0,50.0,50.0,0.0,-0.0,-0.0,0.0,0.0,0.0,0.0,0.0,0.0,0.0,0.0,0.0,0.0
2.83,53.0215873613237,16.01800177596842,35.612115673898984,50.0,50.0,50.0,50.0,50.0,50.0,50.0,50.0,50.0,50.0,0.0,-0.0,-0.0,0.0,0.0,0.0,0.0,0.0,0.0,0.0,0.0,0.0,0.0
2.84,53.0215873613237,16.01800177596842,35.612115673898984,50.0,50.0,50.0,50.0,50.0,50.0,50.0,50.0,50.0,50.0,0.0,-0.0,-0.0,0.0,0.0,0.0,0.0,0.0,0.0,0.0,0.0,0.0,0.0
2.85,53.0215873613237,16.01800177596842,35.612115673898984,50.0,50.0,50.0,50.0,50.0,50.0,50.0,50.0,50.0,50.0,0.0,-0.0,-0.0,0.0,0.0,0.0,0.0,0.0,0.0,0.0,0.0,0.0,0.0
2.86,53.0215873613237,16.01800177596842,35.612115673898984,50.0,50.0,50.0,50.0,50.0,50.0,50.0,50.0,50.0,50.0,0.0,-0.0,-0.0,0.0,0.0,0.0,0.0,0.0,0.0,0.0,0.0,0.0,0.0
2.87,53.0215873613237,16.01800177596842,35.612115673898984,50.0,50.0,50.0,50.0,50.0,50.0,50.0,50.0,50.0,50.0,0.0,-0.0,-0.0,0.0,0.0,0.0,0.0,0.0,0.0,0.0,0.0,0.0,0.0
2.88,53.0215873613237,16.01800177596842,35.612115673898984,50.0,50.0,50.0,50.0,50.0,50.0,50.0,50.0,50.0,50.0,0.0,-0.0,-0.0,0.0,0.0,0.0,0.0,0.0,0.0,0.0,0.0,0.0,0.0
2.89,53.0215873613237,16.01800177596842,35.612115673898984,50.0,50.0,50.0,50.0,50.0,50.0,50.0,50.0,50.0,50.0,0.0,-0.0,-0.0,0.0,0.0,0.0,0.0,0.0,0.0,0.0,0.0,0.0,0.0
2.9,53.0215873613237,16.01800177596842,35.612115673898984,50.0,50.0,50.0,50.0,50.0,50.0,50.0,50.0,50.0,50.0,0.0,-0.0,-0.0,0.0,0.0,0.0,0.0,0.0,0.0,0.0,0.0,0.0,0.0
2.91,53.0215873613237,16.01800177596842,35.612115673898984,50.0,50.0,50.0,50.0,50.0,50.0,50.0,50.0,50.0,50.0,0.0,-0.0,-0.0,0.0,0.0,0.0,0.0,0.0,0.0,0.0,0.0,0.0,0.0
2.92,53.0215873613237,16.01800177596842,35.612115673898984,50.0,50.0,50.0,50.0,50.0,50.0,50.0,50.0,50.0,50.0,0.0,-0.0,-0.0,0.0,0.0,0.0,0.0,0.0,0.0,0.0,0.0,0.0,0.0
2.93,53.0215873613237,16.01800177596842,35.612115673898984,50.0,50.0,50.0,50.0,50.0,50.0,50.0,50.0,50.0,50.0,0.0,-0.0,-0.0,0.0,0.0,0.0,0.0,0.0,0.0,0.0,0.0,0.0,0.0
2.94,53.0215873613237,16.01800177596842,35.612115673898984,50.0,50.0,50.0,50.0,50.0,50.0,50.0,50.0,50.0,50.0,0.0,-0.0,-0.0,0.0,0.0,0.0,0.0,0.0,0.0,0.0,0.0,0.0,0.0
2.95,53.0215873613237,16.01800177596842,35.612115673898984,50.0,50.0,50.0,50.0,50.0,50.0,50.0,50.0,50.0,50.0,0.0,-0.0,-0.0,0.0,0.0,0.0,0.0,0.0,0.0,0.0,0.0,0.0,0.0
2.96,53.0215873613237,16.01800177596842,35.612115673898984,50.0,50.0,50.0,50.0,50.0,50.0,50.0,50.0,50.0,50.0,0.0,-0.0,-0.0,0.0,0.0,0.0,0.0,0.0,0.0,0.0,0.0,0.0,0.0
2.97,53.0215873613237,16.01800177596842,56.209178660723055,50.0,50.0,50.0,50.0,50.0,50.0,50.0,50.0,50.0,50.0,0.0,-0.0,0.0,0.0,0.0,0.0,0.0,0.0,0.0,0.0,0.0,0.0,0.0
2.98,53.0215873613237,16.01800177596842,56.209178660723055,50.0,50.0,50.0,50.0,50.0,50.0,50.0,50.0,50.0,50.0,0.0,-0.0,0.0,0.0,0.0,0.0,0.0,0.0,0.0,0.0,0.0,0.0,0.0
2.99,53.0215873613237,16.01800177596842,56.209178660723055,50.0,50.0,50.0,50.0,50.0,50.0,50.0,50.0,50.0,50.0,0.0,-0.0,0.0,0.0,0.0,0.0,0.0,0.0,0.0,0.0,0.0,0.0,0.0
3.0,53.0215873613237,16.01800177596842,56.209178660723055,50.0,50.0,50.0,50.0,50.0,50.0,50.0,50.0,50.0,50.0,0.0,-0.0,0.0,0.0,0.0,0.0,0.0,0.0,0.0,0.0,0.0,0.0,0.0
3.01,53.0215873613237,16.01800177596842,56.209178660723055,50.0,50.0,50.0,50.0,50.0,50.0,50.0,50.0,50.0,50.0,0.0,-0.0,0.0,0.0,0.0,0.0,0.0,0.0,0.0,0.0,0.0,0.0,0.0
3.02,53.0215873613237,16.01800177596842,56.209178660723055,50.0,50.0,50.0,50.0,50.0,50.0,50.0,50.0,50.0,50.0,0.0,-0.0,0.0,0.0,0.0,0.0,0.0,0.0,0.0,0.0,0.0,0.0,0.0
3.03,53.0215873613237,16.01800177596842,56.209178660723055,50.0,50.0,50.0,50.0,50.0,50.0,50.0,50.0,50.0,50.0,0.0,-0.0,0.0,0.0,0.0,0.0,0.0,0.0,0.0,0.0,0.0,0.0,0.0
3.04,53.0215873613237,16.01800177596842,56.209178660723055,50.0,50.0,50.0,50.0,50.0,50.0,50.0,50.0,50.0,50.0,0.0,-0.0,0.0,0.0,0.0,0.0,0.0,0.0,0.0,0.0,0.0,0.0,0.0
3.05,53.0215873613237,16.01800177596842,56.209178660723055,50.0,50.0,50.0,50.0,50.0,50.0,50.0,50.0,50.0,50.0,0.0,-0.0,0.0,0.0,0.0,0.0,0.0,0.0,0.0,0.0,0.0,0.0,0.0
3.06,53.0215873613237,16.01800177596842,56.209178660723055,50.0,50.0,50.0,50.0,50.0,50.0,50.0,50.0,50.0,50.0,0.0,-0.0,0.0,0.0,0.0,0.0,0.0,0.0,0.0,0.0,0.0,0.0,0.0
3.07,53.0215873613237,16.01800177596842,56.209178660723055,50.0,50.0,50.0,50.0,50.0,50.0,50.0,50.0,50.0,50.0,0.0,-0.0,0.0,0.0,0.0,0.0,0.0,0.0,0.0,0.0,0.0,0.0,0.0
3.08,53.0215873613237,16.01800177596842,56.209178660723055,50.0,50.0,50.0,50.0,50.0,50.0,50.0,50.0,50.0,50.0,0.0,-0.0,0.0,0.0,0.0,0.0,0.0,0.0,0.0,0.0,0.0,0.0,0.0
3.09,53.0215873613237,16.01800177596842,56.209178660723055,50.0,50.0,50.0,50.0,50.0,50.0,50.0,50.0,50.0,50.0,0.0,-0.0,0.0,0.0,0.0,0.0,0.0,0.0,0.0,0.0,0.0,0.0,0.0
3.1,53.0215873613237,16.01800177596842,56.209178660723055,50.0,50.0,50.0,50.0,50.0,50.0,50.0,50.0,50.0,50.0,0.0,-0.0,0.0,0.0,0.0,0.0,0.0,0.0,0.0,0.0,0.0,0.0,0.0
3.11,53.0215873613237,16.01800177596842,56.209178660723055,50.0,50.0,50.0,50.0,50.0,50.0,50.0,50.0,50.0,50.0,0.0,-0.0,0.0,0.0,0.0,0.0,0.0,0.0,0.0,0.0,0.0,0.0,0.0
3.12,53.0215873613237,16.01800177596842,56.209178660723055,50.0,50.0,50.0,50.0,50.0,50.0,50.0,50.0,50.0,50.0,0.0,-0.0,0.0,0.0,0.0,0.0,0.0,0.0,0.0,0.0,0.0,0.0,0.0
3.13,53.0215873613237,16.01800177596842,56.209178660723055,50.0,50.0,50.0,50.0,50.0,50.0,50.0,50.0,50.0,50.0,0.0,-0.0,0.0,0.0,0.0,0.0,0.0,0.0,0.0,0.0,0.0,0.0,0.0
3.14,53.0215873613237,16.01800177596842,56.209178660723055,50.0,50.0,50.0,50.0,50.0,50.0,50.0,50.0,50.0,50.0,0.0,-0.0,0.0,0.0,0.0,0.0,0.0,0.0,0.0,0.0,0.0,0.0,0.0
3.15,53.0215873613237,16.01800177596842,56.209178660723055,50.0,50.0,50.0,50.0,50.0,50.0,50.0,50.0,50.0,50.0,0.0,-0.0,0.0,0.0,0.0,0.0,0.0,0.0,0.0,0.0,0.0,0.0,0.0
3.16,53.0215873613237,16.01800177596842,56.209178660723055,50.0,50.0,50.0,50.0,50.0,50.0,50.0,50.0,50.0,50.0,0.0,-0.0,0.0,0.0,0.0,0.0,0.0,0.0,0.0,0.0,0.0,0.0,0.0
3.17,53.0215873613237,16.01800177596842,56.209178660723055,50.0,50.0,50.0,50.0,50.0,50.0,50.0,50.0,50.0,50.0,0.0,-0.0,0.0,0.0,0.0,0.0,0.0,0.0,0.0,0.0,0.0,0.0,0.0
3.18,53.0215873613237,16.01800177596842,56.209178660723055,50.0,50.0,50.0,50.0,50.0,50.0,50.0,50.0,50.0,50.0,0.0,-0.0,0.0,0.0,0.0,0.0,0.0,0.0,0.0,0.0,0.0,0.0,0.0
3.19,53.0215873613237,16.01800177596842,56.209178660723055,50.0,50.0,50.0,50.0,50.0,50.0,50.0,50.0,50.0,50.0,0.0,-0.0,0.0,0.0,0.0,0.0,0.0,0.0,0.0,0.0,0.0,0.0,0.0
3.2,53.0215873613237,16.01800177596842,56.209178660723055,50.0,50.0,50.0,50.0,50.0,50.0,50.0,50.0,50.0,50.0,0.0,-0.0,0.0,0.0,0.0,0.0,0.0,0.0,0.0,0.0,0.0,0.0,0.0
3.21,53.0215873613237,16.01800177596842,56.209178660723055,50.0,50.0,50.0,50.0,50.0,50.0,50.0,50.0,50.0,50.0,0.0,-0.0,0.0,0.0,0.0,0.0,0.0,0.0,0.0,0.0,0.0,0.0,0.0
3.22,53.0215873613237,16.01800177596842,56.209178660723055,50.0,50.0,50.0,50.0,50.0,50.0,50.0,50.0,50.0,50.0,0.0,-0.0,0.0,0.0,0.0,0.0,0.0,0.0,0.0,0.0,0.0,0.0,0.0
3.23,53.0215873613237,16.01800177596842,56.209178660723055,50.0,50.0,50.0,50.0,50.0,50.0,50.0,50.0,50.0,50.0,0.0,-0.0,0.0,0.0,0.0,0.0,0.0,0.0,0.0,0.0,0.0,0.0,0.0
3.24,53.0215873613237,16.01800177596842,56.209178660723055,50.0,50.0,50.0,50.0,50.0,50.0,50.0,50.0,50.0,50.0,0.0,-0.0,0.0,0.0,0.0,0.0,0.0,0.0,0.0,0.0,0.0,0.0,0.0
3.25,53.0215873613237,16.01800177596842,56.209178660723055,50.0,50.0,50.0,50.0,50.0,50.0,50.0,50.0,50.0,50.0,0.0,-0.0,0.0,0.0,0.0,0.0,0.0,0.0,0.0,0.0,0.0,0.0,0.0
3.26,53.0215873613237,16.01800177596842,56.209178660723055,50.0,50.0,50.0,50.0,50.0,50.0,50.0,50.0,50.0,50.0,0.0,-0.0,0.0,0.0,0.0,0.0,0.0,0.0,0.0,0.0,0.0,0.0,0.0
3.27,53.0215873613237,22.205538896597343,56.209178660723055,50.0,50.0,50.0,50.0,50.0,50.0,50.0,50.0,50.0,50.0,0.0,0.0,0.0,0.0,0.0,0.0,0.0,0.0,0.0,0.0,0.0,0.0,0.0
3.28,53.0215873613237,22.205538896597343,56.209178660723055,50.0,50.0,50.0,50.0,50.0,50.0,50.0,50.0,50.0,50.0,0.0,0.0,0.0,0.0,0.0,0.0,0.0,0.0,0.0,0.0,0.0,0.0,0.0
3.29,53.0215873613237,22.205538896597343,56.209178660723055,50.0,50.0,50.0,50.0,50.0,50.0,50.0,50.0,50.0,50.0,0.0,0.0,0.0,0.0,0.0,0.0,0.0,0.0,0.0,0.0,0.0,0.0,0.0
3.3,53.0215873613237,22.205538896597343,56.209178660723055,50.0,50.0,50.0,50.0,50.0,50.0,50.0,50.0,50.0,50.0,0.0,0.0,0.0,0.0,0.0,0.0,0.0,0.0,0.0,0.0,0.0,0.0,0.0
3.31,53.0215873613237,22.205538896597343,56.209178660723055,50.0,50.0,50.0,50.0,50.0,50.0,50.0,50.0,50.0,50.0,0.0,0.0,0.0,0.0,0.0,0.0,0.0,0.0,0.0,0.0,0.0,0.0,0.0
3.32,53.0215873613237,22.205538896597343,56.209178660723055,50.0,50.0,50.0,50.0,50.0,50.0,50.0,50.0,50.0,50.0,0.0,0.0,0.0,0.0,0.0,0.0,0.0,0.0,0.0,0.0,0.0,0.0,0.0
3.33,53.0215873613237,22.205538896597343,56.209178660723055,50.0,50.0,50.0,50.0,50.0,50.0,50.0,50.0,50.0,50.0,0.0,0.0,0.0,0.0,0.0,0.0,0.0,0.0,0.0,0.0,0.0,0.0,0.0
3.34,53.0215873613237,22.205538896597343,56.209178660723055,50.0,50.0,50.0,50.0,50.0,50.0,50.0,50.0,50.0,50.0,0.0,0.0,0.0,0.0,0.0,0.0,0.0,0.0,0.0,0.0,0.0,0.0,0.0
3.35,53.0215873613237,22.205538896597343,56.209178660723055,50.0,50.0,50.0,50.0,50.0,50.0,50.0,50.0,50.0,50.0,0.0,0.0,0.0,0.0,0.0,0.0,0.0,0.0,0.0,0.0,0.0,0.0,0.0
3.36,53.0215873613237,22.205538896597343,56.209178660723055,50.0,50.0,50.0,50.0,50.0,50.0,50.0,50.0,50.0,50.0,0.0,0.0,0.0,0.0,0.0,0.0,0.0,0.0,0.0,0.0,0.0,0.0,0.0
3.37,53.0215873613237,22.205538896597343,56.209178660723055,50.0,50.0,50.0,50.0,50.0,50.0,50.0,50.0,50.0,50.0,0.0,0.0,0.0,0.0,0.0,0.0,0.0,0.0,0.0,0.0,0.0,0.0,0.0
3.38,53.0215873613237,22.205538896597343,56.209178660723055,50.0,50.0,50.0,50.0,50.0,50.0,50.0,50.0,50.0,50.0,0.0,0.0,0.0,0.0,0.0,0.0,0.0,0.0,0.0,0.0,0.0,0.0,0.0
3.39,53.0215873613237,22.205538896597343,56.209178660723055,50.0,50.0,50.0,50.0,50.0,50.0,50.0,50.0,50.0,50.0,0.0,0.0,0.0,0.0,0.0,0.0,0.0,0.0,0.0,0.0,0.0,0.0,0.0
3.4,53.0215873613237,22.205538896597343,56.209178660723055,50.0,50.0,50.0,50.0,50.0,50.0,50.0,50.0,50.0,50.0,0.0,0.0,0.0,0.0,0.0,0.0,0.0,0.0,0.0,0.0,0.0,0.0,0.0
3.41,53.0215873613237,22.205538896597343,56.209178660723055,50.0,50.0,50.0,50.0,50.0,50.0,50.0,50.0,50.0,50.0,0.0,0.0,0.0,0.0,0.0,0.0,0.0,0.0,0.0,0.0,0.0,0.0,0.0
3.42,53.0215873613237,22.205538896597343,56.209178660723055,50.0,50.0,50.0,50.0,50.0,50.0,50.0,50.0,50.0,50.0,0.0,0.0,0.0,0.0,0.0,0.0,0.0,0.0,0.0,0.0,0.0,0.0,0.0
3.43,53.0215873613237,22.205538896597343,56.209178660723055,50.0,50.0,50.0,50.0,50.0,50.0,50.0,50.0,50.0,50.0,0.0,0.0,0.0,0.0,0.0,0.0,0.0,0.0,0.0,0.0,0.0,0.0,0.0
3.44,53.0215873613237,22.205538896597343,56.209178660723055,50.0,50.0,50.0,50.0,50.0,50.0,50.0,50.0,50.0,50.0,0.0,0.0,0.0,0.0,0.0,0.0,0.0,0.0,0.0,0.0,0.0,0.0,0.0
3.45,53.0215873613237,22.205538896597343,56.209178660723055,50.0,50.0,50.0,50.0,50.0,50.0,50.0,50.0,50.0,50.0,0.0,0.0,0.0,0.0,0.0,0.0,0.0,0.0,0.0,0.0,0.0,0.0,0.0
3.46,53.0215873613237,22.205538896597343,56.209178660723055,50.0,50.0,50.0,50.0,50.0,50.0,50.0,50.0,50.0,50.0,0.0,0.0,0.0,0.0,0.0,0.0,0.0,0.0,0.0,0.0,0.0,0.0,0.0
3.47,53.0215873613237,22.205538896597343,56.209178660723055,50.0,50.0,50.0,50.0,50.0,50.0,50.0,50.0,50.0,50.0,0.0,0.0,0.0,0.0,0.0,0.0,0.0,0.0,0.0,0.0,0.0,0.0,0.0
3.48,53.0215873613237,22.205538896597343,56.209178660723055,50.0,50.0,50.0,50.0,50.0,50.0,50.0,50.0,50.0,50.0,0.0,0.0,0.0,0.0,0.0,0.0,0.0,0.0,0.0,0.0,0.0,0.0,0.0
3.49,53.0215873613237,22.205538896597343,56.209178660723055,50.0,50.0,50.0,50.0,50.0,50.0,50.0,50.0,50.0,50.0,0.0,0.0,0.0,0.0,0.0,0.0,0.0,0.0,0.0,0.0,0.0,0.0,0.0
3.5,53.0215873613237,22.205538896597343,56.209178660723055,50.0,50.0,50.0,50.0,50.0,50.0,50.0,50.0,50.0,50.0,0.0,0.0,0.0,0.0,0.0,0.0,0.0,0.0,0.0,0.0,0.0,0.0,0.0
3.51,53.0215873613237,22.205538896597343,56.209178660723055,50.0,50.0,50.0,50.0,50.0,50.0,50.0,50.0,50.0,50.0,0.0,0.0,0.0,0.0,0.0,0.0,0.0,0.0,0.0,0.0,0.0,0.0,0.0
3.52,53.0215873613237,22.205538896597343,56.209178660723055,50.0,50.0,50.0,50.0,50.0,50.0,50.0,50.0,50.0,50.0,0.0,0.0,0.0,0.0,0.0,0.0,0.0,0.0,0.0,0.0,0.0,0.0,0.0
3.53,53.0215873613237,22.205538896597343,56.209178660723055,50.0,50.0,50.0,50.0,50.0,50.0,50.0,50.0,50.0,50.0,0.0,0.0,0.0,0.0,0.0,0.0,0.0,0.0,0.0,0.0,0.0,0.0,0.0
3.54,53.0215873613237,22.205538896597343,56.209178660723055,50.0,50.0,50.0,50.0,50.0,50.0,50.0,50.0,50.0,50.0,0.0,0.0,0.0,0.0,0.0,0.0,0.0,0.0,0.0,0.0,0.0,0.0,0.0
3.55,53.0215873613237,22.205538896597343,56.209178660723055,50.0,50.0,50.0,50.0,50.0,50.0,50.0,50.0,50.0,50.0,0.0,0.0,0.0,0.0,0.0,0.0,0.0,0.0,0.0,0.0,0.0,0.0,0.0
3.56,53.0215873613237,22.205538896597343,56.209178660723055,50.0,50.0,50.0,50.0,50.0,50.0,50.0,50.0,50.0,50.0,0.0,0.0,0.0,0.0,0.0,0.0,0.0,0.0,0.0,0.0,0.0,0.0,0.0
3.57,53.0215873613237,22.205538896597343,56.209178660723055,50.0,50.0,50.0,50.0,50.0,50.0,50.0,50.0,50.0,50.0,0.0,0.0,0.0,0.0,0.0,0.0,0.0,0.0,0.0,0.0,0.0,0.0,0.0
3.58,40.0,22.205538896597343,56.209178660723055,50.0,50.0,50.0,50.0,50.0,50.0,50.0,50.0,50.0,50.0,-0.0,0.0,0.0,0.0,0.0,0.0,0.0,0.0,0.0,0.0,0.0,0.0,0.0
3.59,40.0,22.205538896597343,56.209178660723055,50.0,50.0,50.0,50.0,50.0,50.0,50.0,50.0,50.0,50.0,-0.0,0.0,0.0,0.0,0.0,0.0,0.0,0.0,0.0,0.0,0.0,0.0,0.0
3.6,40.0,22.205538896597343,56.209178660723055,50.0,50.0,50.0,50.0,50.0,50.0,50.0,50.0,50.0,50.0,-0.0,0.0,0.0,0.0,0.0,0.0,0.0,0.0,0.0,0.0,0.0,0.0,0.0
3.61,40.0,22.205538896597343,56.209178660723055,50.0,50.0,50.0,50.0,50.0,50.0,50.0,50.0,50.0,50.0,-0.0,0.0,0.0,0.0,0.0,0.0,0.0,0.0,0.0,0.0,0.0,0.0,0.0
3.62,40.0,22.205538896597343,56.209178660723055,50.0,50.0,50.0,50.0,50.0,50.0,50.0,50.0,50.0,50.0,-0.0,0.0,0.0,0.0,0.0,0.0,0.0,0.0,0.0,0.0,0.0,0.0,0.0
3.63,40.0,22.205538896597343,56.209178660723055,50.0,50.0,50.0,50.0,50.0,50.0,50.0,50.0,50.0,50.0,-0.0,0.0,0.0,0.0,0.0,0.0,0.0,0.0,0.0,0.0,0.0,0.0,0.0
3.64,40.0,22.205538896597343,56.209178660723055,50.0,50.0,50.0,50.0,50.0,50.0,50.0,50.0,50.0,50.0,-0.0,0.0,0.0,0.0,0.0,0.0,0.0,0.0,0.0,0.0,0.0,0.0,0.0
3.65,40.0,22.205538896597343,56.209178660723055,50.0,50.0,50.0,50.0,50.0,50.0,50.0,50.0,50.0,50.0,-0.0,0.0,0.0,0.0,0.0,0.0,0.0,0.0,0.0,0.0,0.0,0.0,0.0
3.66,40.0,22.205538896597343,56.209178660723055,50.0,50.0,50.0,50.0,50.0,50.0,50.0,50.0,50.0,50.0,-0.0,0.0,0.0,0.0,0.0,0.0,0.0,0.0,0.0,0.0,0.0,0.0,0.0
3.67,40.0,22.205538896597343,56.209178660723055,50.0,50.0,50.0,50.0,50.0,50.0,50.0,50.0,50.0,50.0,-0.0,0.0,0.0,0.0,0.0,0.0,0.0,0.0,0.0,0.0,0.0,0.0,0.0
3.68,40.0,22.205538896597343,56.209178660723055,50.0,50.0,50.0,50.0,50.0,50.0,50.0,50.0,50.0,50.0,-0.0,0.0,0.0,0.0,0.0,0.0,0.0,0.0,0.0,0.0,0.0,0.0,0.0
3.69,40.0,22.205538896597343,56.209178660723055,50.0,50.0,50.0,50.0,50.0,50.0,50.0,50.0,50.0,50.0,-0.0,0.0,0.0,0.0,0.0,0.0,0.0,0.0,0.0,0.0,0.0,0.0,0.0
3.7,40.0,22.205538896597343,56.209178660723055,50.0,50.0,50.0,50.0,50.0,50.0,50.0,50.0,50.0,50.0,-0.0,0.0,0.0,0.0,0.0,0.0,0.0,0.0,0.0,0.0,0.0,0.0,0.0
3.71,40.0,22.205538896597343,56.209178660723055,50.0,50.0,50.0,50.0,50.0,50.0,50.0,50.0,50.0,50.0,-0.0,0.0,0.0,0.0,0.0,0.0,0.0,0.0,0.0,0.0,0.0,0.0,0.0
3.72,40.0,22.205538896597343,56.209178660723055,50.0,50.0,50.0,50.0,50.0,50.0,50.0,50.0,50.0,50.0,-0.0,0.0,0.0,0.0,0.0,0.0,0.0,0.0,0.0,0.0,0.0,0.0,0.0
3.73,40.0,22.205538896597343,56.209178660723055,50.0,50.0,50.0,50.0,50.0,50.0,50.0,50.0,50.0,50.0,-0.0,0.0,0.0,0.0,0.0,0.0,0.0,0.0,0.0,0.0,0.0,0.0,0.0
3.74,40.0,22.205538896597343,56.209178660723055,50.0,50.0,50.0,50.0,50.0,50.0,50.0,50.0,50.0,50.0,-0.0,0.0,0.0,0.0,0.0,0.0,0.0,0.0,0.0,0.0,0.0,0.0,0.0
3.75,40.0,22.205538896597343,56.209178660723055,50.0,50.0,50.0,50.0,50.0,50.0,50.0,50.0,50.0,50.0,-0.0,0.0,0.0,0.0,0.0,0.0,0.0,0.0,0.0,0.0,0.0,0.0,0.0
3.76,40.0,22.205538896597343,56.209178660723055,50.0,50.0,50.0,50.0,50.0,50.0,50.0,50.0,50.0,50.0,-0.0,0.0,0.0,0.0,0.0,0.0,0.0,0.0,0.0,0.0,0.0,0.0,0.0
3.77,40.0,22.205538896597343,56.209178660723055,50.0,50.0,50.0,50.0,50.0,50.0,50.0,50.0,50.0,50.0,-0.0,0.0,0.0,0.0,0.0,0.0,0.0,0.0,0.0,0.0,0.0,0.0,0.0
3.78,40.0,22.205538896597343,56.209178660723055,50.0,50.0,50.0,50.0,50.0,50.0,50.0,50.0,50.0,50.0,-0.0,0.0,0.0,0.0,0.0,0.0,0.0,0.0,0.0,0.0,0.0,0.0,0.0
3.79,40.0,22.205538896597343,56.209178660723055,50.0,50.0,50.0,50.0,50.0,50.0,50.0,50.0,50.0,50.0,-0.0,0.0,0.0,0.0,0.0,0.0,0.0,0.0,0.0,0.0,0.0,0.0,0.0
3.8,40.0,22.205538896597343,56.209178660723055,50.0,50.0,50.0,50.0,50.0,50.0,50.0,50.0,50.0,50.0,-0.0,0.0,0.0,0.0,0.0,0.0,0.0,0.0,0.0,0.0,0.0,0.0,0.0
3.81,40.0,22.205538896597343,56.209178660723055,50.0,50.0,50.0,50.0,50.0,50.0,50.0,50.0,50.0,50.0,-0.0,0.0,0.0,0.0,0.0,0.0,0.0,0.0,0.0,0.0,0.0,0.0,0.0
3.82,40.0,22.205538896597343,56.209178660723055,50.0,50.0,50.0,50.0,50.0,50.0,50.0,50.0,50.0,50.0,-0.0,0.0,0.0,0.0,0.0,0.0,0.0,0.0,0.0,0.0,0.0,0.0,0.0
3.83,40.0,22.205538896597343,56.209178660723055,50.0,50.0,50.0,50.0,50.0,50.0,50.0,50.0,50.0,50.0,-0.0,0.0,0.0,0.0,0.0,0.0,0.0,0.0,0.0,0.0,0.0,0.0,0.0
3.84,40.0,22.205538896597343,56.209178660723055,50.0,50.0,50.0,50.0,50.0,50.0,50.0,50.0,50.0,50.0,-0.0,0.0,0.0,0.0,0.0,0.0,0.0,0.0,0.0,0.0,0.0,0.0,0.0
3.85,40.0,22.205538896597343,56.209178660723055,50.0,50.0,50.0,50.0,50.0,50.0,50.0,50.0,50.0,50.0,-0.0,0.0,0.0,0.0,0.0,0.0,0.0,0.0,0.0,0.0,0.0,0.0,0.0
3.86,40.0,22.205538896597343,56.209178660723055,50.0,50.0,50.0,50.0,50.0,50.0,50.0,50.0,50.0,50.0,-0.0,0.0,0.0,0.0,0.0,0.0,0.0,0.0,0.0,0.0,0.0,0.0,0.0
3.87,40.0,22.205538896597343,56.209178660723055,50.0,50.0,50.0,50.0,50.0,50.0,50.0,50.0,50.0,50.0,-0.0,0.0,0.0,0.0,0.0,0.0,0.0,0.0,0.0,0.0,0.0,0.0,0.0
3.88,40.0,22.205538896597343,56.209178660723055,50.0,50.0,50.0,50.0,50.0,50.0,50.0,50.0,50.0,50.0,-0.0,0.0,0.0,0.0,0.0,0.0,0.0,0.0,0.0,0.0,0.0,0.0,0.0
3.89,40.0,22.205538896597343,56.209178660723055,50.0,50.0,50.0,50.0,50.0,50.0,50.0,50.0,50.0,50.0,-0.0,0.0,0.0,0.0,0.0,0.0,0.0,0.0,0.0,0.0,0.0,0.0,0.0
3.9,40.0,22.205538896597343,56.209178660723055,50.0,50.0,50.0,50.0,50.0,50.0,50.0,50.0,50.0,50.0,-0.0,0.0,0.0,0.0,0.0,0.0,0.0,0.0,0.0,0.0,0.0,0.0,0.0
3.91,40.0,22.205538896597343,56.209178660723055,50.0,50.0,50.0,50.0,50.0,50.0,50.0,50.0,50.0,50.0,-0.0,0.0,0.0,0.0,0.0,0.0,0.0,0.0,0.0,0.0,0.0,0.0,0.0
3.92,40.0,22.205538896597343,56.209178660723055,50.0,50.0,50.0,50.0,50.0,50.0,50.0,50.0,50.0,50.0,-0.0,0.0,0.0,0.0,0.0,0.0,0.0,0.0,0.0,0.0,0.0,0.0,0.0
3.93,40.0,22.205538896597343,56.209178660723055,50.0,50.0,50.0,50.0,50.0,50.0,50.0,50.0,50.0,50.0,-0.0,0.0,0.0,0.0,0.0,0.0,0.0,0.0,0.0,0.0,0.0,0.0,0.0
3.94,40.0,22.205538896597343,56.209178660723055,50.0,50.0,50.0,50.0,50.0,50.0,50.0,50.0,50.0,50.0,-0.0,0.0,0.0,0.0,0.0,0.0,0.0,0.0,0.0,0.0,0.0,0.0,0.0
3.95,40.0,22.205538896597343,56.209178660723055,50.0,50.0,50.0,50.0,50.0,50.0,50.0,50.0,50.0,50.0,-0.0,0.0,0.0,0.0,0.0,0.0,0.0,0.0,0.0,0.0,0.0,0.0,0.0
3.96,40.0,22.205538896597343,56.209178660723055,50.0,50.0,50.0,50.0,50.0,50.0,50.0,50.0,50.0,50.0,-0.0,0.0,0.0,0.0,0.0,0.0,0.0,0.0,0.0,0.0,0.0,0.0,0.0
3.97,40.0,22.205538896597343,56.209178660723055,50.0,50.0,50.0,50.0,50.0,50.0,50.0,50.0,50.0,50.0,-0.0,0.0,0.0,0.0,0.0,0.0,0.0,0.0,0.0,0.0,0.0,0.0,0.0
3.98,40.0,22.205538896597343,56.209178660723055,50.0,50.0,50.0,50.0,50.0,50.0,50.0,50.0,50.0,50.0,-0.0,0.0,0.0,0.0,0.0,0.0,0.0,0.0,0.0,0.0,0.0,0.0,0.0
3.99,40.0,22.205538896597343,56.209178660723055,50.0,50.0,50.0,50.0,50.0,50.0,50.0,50.0,50.0,50.0,-0.0,0.0,0.0,0.0,0.0,0.0,0.0,0.0,0.0,0.0,0.0,0.0,0.0
4.0,40.0,22.205538896597343,56.209178660723055,50.0,50.0,50.0,50.0,50.0,50.0,50.0,50.0,50.0,50.0,-0.0,0.0,0.0,0.0,0.0,0.0,0.0,0.0,0.0,0.0,0.0,0.0,0.0
4.01,40.0,22.205538896597343,56.209178660723055,50.0,50.0,50.0,50.0,50.0,50.0,50.0,50.0,50.0,50.0,-0.0,0.0,0.0,0.0,0.0,0.0,0.0,0.0,0.0,0.0,0.0,0.0,0.0
4.02,40.0,22.205538896597343,56.209178660723055,50.0,50.0,50.0,50.0,50.0,50.0,50.0,50.0,50.0,50.0,-0.0,0.0,0.0,0.0,0.0,0.0,0.0,0.0,0.0,0.0,0.0,0.0,0.0
4.03,40.0,22.205538896597343,56.209178660723055,50.0,50.0,50.0,50.0,50.0,50.0,50.0,50.0,50.0,50.0,-0.0,0.0,0.0,0.0,0.0,0.0,0.0,0.0,0.0,0.0,0.0,0.0,0.0
4.04,40.0,22.205538896597343,56.209178660723055,50.0,50.0,50.0,50.0,50.0,50.0,50.0,50.0,50.0,50.0,-0.0,0.0,0.0,0.0,0.0,0.0,0.0,0.0,0.0,0.0,0.0,0.0,0.0
4.05,40.0,22.205538896597343,56.209178660723055,50.0,50.0,50.0,50.0,50.0,50.0,50.0,50.0,50.0,50.0,-0.0,0.0,0.0,0.0,0.0,0.0,0.0,0.0,0.0,0.0,0.0,0.0,0.0
4.06,40.0,22.205538896597343,56.209178660723055,50.0,50.0,50.0,50.0,50.0,50.0,50.0,50.0,50.0,50.0,-0.0,0.0,0.0,0.0,0.0,0.0,0.0,0.0,0.0,0.0,0.0,0.0,0.0
4.07,40.0,22.205538896597343,56.209178660723055,50.0,50.0,50.0,50.0,50.0,50.0,50.0,50.0,50.0,50.0,-0.0,0.0,0.0,0.0,0.0,0.0,0.0,0.0,0.0,0.0,0.0,0.0,0.0
4.08,40.0,22.205538896597343,56.209178660723055,50.0,50.0,50.0,50.0,50.0,50.0,50.0,50.0,50.0,50.0,-0.0,0.0,0.0,0.0,0.0,0.0,0.0,0.0,0.0,0.0,0.0,0.0,0.0
4.09,40.0,22.205538896597343,56.209178660723055,50.0,50.0,50.0,50.0,50.0,50.0,50.0,50.0,50.0,50.0,-0.0,0.0,0.0,0.0,0.0,0.0,0.0,0.0,0.0,0.0,0.0,0.0,0.0
4.1,40.0,22.205538896597343,56.209178660723055,50.0,50.0,50.0,50.0,50.0,50.0,50.0,50.0,50.0,50.0,-0.0,0.0,0.0,0.0,0.0,0.0,0.0,0.0,0.0,0.0,0.0,0.0,0.0
4.11,40.0,22.205538896597343,56.209178660723055,50.0,50.0,50.0,50.0,50.0,50.0,50.0,50.0,50.0,50.0,-0.0,0.0,0.0,0.0,0.0,0.0,0.0,0.0,0.0,0.0,0.0,0.0,0.0
4.12,40.0,22.205538896597343,56.209178660723055,50.0,50.0,50.0,50.0,50.0,50.0,50.0,50.0,50.0,50.0,-0.0,0.0,0.0,0.0,0.0,0.0,0.0,0.0,0.0,0.0,0.0,0.0,0.0
4.13,40.0,22.205538896597343,56.209178660723055,50.0,50.0,50.0,50.0,50.0,50.0,50.0,50.0,50.0,50.0,-0.0,0.0,0.0,0.0,0.0,0.0,0.0,0.0,0.0,0.0,0.0,0.0,0.0
4.14,40.0,22.205538896597343,56.209178660723055,50.0,50.0,50.0,50.0,50.0,50.0,50.0,50.0,50.0,50.0,-0.0,0.0,0.0,0.0,0.0,0.0,0.0,0.0,0.0,0.0,0.0,0.0,0.0
4.15,40.0,22.205538896597343,56.209178660723055,50.0,50.0,50.0,50.0,50.0,50.0,50.0,50.0,50.0,50.0,-0.0,0.0,0.0,0.0,0.0,0.0,0.0,0.0,0.0,0.0,0.0,0.0,0.0
4.16,40.0,22.205538896597343,56.209178660723055,50.0,50.0,50.0,50.0,50.0,50.0,50.0,50.0,50.0,50.0,-0.0,0.0,0.0,0.0,0.0,0.0,0.0,0.0,0.0,0.0,0.0,0.0,0.0
4.17,40.0,22.205538896597343,56.209178660723055,50.0,50.0,50.0,50.0,50.0,50.0,50.0,50.0,50.0,50.0,-0.0,0.0,0.0,0.0,0.0,0.0,0.0,0.0,0.0,0.0,0.0,0.0,0.0
4.18,40.0,22.205538896597343,56.209178660723055,50.0,50.0,50.0,50.0,50.0,50.0,50.0,50.0,50.0,50.0,-0.0,0.0,0.0,0.0,0.0,0.0,0.0,0.0,0.0,0.0,0.0,0.0,0.0
4.19,40.0,22.205538896597343,56.209178660723055,50.0,50.0,50.0,50.0,50.0,50.0,50.0,50.0,50.0,50.0,-0.0,0.0,0.0,0.0,0.0,0.0,0.0,0.0,0.0,0.0,0.0,0.0,0.0
4.2,40.0,22.205538896597343,56.209178660723055,50.0,50.0,50.0,50.0,50.0,50.0,50.0,50.0,50.0,50.0,-0.0,0.0,0.0,0.0,0.0,0.0,0.0,0.0,0.0,0.0,0.0,0.0,0.0
4.21,40.0,22.205538896597343,56.209178660723055,50.0,50.0,50.0,50.0,50.0,50.0,50.0,50.0,50.0,50.0,-0.0,0.0,0.0,0.0,0.0,0.0,0.0,0.0,0.0,0.0,0.0,0.0,0.0
4.22,40.0,22.205538896597343,56.209178660723055,50.0,50.0,50.0,50.0,50.0,50.0,50.0,50.0,50.0,50.0,-0.0,0.0,0.0,0.0,0.0,0.0,0.0,0.0,0.0,0.0,0.0,0.0,0.0
4.23,40.0,22.205538896597343,56.209178660723055,50.0,50.0,50.0,50.0,50.0,50.0,50.0,50.0,50.0,50.0,-0.0,0.0,0.0,0.0,0.0,0.0,0.0,0.0,0.0,0.0,0.0,0.0,0.0
4.24,40.0,22.205538896597343,56.209178660723055,50.0,50.0,50.0,50.0,50.0,50.0,50.0,50.0,50.0,50.0,-0.0,0.0,0.0,0.0,0.0,0.0,0.0,0.0,0.0,0.0,0.0,0.0,0.0
4.25,40.0,22.205538896597343,56.209178660723055,50.0,50.0,50.0,50.0,50.0,50.0,50.0,50.0,50.0,50.0,-0.0,0.0,0.0,0.0,0.0,0.0,0.0,0.0,0.0,0.0,0.0,0.0,0.0
4.26,40.0,22.205538896597343,56.209178660723055,50.0,50.0,50.0,50.0,50.0,50.0,50.0,50.0,50.0,50.0,-0.0,0.0,0.0,0.0,0.0,0.0,0.0,0.0,0.0,0.0,0.0,0.0,0.0
4.27,40.0,22.205538896597343,56.209178660723055,50.0,50.0,50.0,50.0,50.0,50.0,50.0,50.0,50.0,50.0,-0.0,0.0,0.0,0.0,0.0,0.0,0.0,0.0,0.0,0.0,0.0,0.0,0.0
4.28,40.0,22.205538896597343,56.209178660723055,50.0,50.0,50.0,50.0,50.0,50.0,50.0,50.0,50.0,50.0,-0.0,0.0,0.0,0.0,0.0,0.0,0.0,0.0,0.0,0.0,0.0,0.0,0.0
4.29,40.0,22.205538896597343,56.209178660723055,50.0,50.0,50.0,50.0,50.0,50.0,50.0,50.0,50.0,50.0,-0.0,0.0,0.0,0.0,0.0,0.0,0.0,0.0,0.0,0.0,0.0,0.0,0.0
4.3,40.0,22.205538896597343,92.24443958451914,50.0,50.0,50.0,50.0,50.0,50.0,50.0,50.0,50.0,50.0,-0.0,0.0,0.0,0.0,0.0,0.0,0.0,0.0,0.0,0.0,0.0,0.0,0.0
4.31,40.0,22.205538896597343,92.24443958451914,50.0,50.0,50.0,50.0,50.0,50.0,50.0,50.0,50.0,50.0,-0.0,0.0,0.0,0.0,0.0,0.0,0.0,0.0,0.0,0.0,0.0,0.0,0.0
4.32,40.0,22.205538896597343,92.24443958451914,50.0,50.0,50.0,50.0,50.0,50.0,50.0,50.0,50.0,50.0,-0.0,0.0,0.0,0.0,0.0,0.0,0.0,0.0,0.0,0.0,0.0,0.0,0.0
4.33,40.0,22.205538896597343,92.24443958451914,50.0,50.0,50.0,50.0,50.0,50.0,50.0,50.0,50.0,50.0,-0.0,0.0,0.0,0.0,0.0,0.0,0.0,0.0,0.0,0.0,0.0,0.0,0.0
4.34,40.0,22.205538896597343,92.24443958451914,50.0,50.0,50.0,50.0,50.0,50.0,50.0,50.0,50.0,50.0,-0.0,0.0,0.0,0.0,0.0,0.0,0.0,0.0,0.0,0.0,0.0,0.0,0.0
4.35,40.0,22.205538896597343,92.24443958451914,50.0,50.0,50.0,50.0,50.0,50.0,50.0,50.0,50.0,50.0,-0.0,0.0,0.0,0.0,0.0,0.0,0.0,0.0,0.0,0.0,0.0,0.0,0.0
4.36,40.0,54.91021861356721,92.24443958451914,50.0,50.0,50.0,50.0,50.0,50.0,50.0,50.0,50.0,50.0,-0.0,0.0,0.0,0.0,0.0,0.0,0.0,0.0,0.0,0.0,0.0,0.0,0.0
4.37,40.0,54.91021861356721,92.24443958451914,50.0,50.0,50.0,50.0,50.0,50.0,50.0,50.0,50.0,50.0,-0.0,0.0,0.0,0.0,0.0,0.0,0.0,0.0,0.0,0.0,0.0,0.0,0.0
4.38,40.0,54.91021861356721,92.24443958451914,50.0,50.0,50.0,50.0,50.0,50.0,50.0,50.0,50.0,50.0,-0.0,0.0,0.0,0.0,0.0,0.0,0.0,0.0,0.0,0.0,0.0,0.0,0.0
4.39,40.0,54.91021861356721,92.24443958451914,50.0,50.0,50.0,50.0,50.0,50.0,50.0,50.0,50.0,50.0,-0.0,0.0,0.0,0.0,0.0,0.0,0.0,0.0,0.0,0.0,0.0,0.0,0.0
4.4,40.0,54.91021861356721,92.24443958451914,50.0,50.0,50.0,50.0,50.0,50.0,50.0,50.0,50.0,50.0,-0.0,0.0,0.0,0.0,0.0,0.0,0.0,0.0,0.0,0.0,0.0,0.0,0.0
4.41,40.0,54.91021861356721,92.24443958451914,50.0,50.0,50.0,50.0,50.0,50.0,50.0,50.0,50.0,50.0,-0.0,0.0,0.0,0.0,0.0,0.0,0.0,0.0,0.0,0.0,0.0,0.0,0.0
4.42,40.0,54.91021861356721,92.24443958451914,50.0,50.0,50.0,50.0,50.0,50.0,50.0,50.0,50.0,50.0,-0.0,0.0,0.0,0.0,0.0,0.0,0.0,0.0,0.0,0.0,0.0,0.0,0.0
4.43,40.0,54.91021861356721,92.24443958451914,50.0,50.0,50.0,50.0,50.0,50.0,50.0,50.0,50.0,50.0,-0.0,0.0,0.0,0.0,0.0,0.0,0.0,0.0,0.0,0.0,0.0,0.0,0.0
4.44,40.0,54.91021861356721,92.24443958451914,50.0,50.0,50.0,50.0,50.0,50.0,50.0,50.0,50.0,50.0,-0.0,0.0,0.0,0.0,0.0,0.0,0.0,0.0,0.0,0.0,0.0,0.0,0.0
4.45,40.0,54.91021861356721,92.24443958451914,50.0,50.0,50.0,50.0,50.0,50.0,50.0,50.0,50.0,50.0,-0.0,0.0,0.0,0.0,0.0,0.0,0.0,0.0,0.0,0.0,0.0,0.0,0.0
4.46,40.0,54.91021861356721,92.24443958451914,50.0,50.0,50.0,50.0,50.0,50.0,50.0,50.0,50.0,50.0,-0.0,0.0,0.0,0.0,0.0,0.0,0.0,0.0,0.0,0.0,0.0,0.0,0.0
4.47,40.0,54.91021861356721,92.24443958451914,50.0,50.0,50.0,50.0,50.0,50.0,50.0,50.0,50.0,50.0,-0.0,0.0,0.0,0.0,0.0,0.0,0.0,0.0,0.0,0.0,0.0,0.0,0.0
4.48,40.0,54.91021861356721,92.24443958451914,50.0,50.0,50.0,50.0,50.0,50.0,50.0,50.0,50.0,50.0,-0.0,0.0,0.0,0.0,0.0,0.0,0.0,0.0,0.0,0.0,0.0,0.0,0.0
4.49,40.0,54.91021861356721,92.24443958451914,50.0,50.0,50.0,50.0,50.0,50.0,50.0,50.0,50.0,50.0,-0.0,0.0,0.0,0.0,0.0,0.0,0.0,0.0,0.0,0.0,0.0,0.0,0.0
4.5,40.0,54.91021861356721,92.24443958451914,50.0,50.0,50.0,50.0,50.0,50.0,50.0,50.0,50.0,50.0,-0.0,0.0,0.0,0.0,0.0,0.0,0.0,0.0,0.0,0.0,0.0,0.0,0.0
4.51,40.0,54.91021861356721,92.24443958451914,50.0,50.0,50.0,50.0,50.0,50.0,50.0,50.0,50.0,50.0,-0.0,0.0,0.0,0.0,0.0,0.0,0.0,0.0,0.0,0.0,0.0,0.0,0.0
4.52,40.0,54.91021861356721,92.24443958451914,50.0,50.0,50.0,50.0,50.0,50.0,50.0,50.0,50.0,50.0,-0.0,0.0,0.0,0.0,0.0,0.0,0.0,0.0,0.0,0.0,0.0,0.0,0.0
4.53,40.0,54.91021861356721,92.24443958451914,50.0,50.0,50.0,50.0,50.0,50.0,50.0,50.0,50.0,50.0,-0.0,0.0,0.0,0.0,0.0,0.0,0.0,0.0,0.0,0.0,0.0,0.0,0.0
4.54,40.0,54.91021861356721,92.24443958451914,50.0,50.0,50.0,50.0,50.0,50.0,50.0,50.0,50.0,50.0,-0.0,0.0,0.0,0.0,0.0,0.0,0.0,0.0,0.0,0.0,0.0,0.0,0.0
4.55,40.0,54.91021861356721,92.24443958451914,50.0,50.0,50.0,50.0,50.0,50.0,50.0,50.0,50.0,50.0,-0.0,0.0,0.0,0.0,0.0,0.0,0.0,0.0,0.0,0.0,0.0,0.0,0.0
4.56,40.0,54.91021861356721,92.24443958451914,50.0,50.0,50.0,50.0,50.0,50.0,50.0,50.0,50.0,50.0,-0.0,0.0,0.0,0.0,0.0,0.0,0.0,0.0,0.0,0.0,0.0,0.0,0.0
4.57,40.0,54.91021861356721,92.24443958451914,50.0,50.0,50.0,50.0,50.0,50.0,50.0,50.0,50.0,50.0,-0.0,0.0,0.0,0.0,0.0,0.0,0.0,0.0,0.0,0.0,0.0,0.0,0.0
4.58,40.0,54.91021861356721,92.24443958451914,50.0,50.0,50.0,50.0,50.0,50.0,50.0,50.0,50.0,50.0,-0.0,0.0,0.0,0.0,0.0,0.0,0.0,0.0,0.0,0.0,0.0,0.0,0.0
4.59,40.0,54.91021861356721,92.24443958451914,50.0,50.0,50.0,50.0,50.0,50.0,50.0,50.0,50.0,50.0,-0.0,0.0,0.0,0.0,0.0,0.0,0.0,0.0,0.0,0.0,0.0,0.0,0.0
4.6,40.0,54.91021861356721,92.24443958451914,50.0,50.0,50.0,50.0,50.0,50.0,50.0,50.0,50.0,50.0,-0.0,0.0,0.0,0.0,0.0,0.0,0.0,0.0,0.0,0.0,0.0,0.0,0.0
4.61,40.0,54.91021861356721,92.24443958451914,50.0,50.0,50.0,50.0,50.0,50.0,50.0,50.0,50.0,50.0,-0.0,0.0,0.0,0.0,0.0,0.0,0.0,0.0,0.0,0.0,0.0,0.0,0.0
4.62,40.0,54.91021861356721,92.24443958451914,50.0,50.0,50.0,50.0,50.0,50.0,50.0,50.0,50.0,50.0,-0.0,0.0,0.0,0.0,0.0,0.0,0.0,0.0,0.0,0.0,0.0,0.0,0.0
4.63,40.0,54.91021861356721,92.24443958451914,50.0,50.0,50.0,50.0,50.0,50.0,50.0,50.0,50.0,50.0,-0.0,0.0,0.0,0.0,0.0,0.0,0.0,0.0,0.0,0.0,0.0,0.0,0.0
4.64,40.0,54.91021861356721,92.24443958451914,50.0,50.0,50.0,50.0,50.0,50.0,50.0,50.0,50.0,50.0,-0.0,0.0,0.0,0.0,0.0,0.0,0.0,0.0,0.0,0.0,0.0,0.0,0.0
4.65,40.0,54.91021861356721,92.24443958451914,50.0,50.0,50.0,50.0,50.0,50.0,50.0,50.0,50.0,50.0,-0.0,0.0,0.0,0.0,0.0,0.0,0.0,0.0,0.0,0.0,0.0,0.0,0.0
4.66,40.0,54.91021861356721,92.24443958451914,50.0,50.0,50.0,50.0,50.0,50.0,50.0,50.0,50.0,50.0,-0.0,0.0,0.0,0.0,0.0,0.0,0.0,0.0,0.0,0.0,0.0,0.0,0.0
4.67,40.0,54.91021861356721,92.24443958451914,50.0,50.0,50.0,50.0,50.0,50.0,50.0,50.0,50.0,50.0,-0.0,0.0,0.0,0.0,0.0,0.0,0.0,0.0,0.0,0.0,0.0,0.0,0.0
4.68,40.55060746271258,54.91021861356721,92.24443958451914,50.0,50.0,50.0,50.0,50.0,50.0,50.0,50.0,50.0,50.0,0.0,0.0,0.0,0.0,0.0,0.0,0.0,0.0,0.0,0.0,0.0,0.0,0.0
4.69,40.55060746271258,54.91021861356721,92.24443958451914,50.0,50.0,50.0,50.0,50.0,50.0,50.0,50.0,50.0,50.0,0.0,0.0,0.0,0.0,0.0,0.0,0.0,0.0,0.0,0.0,0.0,0.0,0.0
4.7,40.55060746271258,54.91021861356721,92.24443958451914,50.0,50.0,50.0,50.0,50.0,50.0,50.0,50.0,50.0,50.0,0.0,0.0,0.0,0.0,0.0,0.0,0.0,0.0,0.0,0.0,0.0,0.0,0.0
4.71,40.55060746271258,54.91021861356721,92.24443958451914,50.0,50.0,50.0,50.0,50.0,50.0,50.0,50.0,50.0,50.0,0.0,0.0,0.0,0.0,0.0,0.0,0.0,0.0,0.0,0.0,0.0,0.0,0.0
4.72,40.55060746271258,54.91021861356721,92.24443958451914,50.0,50.0,50.0,50.0,50.0,50.0,50.0,50.0,50.0,50.0,0.0,0.0,0.0,0.0,0.0,0.0,0.0,0.0,0.0,0.0,0.0,0.0,0.0
4.73,40.55060746271258,54.91021861356721,92.24443958451914,50.0,50.0,50.0,50.0,50.0,50.0,50.0,50.0,50.0,50.0,0.0,0.0,0.0,0.0,0.0,0.0,0.0,0.0,0.0,0.0,0.0,0.0,0.0
4.74,40.55060746271258,54.91021861356721,92.24443958451914,50.0,50.0,50.0,50.0,50.0,50.0,50.0,50.0,50.0,50.0,0.0,0.0,0.0,0.0,0.0,0.0,0.0,0.0,0.0,0.0,0.0,0.0,0.0
4.75,40.55060746271258,54.91021861356721,92.24443958451914,50.0,50.0,50.0,50.0,50.0,50.0,50.0,50.0,50.0,50.0,0.0,0.0,0.0,0.0,0.0,0.0,0.0,0.0,0.0,0.0,0.0,0.0,0.0
4.76,40.55060746271258,54.91021861356721,92.24443958451914,50.0,50.0,50.0,50.0,50.0,50.0,50.0,50.0,50.0,50.0,0.0,0.0,0.0,0.0,0.0,0.0,0.0,0.0,0.0,0.0,0.0,0.0,0.0
4.77,40.55060746271258,54.91021861356721,92.24443958451914,50.0,50.0,50.0,50.0,50.0,50.0,50.0,50.0,50.0,50.0,0.0,0.0,0.0,0.0,0.0,0.0,0.0,0.0,0.0,0.0,0.0,0.0,0.0
4.78,40.55060746271258,54.91021861356721,92.24443958451914,50.0,50.0,50.0,50.0,50.0,50.0,50.0,50.0,50.0,50.0,0.0,0.0,0.0,0.0,0.0,0.0,0.0,0.0,0.0,0.0,0.0,0.0,0.0
4.79,40.55060746271258,54.91021861356721,92.24443958451914,50.0,50.0,50.0,50.0,50.0,50.0,50.0,50.0,50.0,50.0,0.0,0.0,0.0,0.0,0.0,0.0,0.0,0.0,0.0,0.0,0.0,0.0,0.0
4.8,40.55060746271258,54.91021861356721,92.24443958451914,50.0,50.0,50.0,50.0,50.0,50.0,50.0,50.0,50.0,50.0,0.0,0.0,0.0,0.0,0.0,0.0,0.0,0.0,0.0,0.0,0.0,0.0,0.0
4.81,40.55060746271258,54.91021861356721,92.24443958451914,50.0,50.0,50.0,50.0,50.0,50.0,50.0,50.0,50.0,50.0,0.0,0.0,0.0,0.0,0.0,0.0,0.0,0.0,0.0,0.0,0.0,0.0,0.0
4.82,40.55060746271258,54.91021861356721,92.24443958451914,50.0,50.0,50.0,50.0,50.0,50.0,50.0,50.0,50.0,50.0,0.0,0.0,0.0,0.0,0.0,0.0,0.0,0.0,0.0,0.0,0.0,0.0,0.0
4.83,40.55060746271258,54.91021861356721,92.24443958451914,50.0,50.0,50.0,50.0,50.0,50.0,50.0,50.0,50.0,50.0,0.0,0.0,0.0,0.0,0.0,0.0,0.0,0.0,0.0,0.0,0.0,0.0,0.0
4.84,40.55060746271258,54.91021861356721,92.24443958451914,50.0,50.0,50.0,50.0,50.0,50.0,50.0,50.0,50.0,50.0,0.0,0.0,0.0,0.0,0.0,0.0,0.0,0.0,0.0,0.0,0.0,0.0,0.0
4.85,40.55060746271258,54.91021861356721,92.24443958451914,50.0,50.0,50.0,50.0,50.0,50.0,50.0,50.0,50.0,50.0,0.0,0.0,0.0,0.0,0.0,0.0,0.0,0.0,0.0,0.0,0.0,0.0,0.0
4.86,40.55060746271258,54.91021861356721,92.24443958451914,50.0,50.0,50.0,50.0,50.0,50.0,50.0,50.0,50.0,50.0,0.0,0.0,0.0,0.0,0.0,0.0,0.0,0.0,0.0,0.0,0.0,0.0,0.0
4.87,40.55060746271258,54.91021861356721,92.24443958451914,50.0,50.0,50.0,50.0,50.0,50.0,50.0,50.0,50.0,50.0,0.0,0.0,0.0,0.0,0.0,0.0,0.0,0.0,0.0,0.0,0.0,0.0,0.0
4.88,40.55060746271258,54.91021861356721,92.24443958451914,50.0,50.0,50.0,50.0,50.0,50.0,50.0,50.0,50.0,50.0,0.0,0.0,0.0,0.0,0.0,0.0,0.0,0.0,0.0,0.0,0.0,0.0,0.0
4.89,40.55060746271258,54.91021861356721,92.24443958451914,50.0,50.0,50.0,50.0,50.0,50.0,50.0,50.0,50.0,50.0,0.0,0.0,0.0,0.0,0.0,0.0,0.0,0.0,0.0,0.0,0.0,0.0,0.0
4.9,40.55060746271258,54.91021861356721,92.24443958451914,50.0,50.0,50.0,50.0,50.0,50.0,50.0,50.0,50.0,50.0,0.0,0.0,0.0,0.0,0.0,0.0,0.0,0.0,0.0,0.0,0.0,0.0,0.0
4.91,40.55060746271258,54.91021861356721,92.24443958451914,50.0,50.0,50.0,50.0,50.0,50.0,50.0,50.0,50.0,50.0,0.0,0.0,0.0,0.0,0.0,0.0,0.0,0.0,0.0,0.0,0.0,0.0,0.0
4.92,40.55060746271258,54.91021861356721,92.24443958451914,50.0,50.0,50.0,50.0,50.0,50.0,50.0,50.0,50.0,50.0,0.0,0.0,0.0,0.0,0.0,0.0,0.0,0.0,0.0,0.0,0.0,0.0,0.0
4.93,40.55060746271258,54.91021861356721,92.24443958451914,50.0,50.0,50.0,50.0,50.0,50.0,50.0,50.0,50.0,50.0,0.0,0.0,0.0,0.0,0.0,0.0,0.0,0.0,0.0,0.0,0.0,0.0,0.0
4.94,40.55060746271258,54.91021861356721,92.24443958451914,50.0,50.0,50.0,50.0,50.0,50.0,50.0,50.0,50.0,50.0,0.0,0.0,0.0,0.0,0.0,0.0,0.0,0.0,0.0,0.0,0.0,0.0,0.0
4.95,40.55060746271258,54.91021861356721,92.24443958451914,50.0,50.0,50.0,50.0,50.0,50.0,50.0,50.0,50.0,50.0,0.0,0.0,0.0,0.0,0.0,0.0,0.0,0.0,0.0,0.0,0.0,0.0,0.0
4.96,40.55060746271258,54.91021861356721,92.24443958451914,50.0,50.0,50.0,50.0,50.0,50.0,50.0,50.0,50.0,50.0,0.0,0.0,0.0,0.0,0.0,0.0,0.0,0.0,0.0,0.0,0.0,0.0,0.0
4.97,40.55060746271258,54.91021861356721,92.24443958451914,50.0,50.0,50.0,50.0,50.0,50.0,50.0,50.0,50.0,50.0,0.0,0.0,0.0,0.0,0.0,0.0,0.0,0.0,0.0,0.0,0.0,0.0,0.0
4.98,40.55060746271258,54.91021861356721,92.24443958451914,50.0,50.0,50.0,50.0,50.0,50.0,50.0,50.0,50.0,50.0,0.0,0.0,0.0,0.0,0.0,0.0,0.0,0.0,0.0,0.0,0.0,0.0,0.0
4.99,40.55060746271258,54.91021861356721,92.24443958451914,50.0,50.0,50.0,50.0,50.0,50.0,50.0,50.0,50.0,50.0,0.0,0.0,0.0,0.0,0.0,0.0,0.0,0.0,0.0,0.0,0.0,0.0,0.0
5.0,40.55060746271258,54.91021861356721,92.24443958451914,50.0,50.0,50.0,50.0,50.0,50.0,50.0,50.0,50.0,50.0,0.0,0.0,0.0,0.0,0.0,0.0,0.0,0.0,0.0,0.0,0.0,0.0,0.0
5.01,40.55060746271258,54.91021861356721,92.24443958451914,50.0,50.0,50.0,50.0,50.0,50.0,50.0,50.0,50.0,50.0,0.0,0.0,0.0,0.0,0.0,0.0,0.0,0.0,0.0,0.0,0.0,0.0,0.0
5.02,40.55060746271258,54.91021861356721,92.24443958451914,50.0,50.0,50.0,50.0,50.0,50.0,50.0,50.0,50.0,50.0,0.0,0.0,0.0,0.0,0.0,0.0,0.0,0.0,0.0,0.0,0.0,0.0,0.0
5.03,40.55060746271258,54.91021861356721,92.24443958451914,50.0,50.0,50.0,50.0,50.0,50.0,50.0,50.0,50.0,50.0,0.0,0.0,0.0,0.0,0.0,0.0,0.0,0.0,0.0,0.0,0.0,0.0,0.0
5.04,40.55060746271258,54.91021861356721,92.24443958451914,50.0,50.0,50.0,50.0,50.0,50.0,50.0,50.0,50.0,50.0,0.0,0.0,0.0,0.0,0.0,0.0,0.0,0.0,0.0,0.0,0.0,0.0,0.0
5.05,40.55060746271258,54.91021861356721,92.24443958451914,50.0,50.0,50.0,50.0,50.0,50.0,50.0,50.0,50.0,50.0,0.0,0.0,0.0,0.0,0.0,0.0,0.0,0.0,0.0,0.0,0.0,0.0,0.0
5.06,40.55060746271258,54.91021861356721,92.24443958451914,50.0,50.0,50.0,50.0,50.0,50.0,50.0,50.0,50.0,50.0,0.0,0.0,0.0,0.0,0.0,0.0,0.0,0.0,0.0,0.0,0.0,0.0,0.0
5.07,40.55060746271258,54.91021861356721,92.24443958451914,50.0,50.0,50.0,50.0,50.0,50.0,50.0,50.0,50.0,50.0,0.0,0.0,0.0,0.0,0.0,0.0,0.0,0.0,0.0,0.0,0.0,0.0,0.0
5.08,40.55060746271258,54.91021861356721,92.24443958451914,50.0,50.0,50.0,50.0,50.0,50.0,50.0,50.0,50.0,50.0,0.0,0.0,0.0,0.0,0.0,0.0,0.0,0.0,0.0,0.0,0.0,0.0,0.0
5.09,40.55060746271258,54.91021861356721,92.24443958451914,50.0,50.0,50.0,50.0,50.0,50.0,50.0,50.0,50.0,50.0,0.0,0.0,0.0,0.0,0.0,0.0,0.0,0.0,0.0,0.0,0.0,0.0,0.0
5.1,40.55060746271258,54.91021861356721,92.24443958451914,50.0,50.0,50.0,50.0,50.0,50.0,50.0,50.0,50.0,50.0,0.0,0.0,0.0,0.0,0.0,0.0,0.0,0.0,0.0,0.0,0.0,0.0,0.0
5.11,40.55060746271258,54.91021861356721,92.24443958451914,50.0,50.0,50.0,50.0,50.0,50.0,50.0,50.0,50.0,50.0,0.0,0.0,0.0,0.0,0.0,0.0,0.0,0.0,0.0,0.0,0.0,0.0,0.0
5.12,40.55060746271258,54.91021861356721,92.24443958451914,50.0,50.0,50.0,50.0,50.0,50.0,50.0,50.0,50.0,50.0,0.0,0.0,0.0,0.0,0.0,0.0,0.0,0.0,0.0,0.0,0.0,0.0,0.0
5.13,40.55060746271258,54.91021861356721,92.24443958451914,50.0,50.0,50.0,50.0,50.0,50.0,50.0,50.0,50.0,50.0,0.0,0.0,0.0,0.0,0.0,0.0,0.0,0.0,0.0,0.0,0.0,0.0,0.0
5.14,40.55060746271258,54.91021861356721,92.24443958451914,50.0,50.0,50.0,50.0,50.0,50.0,50.0,50.0,50.0,50.0,0.0,0.0,0.0,0.0,0.0,0.0,0.0,0.0,0.0,0.0,0.0,0.0,0.0
5.15,40.55060746271258,54.91021861356721,92.24443958451914,50.0,50.0,50.0,50.0,50.0,50.0,50.0,50.0,50.0,50.0,0.0,0.0,0.0,0.0,0.0,0.0,0.0,0.0,0.0,0.0,0.0,0.0,0.0
5.16,40.55060746271258,54.91021861356721,92.24443958451914,50.0,50.0,50.0,50.0,50.0,50.0,50.0,50.0,50.0,50.0,0.0,0.0,0.0,0.0,0.0,0.0,0.0,0.0,0.0,0.0,0.0,0.0,0.0
5.17,40.55060746271258,54.91021861356721,92.24443958451914,50.0,50.0,50.0,50.0,50.0,50.0,50.0,50.0,50.0,50.0,0.0,0.0,0.0,0.0,0.0,0.0,0.0,0.0,0.0,0.0,0.0,0.0,0.0
5.18,40.55060746271258,54.91021861356721,92.24443958451914,50.0,50.0,50.0,50.0,50.0,50.0,50.0,50.0,50.0,50.0,0.0,0.0,0.0,0.0,0.0,0.0,0.0,0.0,0.0,0.0,0.0,0.0,0.0
5.19,40.55060746271258,54.91021861356721,92.24443958451914,50.0,50.0,50.0,50.0,50.0,50.0,50.0,50.0,50.0,50.0,0.0,0.0,0.0,0.0,0.0,0.0,0.0,0.0,0.0,0.0,0.0,0.0,0.0
5.2,40.55060746271258,54.91021861356721,92.24443958451914,50.0,50.0,50.0,50.0,50.0,50.0,50.0,50.0,50.0,50.0,0.0,0.0,0.0,0.0,0.0,0.0,0.0,0.0,0.0,0.0,0.0,0.0,0.0
5.21,40.55060746271258,54.91021861356721,92.24443958451914,50.0,50.0,50.0,50.0,50.0,50.0,50.0,50.0,50.0,50.0,0.0,0.0,0.0,0.0,0.0,0.0,0.0,0.0,0.0,0.0,0.0,0.0,0.0
5.22,40.55060746271258,54.91021861356721,92.24443958451914,50.0,50.0,50.0,50.0,50.0,50.0,50.0,50.0,50.0,50.0,0.0,0.0,0.0,0.0,0.0,0.0,0.0,0.0,0.0,0.0,0.0,0.0,0.0
5.23,40.55060746271258,54.91021861356721,92.24443958451914,50.0,50.0,50.0,50.0,50.0,50.0,50.0,50.0,50.0,50.0,0.0,0.0,0.0,0.0,0.0,0.0,0.0,0.0,0.0,0.0,0.0,0.0,0.0
5.24,40.55060746271258,54.91021861356721,92.24443958451914,50.0,50.0,50.0,50.0,50.0,50.0,50.0,50.0,50.0,50.0,0.0,0.0,0.0,0.0,0.0,0.0,0.0,0.0,0.0,0.0,0.0,0.0,0.0
5.25,40.55060746271258,54.91021861356721,92.24443958451914,50.0,50.0,50.0,50.0,50.0,50.0,50.0,50.0,50.0,50.0,0.0,0.0,0.0,0.0,0.0,0.0,0.0,0.0,0.0,0.0,0.0,0.0,0.0
5.26,40.55060746271258,54.91021861356721,92.24443958451914,50.0,50.0,50.0,50.0,50.0,50.0,50.0,50.0,50.0,50.0,0.0,0.0,0.0,0.0,0.0,0.0,0.0,0.0,0.0,0.0,0.0,0.0,0.0
5.27,40.55060746271258,54.91021861356721,92.24443958451914,50.0,50.0,50.0,50.0,50.0,50.0,50.0,50.0,50.0,50.0,0.0,0.0,0.0,0.0,0.0,0.0,0.0,0.0,0.0,0.0,0.0,0.0,0.0
5.28,40.55060746271258,54.91021861356721,92.24443958451914,50.0,50.0,50.0,50.0,50.0,50.0,50.0,50.0,50.0,50.0,0.0,0.0,0.0,0.0,0.0,0.0,0.0,0.0,0.0,0.0,0.0,0.0,0.0
5.29,40.55060746271258,54.91021861356721,92.24443958451914,50.0,50.0,50.0,50.0,50.0,50.0,50.0,50.0,50.0,50.0,0.0,0.0,0.0,0.0,0.0,0.0,0.0,0.0,0.0,0.0,0.0,0.0,0.0
5.3,40.55060746271258,54.91021861356721,92.24443958451914,50.0,50.0,50.0,50.0,50.0,50.0,50.0,50.0,50.0,50.0,0.0,0.0,0.0,0.0,0.0,0.0,0.0,0.0,0.0,0.0,0.0,0.0,0.0
5.31,40.55060746271258,54.91021861356721,92.24443958451914,50.0,50.0,50.0,50.0,50.0,50.0,50.0,50.0,50.0,50.0,0.0,0.0,0.0,0.0,0.0,0.0,0.0,0.0,0.0,0.0,0.0,0.0,0.0
5.32,40.55060746271258,54.91021861356721,92.24443958451914,50.0,50.0,50.0,50.0,50.0,50.0,50.0,50.0,50.0,50.0,0.0,0.0,0.0,0.0,0.0,0.0,0.0,0.0,0.0,0.0,0.0,0.0,0.0
5.33,40.55060746271258,54.91021861356721,92.24443958451914,50.0,50.0,50.0,50.0,50.0,50.0,50.0,50.0,50.0,50.0,0.0,0.0,0.0,0.0,0.0,0.0,0.0,0.0,0.0,0.0,0.0,0.0,0.0
5.34,40.55060746271258,54.91021861356721,92.24443958451914,50.0,50.0,50.0,50.0,50.0,50.0,50.0,50.0,50.0,50.0,0.0,0.0,0.0,0.0,0.0,0.0,0.0,0.0,0.0,0.0,0.0,0.0,0.0
5.35,40.55060746271258,54.91021861356721,92.24443958451914,50.0,50.0,50.0,50.0,50.0,50.0,50.0,50.0,50.0,50.0,0.0,0.0,0.0,0.0,0.0,0.0,0.0,0.0,0.0,0.0,0.0,0.0,0.0
5.36,40.55060746271258,54.91021861356721,92.24443958451914,50.0,50.0,50.0,50.0,50.0,50.0,50.0,50.0,50.0,50.0,0.0,0.0,0.0,0.0,0.0,0.0,0.0,0.0,0.0,0.0,0.0,0.0,0.0
5.37,40.55060746271258,54.91021861356721,92.24443958451914,50.0,50.0,50.0,50.0,50.0,50.0,50.0,50.0,50.0,50.0,0.0,0.0,0.0,0.0,0.0,0.0,0.0,0.0,0.0,0.0,0.0,0.0,0.0
5.38,40.55060746271258,54.91021861356721,92.24443958451914,50.0,50.0,50.0,50.0,50.0,50.0,50.0,50.0,50.0,50.0,0.0,0.0,0.0,0.0,0.0,0.0,0.0,0.0,0.0,0.0,0.0,0.0,0.0
5.39,40.55060746271258,54.91021861356721,92.24443958451914,50.0,50.0,50.0,50.0,50.0,50.0,50.0,50.0,50.0,50.0,0.0,0.0,0.0,0.0,0.0,0.0,0.0,0.0,0.0,0.0,0.0,0.0,0.0
5.4,40.55060746271258,54.91021861356721,92.24443958451914,50.0,50.0,50.0,50.0,50.0,50.0,50.0,50.0,50.0,50.0,0.0,0.0,0.0,0.0,0.0,0.0,0.0,0.0,0.0,0.0,0.0,0.0,0.0
5.41,40.55060746271258,54.91021861356721,92.24443958451914,50.0,50.0,50.0,50.0,50.0,50.0,50.0,50.0,50.0,50.0,0.0,0.0,0.0,0.0,0.0,0.0,0.0,0.0,0.0,0.0,0.0,0.0,0.0
5.42,40.55060746271258,54.91021861356721,92.24443958451914,50.0,50.0,50.0,50.0,50.0,50.0,50.0,50.0,50.0,50.0,0.0,0.0,0.0,0.0,0.0,0.0,0.0,0.0,0.0,0.0,0.0,0.0,0.0
5.43,40.55060746271258,54.91021861356721,92.24443958451914,50.0,50.0,50.0,50.0,50.0,50.0,50.0,50.0,50.0,50.0,0.0,0.0,0.0,0.0,0.0,0.0,0.0,0.0,0.0,0.0,0.0,0.0,0.0
5.44,40.55060746271258,54.91021861356721,92.24443958451914,50.0,50.0,50.0,50.0,50.0,50.0,50.0,50.0,50.0,50.0,0.0,0.0,0.0,0.0,0.0,0.0,0.0,0.0,0.0,0.0,0.0,0.0,0.0
5.45,40.55060746271258,54.91021861356721,92.24443958451914,50.0,50.0,50.0,50.0,50.0,50.0,50.0,50.0,50.0,50.0,0.0,0.0,0.0,0.0,0.0,0.0,0.0,0.0,0.0,0.0,0.0,0.0,0.0
5.46,40.55060746271258,54.91021861356721,92.24443958451914,50.0,50.0,50.0,50.0,50.0,50.0,50.0,50.0,50.0,50.0,0.0,0.0,0.0,0.0,0.0,0.0,0.0,0.0,0.0,0.0,0.0,0.0,0.0
5.47,40.55060746271258,54.91021861356721,92.24443958451914,50.0,50.0,50.0,50.0,50.0,50.0,50.0,50.0,50.0,50.0,0.0,0.0,0.0,0.0,0.0,0.0,0.0,0.0,0.0,0.0,0.0,0.0,0.0
5.48,40.55060746271258,54.91021861356721,92.24443958451914,50.0,50.0,50.0,50.0,50.0,50.0,50.0,50.0,50.0,50.0,0.0,0.0,0.0,0.0,0.0,0.0,0.0,0.0,0.0,0.0,0.0,0.0,0.0
5.49,40.55060746271258,54.91021861356721,92.24443958451914,50.0,50.0,50.0,50.0,50.0,50.0,50.0,50.0,50.0,50.0,0.0,0.0,0.0,0.0,0.0,0.0,0.0,0.0,0.0,0.0,0.0,0.0,0.0
5.5,40.55060746271258,54.91021861356721,92.24443958451914,50.0,50.0,50.0,50.0,50.0,50.0,50.0,50.0,50.0,50.0,0.0,0.0,0.0,0.0,0.0,0.0,0.0,0.0,0.0,0.0,0.0,0.0,0.0
5.51,40.55060746271258,54.91021861356721,92.24443958451914,50.0,50.0,50.0,50.0,50.0,50.0,50.0,50.0,50.0,50.0,0.0,0.0,0.0,0.0,0.0,0.0,0.0,0.0,0.0,0.0,0.0,0.0,0.0
5.52,40.55060746271258,54.91021861356721,92.24443958451914,50.0,50.0,50.0,50.0,50.0,50.0,50.0,50.0,50.0,50.0,0.0,0.0,0.0,0.0,0.0,0.0,0.0,0.0,0.0,0.0,0.0,0.0,0.0
5.53,40.55060746271258,54.91021861356721,59.26686388613956,50.0,50.0,50.0,50.0,50.0,50.0,50.0,50.0,50.0,50.0,0.0,0.0,-0.0,0.0,0.0,0.0,0.0,0.0,0.0,0.0,0.0,0.0,0.0
5.54,40.55060746271258,54.91021861356721,59.26686388613956,50.0,50.0,50.0,50.0,50.0,50.0,50.0,50.0,50.0,50.0,0.0,0.0,-0.0,0.0,0.0,0.0,0.0,0.0,0.0,0.0,0.0,0.0,0.0
5.55,40.55060746271258,54.91021861356721,59.26686388613956,50.0,50.0,50.0,50.0,50.0,50.0,50.0,50.0,50.0,50.0,0.0,0.0,-0.0,0.0,0.0,0.0,0.0,0.0,0.0,0.0,0.0,0.0,0.0
5.56,40.55060746271258,54.91021861356721,59.26686388613956,50.0,50.0,50.0,50.0,50.0,50.0,50.0,50.0,50.0,50.0,0.0,0.0,-0.0,0.0,0.0,0.0,0.0,0.0,0.0,0.0,0.0,0.0,0.0
5.57,40.55060746271258,54.91021861356721,59.26686388613956,50.0,50.0,50.0,50.0,50.0,50.0,50.0,50.0,50.0,50.0,0.0,0.0,-0.0,0.0,0.0,0.0,0.0,0.0,0.0,0.0,0.0,0.0,0.0
5.58,40.55060746271258,54.91021861356721,59.26686388613956,50.0,50.0,50.0,50.0,50.0,50.0,50.0,50.0,50.0,50.0,0.0,0.0,-0.0,0.0,0.0,0.0,0.0,0.0,0.0,0.0,0.0,0.0,0.0
5.59,40.55060746271258,54.91021861356721,59.26686388613956,50.0,50.0,50.0,50.0,50.0,50.0,50.0,50.0,50.0,50.0,0.0,0.0,-0.0,0.0,0.0,0.0,0.0,0.0,0.0,0.0,0.0,0.0,0.0
5.6,40.55060746271258,54.91021861356721,59.26686388613956,50.0,50.0,50.0,50.0,50.0,50.0,50.0,50.0,50.0,50.0,0.0,0.0,-0.0,0.0,0.0,0.0,0.0,0.0,0.0,0.0,0.0,0.0,0.0
5.61,40.55060746271258,54.91021861356721,59.26686388613956,50.0,50.0,50.0,50.0,50.0,50.0,50.0,50.0,50.0,50.0,0.0,0.0,-0.0,0.0,0.0,0.0,0.0,0.0,0.0,0.0,0.0,0.0,0.0
5.62,40.55060746271258,54.91021861356721,59.26686388613956,50.0,50.0,50.0,50.0,50.0,50.0,50.0,50.0,50.0,50.0,0.0,0.0,-0.0,0.0,0.0,0.0,0.0,0.0,0.0,0.0,0.0,0.0,0.0
5.63,40.55060746271258,54.91021861356721,59.26686388613956,50.0,50.0,50.0,50.0,50.0,50.0,50.0,50.0,50.0,50.0,0.0,0.0,-0.0,0.0,0.0,0.0,0.0,0.0,0.0,0.0,0.0,0.0,0.0
5.64,40.55060746271258,54.91021861356721,59.26686388613956,50.0,50.0,50.0,50.0,50.0,50.0,50.0,50.0,50.0,50.0,0.0,0.0,-0.0,0.0,0.0,0.0,0.0,0.0,0.0,0.0,0.0,0.0,0.0
5.65,40.55060746271258,54.91021861356721,59.26686388613956,50.0,50.0,50.0,50.0,50.0,50.0,50.0,50.0,50.0,50.0,0.0,0.0,-0.0,0.0,0.0,0.0,0.0,0.0,0.0,0.0,0.0,0.0,0.0
5.66,40.55060746271258,54.91021861356721,59.26686388613956,50.0,50.0,50.0,50.0,50.0,50.0,50.0,50.0,50.0,50.0,0.0,0.0,-0.0,0.0,0.0,0.0,0.0,0.0,0.0,0.0,0.0,0.0,0.0
5.67,40.55060746271258,54.91021861356721,59.26686388613956,50.0,50.0,50.0,50.0,50.0,50.0,50.0,50.0,50.0,50.0,0.0,0.0,-0.0,0.0,0.0,0.0,0.0,0.0,0.0,0.0,0.0,0.0,0.0
5.68,40.55060746271258,54.91021861356721,59.26686388613956,50.0,50.0,50.0,50.0,50.0,50.0,50.0,50.0,50.0,50.0,0.0,0.0,-0.0,0.0,0.0,0.0,0.0,0.0,0.0,0.0,0.0,0.0,0.0
5.69,40.55060746271258,54.91021861356721,59.26686388613956,50.0,50.0,50.0,50.0,50.0,50.0,50.0,50.0,50.0,50.0,0.0,0.0,-0.0,0.0,0.0,0.0,0.0,0.0,0.0,0.0,0.0,0.0,0.0
5.7,40.55060746271258,54.91021861356721,59.26686388613956,50.0,50.0,50.0,50.0,50.0,50.0,50.0,50.0,50.0,50.0,0.0,0.0,-0.0,0.0,0.0,0.0,0.0,0.0,0.0,0.0,0.0,0.0,0.0
5.71,40.55060746271258,54.91021861356721,59.26686388613956,50.0,50.0,50.0,50.0,50.0,50.0,50.0,50.0,50.0,50.0,0.0,0.0,-0.0,0.0,0.0,0.0,0.0,0.0,0.0,0.0,0.0,0.0,0.0
5.72,40.55060746271258,54.91021861356721,59.26686388613956,50.0,50.0,50.0,50.0,50.0,50.0,50.0,50.0,50.0,50.0,0.0,0.0,-0.0,0.0,0.0,0.0,0.0,0.0,0.0,0.0,0.0,0.0,0.0
5.73,40.55060746271258,54.91021861356721,59.26686388613956,50.0,50.0,50.0,50.0,50.0,50.0,50.0,50.0,50.0,50.0,0.0,0.0,-0.0,0.0,0.0,0.0,0.0,0.0,0.0,0.0,0.0,0.0,0.0
5.74,40.55060746271258,54.91021861356721,59.26686388613956,50.0,50.0,50.0,50.0,50.0,50.0,50.0,50.0,50.0,50.0,0.0,0.0,-0.0,0.0,0.0,0.0,0.0,0.0,0.0,0.0,0.0,0.0,0.0
5.75,40.55060746271258,54.91021861356721,59.26686388613956,50.0,50.0,50.0,50.0,50.0,50.0,50.0,50.0,50.0,50.0,0.0,0.0,-0.0,0.0,0.0,0.0,0.0,0.0,0.0,0.0,0.0,0.0,0.0
5.76,40.55060746271258,54.91021861356721,59.26686388613956,50.0,50.0,50.0,50.0,50.0,50.0,50.0,50.0,50.0,50.0,0.0,0.0,-0.0,0.0,0.0,0.0,0.0,0.0,0.0,0.0,0.0,0.0,0.0
5.77,40.55060746271258,54.91021861356721,59.26686388613956,50.0,50.0,50.0,50.0,50.0,50.0,50.0,50.0,50.0,50.0,0.0,0.0,-0.0,0.0,0.0,0.0,0.0,0.0,0.0,0.0,0.0,0.0,0.0
5.78,40.55060746271258,54.91021861356721,59.26686388613956,50.0,50.0,50.0,50.0,50.0,50.0,50.0,50.0,50.0,50.0,0.0,0.0,-0.0,0.0,0.0,0.0,0.0,0.0,0.0,0.0,0.0,0.0,0.0
5.79,40.55060746271258,54.91021861356721,59.26686388613956,50.0,50.0,50.0,50.0,50.0,50.0,50.0,50.0,50.0,50.0,0.0,0.0,-0.0,0.0,0.0,0.0,0.0,0.0,0.0,0.0,0.0,0.0,0.0
5.8,40.55060746271258,54.91021861356721,59.26686388613956,50.0,50.0,50.0,50.0,50.0,50.0,50.0,50.0,50.0,50.0,0.0,0.0,-0.0,0.0,0.0,0.0,0.0,0.0,0.0,0.0,0.0,0.0,0.0
5.81,40.55060746271258,54.91021861356721,59.26686388613956,50.0,50.0,50.0,50.0,50.0,50.0,50.0,50.0,50.0,50.0,0.0,0.0,-0.0,0.0,0.0,0.0,0.0,0.0,0.0,0.0,0.0,0.0,0.0
5.82,40.55060746271258,54.91021861356721,59.26686388613956,50.0,50.0,50.0,50.0,50.0,50.0,50.0,50.0,50.0,50.0,0.0,0.0,-0.0,0.0,0.0,0.0,0.0,0.0,0.0,0.0,0.0,0.0,0.0
5.83,40.55060746271258,23.180287730677115,59.26686388613956,50.0,50.0,50.0,50.0,50.0,50.0,50.0,50.0,50.0,50.0,0.0,-0.0,-0.0,0.0,0.0,0.0,0.0,0.0,0.0,0.0,0.0,0.0,0.0
5.84,40.55060746271258,23.180287730677115,59.26686388613956,50.0,50.0,50.0,50.0,50.0,50.0,50.0,50.0,50.0,50.0,0.0,-0.0,-0.0,0.0,0.0,0.0,0.0,0.0,0.0,0.0,0.0,0.0,0.0
5.85,40.55060746271258,23.180287730677115,59.26686388613956,50.0,50.0,50.0,50.0,50.0,50.0,50.0,50.0,50.0,50.0,0.0,-0.0,-0.0,0.0,0.0,0.0,0.0,0.0,0.0,0.0,0.0,0.0,0.0
5.86,40.55060746271258,23.180287730677115,59.26686388613956,50.0,50.0,50.0,50.0,50.0,50.0,50.0,50.0,50.0,50.0,0.0,-0.0,-0.0,0.0,0.0,0.0,0.0,0.0,0.0,0.0,0.0,0.0,0.0
5.87,40.55060746271258,23.180287730677115,59.26686388613956,50.0,50.0,50.0,50.0,50.0,50.0,50.0,50.0,50.0,50.0,0.0,-0.0,-0.0,0.0,0.0,0.0,0.0,0.0,0.0,0.0,0.0,0.0,0.0
5.88,40.55060746271258,23.180287730677115,59.26686388613956,50.0,50.0,50.0,50.0,50.0,50.0,50.0,50.0,50.0,50.0,0.0,-0.0,-0.0,0.0,0.0,0.0,0.0,0.0,0.0,0.0,0.0,0.0,0.0
5.89,40.55060746271258,23.180287730677115,59.26686388613956,50.0,50.0,50.0,50.0,50.0,50.0,50.0,50.0,50.0,50.0,0.0,-0.0,-0.0,0.0,0.0,0.0,0.0,0.0,0.0,0.0,0.0,0.0,0.0
5.9,40.55060746271258,23.180287730677115,59.26686388613956,50.0,50.0,50.0,50.0,50.0,50.0,50.0,50.0,50.0,50.0,0.0,-0.0,-0.0,0.0,0.0,0.0,0.0,0.0,0.0,0.0,0.0,0.0,0.0
5.91,40.55060746271258,23.180287730677115,59.26686388613956,50.0,50.0,50.0,50.0,50.0,50.0,50.0,50.0,50.0,50.0,0.0,-0.0,-0.0,0.0,0.0,0.0,0.0,0.0,0.0,0.0,0.0,0.0,0.0
5.92,40.55060746271258,23.180287730677115,59.26686388613956,50.0,50.0,50.0,50.0,50.0,50.0,50.0,50.0,50.0,50.0,0.0,-0.0,-0.0,0.0,0.0,0.0,0.0,0.0,0.0,0.0,0.0,0.0,0.0
5.93,40.55060746271258,23.180287730677115,59.26686388613956,50.0,50.0,50.0,50.0,50.0,50.0,50.0,50.0,50.0,50.0,0.0,-0.0,-0.0,0.0,0.0,0.0,0.0,0.0,0.0,0.0,0.0,0.0,0.0
5.94,40.55060746271258,23.180287730677115,59.26686388613956,50.0,50.0,50.0,50.0,50.0,50.0,50.0,50.0,50.0,50.0,0.0,-0.0,-0.0,0.0,0.0,0.0,0.0,0.0,0.0,0.0,0.0,0.0,0.0
5.95,40.55060746271258,23.180287730677115,59.26686388613956,50.0,50.0,50.0,50.0,50.0,50.0,50.0,50.0,50.0,50.0,0.0,-0.0,-0.0,0.0,0.0,0.0,0.0,0.0,0.0,0.0,0.0,0.0,0.0
5.96,40.55060746271258,23.180287730677115,59.26686388613956,50.0,50.0,50.0,50.0,50.0,50.0,50.0,50.0,50.0,50.0,0.0,-0.0,-0.0,0.0,0.0,0.0,0.0,0.0,0.0,0.0,0.0,0.0,0.0
5.97,40.55060746271258,23.180287730677115,59.26686388613956,50.0,50.0,50.0,50.0,50.0,50.0,50.0,50.0,50.0,50.0,0.0,-0.0,-0.0,0.0,0.0,0.0,0.0,0.0,0.0,0.0,0.0,0.0,0.0
5.98,40.55060746271258,23.180287730677115,59.26686388613956,50.0,50.0,50.0,50.0,50.0,50.0,50.0,50.0,50.0,50.0,0.0,-0.0,-0.0,0.0,0.0,0.0,0.0,0.0,0.0,0.0,0.0,0.0,0.0
5.99,40.55060746271258,23.180287730677115,59.26686388613956,50.0,50.0,50.0,50.0,50.0,50.0,50.0,50.0,50.0,50.0,0.0,-0.0,-0.0,0.0,0.0,0.0,0.0,0.0,0.0,0.0,0.0,0.0,0.0
6.0,40.55060746271258,23.180287730677115,59.26686388613956,50.0,50.0,50.0,50.0,50.0,50.0,50.0,50.0,50.0,50.0,0.0,-0.0,-0.0,0.0,0.0,0.0,0.0,0.0,0.0,0.0,0.0,0.0,0.0
6.01,40.55060746271258,23.180287730677115,59.26686388613956,50.0,50.0,50.0,50.0,50.0,50.0,50.0,50.0,50.0,50.0,0.0,-0.0,-0.0,0.0,0.0,0.0,0.0,0.0,0.0,0.0,0.0,0.0,0.0
6.02,40.55060746271258,23.180287730677115,59.26686388613956,50.0,50.0,50.0,50.0,50.0,50.0,50.0,50.0,50.0,50.0,0.0,-0.0,-0.0,0.0,0.0,0.0,0.0,0.0,0.0,0.0,0.0,0.0,0.0
6.03,40.55060746271258,23.180287730677115,59.26686388613956,50.0,50.0,50.0,50.0,50.0,50.0,50.0,50.0,50.0,50.0,0.0,-0.0,-0.0,0.0,0.0,0.0,0.0,0.0,0.0,0.0,0.0,0.0,0.0
6.04,40.55060746271258,23.180287730677115,59.26686388613956,50.0,50.0,50.0,50.0,50.0,50.0,50.0,50.0,50.0,50.0,0.0,-0.0,-0.0,0.0,0.0,0.0,0.0,0.0,0.0,0.0,0.0,0.0,0.0
6.05,40.55060746271258,23.180287730677115,59.26686388613956,50.0,50.0,50.0,50.0,50.0,50.0,50.0,50.0,50.0,50.0,0.0,-0.0,-0.0,0.0,0.0,0.0,0.0,0.0,0.0,0.0,0.0,0.0,0.0
6.06,40.55060746271258,23.180287730677115,59.26686388613956,50.0,50.0,50.0,50.0,50.0,50.0,50.0,50.0,50.0,50.0,0.0,-0.0,-0.0,0.0,0.0,0.0,0.0,0.0,0.0,0.0,0.0,0.0,0.0
6.07,40.55060746271258,23.180287730677115,59.26686388613956,50.0,50.0,50.0,50.0,50.0,50.0,50.0,50.0,50.0,50.0,0.0,-0.0,-0.0,0.0,0.0,0.0,0.0,0.0,0.0,0.0,0.0,0.0,0.0
6.08,40.55060746271258,23.180287730677115,59.26686388613956,50.0,50.0,50.0,50.0,50.0,50.0,50.0,50.0,50.0,50.0,0.0,-0.0,-0.0,0.0,0.0,0.0,0.0,0.0,0.0,0.0,0.0,0.0,0.0
6.09,40.55060746271258,23.180287730677115,59.26686388613956,50.0,50.0,50.0,50.0,50.0,50.0,50.0,50.0,50.0,50.0,0.0,-0.0,-0.0,0.0,0.0,0.0,0.0,0.0,0.0,0.0,0.0,0.0,0.0
6.1,40.55060746271258,23.180287730677115,59.26686388613956,50.0,50.0,50.0,50.0,50.0,50.0,50.0,50.0,50.0,50.0,0.0,-0.0,-0.0,0.0,0.0,0.0,0.0,0.0,0.0,0.0,0.0,0.0,0.0
6.11,40.55060746271258,23.180287730677115,59.26686388613956,50.0,50.0,50.0,50.0,50.0,50.0,50.0,50.0,50.0,50.0,0.0,-0.0,-0.0,0.0,0.0,0.0,0.0,0.0,0.0,0.0,0.0,0.0,0.0
6.12,40.55060746271258,23.180287730677115,59.26686388613956,50.0,50.0,50.0,50.0,50.0,50.0,50.0,50.0,50.0,50.0,0.0,-0.0,-0.0,0.0,0.0,0.0,0.0,0.0,0.0,0.0,0.0,0.0,0.0
6.13,60.0,23.180287730677115,59.26686388613956,50.0,50.0,50.0,50.0,50.0,50.0,50.0,50.0,50.0,50.0,0.0,-0.0,-0.0,0.0,0.0,0.0,0.0,0.0,0.0,0.0,0.0,0.0,0.0
6.14,60.0,23.180287730677115,59.26686388613956,50.0,50.0,50.0,50.0,50.0,50.0,50.0,50.0,50.0,50.0,0.0,-0.0,-0.0,0.0,0.0,0.0,0.0,0.0,0.0,0.0,0.0,0.0,0.0
6.15,60.0,23.180287730677115,59.26686388613956,50.0,50.0,50.0,50.0,50.0,50.0,50.0,50.0,50.0,50.0,0.0,-0.0,-0.0,0.0,0.0,0.0,0.0,0.0,0.0,0.0,0.0,0.0,0.0
6.16,60.0,23.180287730677115,59.26686388613956,50.0,50.0,50.0,50.0,50.0,50.0,50.0,50.0,50.0,50.0,0.0,-0.0,-0.0,0.0,0.0,0.0,0.0,0.0,0.0,0.0,0.0,0.0,0.0
6.17,60.0,23.180287730677115,59.26686388613956,50.0,50.0,50.0,50.0,50.0,50.0,50.0,50.0,50.0,50.0,0.0,-0.0,-0.0,0.0,0.0,0.0,0.0,0.0,0.0,0.0,0.0,0.0,0.0
6.18,60.0,23.180287730677115,59.26686388613956,50.0,50.0,50.0,50.0,50.0,50.0,50.0,50.0,50.0,50.0,0.0,-0.0,-0.0,0.0,0.0,0.0,0.0,0.0,0.0,0.0,0.0,0.0,0.0
6.19,60.0,23.180287730677115,59.26686388613956,50.0,50.0,50.0,50.0,50.0,50.0,50.0,50.0,50.0,50.0,0.0,-0.0,-0.0,0.0,0.0,0.0,0.0,0.0,0.0,0.0,0.0,0.0,0.0
6.2,60.0,23.180287730677115,59.26686388613956,50.0,50.0,50.0,50.0,50.0,50.0,50.0,50.0,50.0,50.0,0.0,-0.0,-0.0,0.0,0.0,0.0,0.0,0.0,0.0,0.0,0.0,0.0,0.0
6.21,60.0,23.180287730677115,59.26686388613956,50.0,50.0,50.0,50.0,50.0,50.0,50.0,50.0,50.0,50.0,0.0,-0.0,-0.0,0.0,0.0,0.0,0.0,0.0,0.0,0.0,0.0,0.0,0.0
6.22,60.0,23.180287730677115,59.26686388613956,50.0,50.0,50.0,50.0,50.0,50.0,50.0,50.0,50.0,50.0,0.0,-0.0,-0.0,0.0,0.0,0.0,0.0,0.0,0.0,0.0,0.0,0.0,0.0
6.23,60.0,23.180287730677115,59.26686388613956,50.0,50.0,50.0,50.0,50.0,50.0,50.0,50.0,50.0,50.0,0.0,-0.0,-0.0,0.0,0.0,0.0,0.0,0.0,0.0,0.0,0.0,0.0,0.0
6.24,60.0,23.180287730677115,59.26686388613956,50.0,50.0,50.0,50.0,50.0,50.0,50.0,50.0,50.0,50.0,0.0,-0.0,-0.0,0.0,0.0,0.0,0.0,0.0,0.0,0.0,0.0,0.0,0.0
6.25,60.0,23.180287730677115,59.26686388613956,50.0,50.0,50.0,50.0,50.0,50.0,50.0,50.0,50.0,50.0,0.0,-0.0,-0.0,0.0,0.0,0.0,0.0,0.0,0.0,0.0,0.0,0.0,0.0
6.26,60.0,23.180287730677115,59.26686388613956,50.0,50.0,50.0,50.0,50.0,50.0,50.0,50.0,50.0,50.0,0.0,-0.0,-0.0,0.0,0.0,0.0,0.0,0.0,0.0,0.0,0.0,0.0,0.0
6.27,60.0,23.180287730677115,59.26686388613956,50.0,50.0,50.0,50.0,50.0,50.0,50.0,50.0,50.0,50.0,0.0,-0.0,-0.0,0.0,0.0,0.0,0.0,0.0,0.0,0.0,0.0,0.0,0.0
6.28,60.0,23.180287730677115,59.26686388613956,50.0,50.0,50.0,50.0,50.0,50.0,50.0,50.0,50.0,50.0,0.0,-0.0,-0.0,0.0,0.0,0.0,0.0,0.0,0.0,0.0,0.0,0.0,0.0
