milky766/affetto/tests/data/rand_traj_step_async_1-3-5-7.csv
t,q0,q1,q2,q3,q4,q5,q6,q7,q8,q9,q10,q11,q12,dq0,dq1,dq2,dq3,dq4,dq5,dq6,dq7,dq8,dq9,dq10,dq11,dq12
0.0,50.0,22.303766702228494,50.0,11.878981267937519,50.0,24.38933047672244,50.0,86.24863572644571,50.0,50.0,50.0,50.0,50.0,0.0,-0.0,0.0,-0.0,0.0,-0.0,0.0,0.0,0.0,0.0,0.0,0.0,0.0
0.01,50.0,22.303766702228494,50.0,11.878981267937519,50.0,24.38933047672244,50.0,86.24863572644571,50.0,50.0,50.0,50.0,50.0,0.0,-0.0,0.0,-0.0,0.0,-0.0,0.0,0.0,0.0,0.0,0.0,0.0,0.0
0.02,50.0,22.303766702228494,50.0,11.878981267937519,50.0,24.38933047672244,50.0,86.24863572644571,50.0,50.0,50.0,50.0,50.0,0.0,-0.0,0.0,-0.0,0.0,-0.0,0.0,0.0,0.0,0.0,0.0,0.0,0.0
0.03,50.0,22.303766702228494,50.0,11.878981267937519,50.0,24.38933047672244,50.0,86.24863572644571,50.0,50.0,50.0,50.0,50.0,0.0,-0.0,0.0,-0.0,0.0,-0.0,0.0,0.0,0.0,0.0,0.0,0.0,0.0
0.04,50.0,22.303766702228494,50.0,11.878981267937519,50.0,24.38933047672244,50.0,86.24863572644571,50.0,50.0,50.0,50.0,50.0,0.0,-0.0,0.0,-0.0,0.0,-0.0,0.0,0.0,0.0,0.0,0.0,0.0,0.0
0.05,50.0,22.303766702228494,50.0,11.878981267937519,50.0,24.38933047672244,50.0,86.24863572644571,50.0,50.0,50.0,50.0,50.0,0.0,-0.0,0.0,-0.0,0.0,-0.0,0.0,0.0,0.0,0.0,0.0,0.0,0.0
0.06,50.0,22.303766702228494,50.0,11.878981267937519,50.0,24.38933047672244,50.0,86.24863572644571,50.0,50.0,50.0,50.0,50.0,0.0,-0.0,0.0,-0.0,0.0,-0.0,0.0,0.0,0.0,0.0,0.0,0.0,0.0
0.07,50.0,22.303766702228494,50.0,11.878981267937519,50.0,24.38933047672244,50.0,86.24863572644571,50.0,50.0,50.0,50.0,50.0,0.0,-0.0,0.0,-0.0,0.0,-0.0,0.0,0.0,0.0,0.0,0.0,0.0,0.0
0.08,50.0,22.303766702228494,50.0,11.878981267937519,50.0,24.38933047672244,50.0,86.24863572644571,50.0,50.0,50.0,50.0,50.0,0.0,-0.0,0.0,-0.0,0.0,-0.0,0.0,0.0,0.0,0.0,0.0,0.0,0.0
0.09,50.0,22.303766702228494,50.0,11.878981267937519,50.0,24.38933047672244,50.0,86.24863572644571,50.0,50.0,50.0,50.0,50.0,0.0,-0.0,0.0,-0.0,0.0,-0.0,0.0,0.0,0.0,0.0,0.0,0.0,0.0
0.1,50.0,22.303766702228494,50.0,11.878981267937519,50.0,24.38933047672244,50.0,86.24863572644571,50.0,50.0,50.0,50.0,50.0,0.0,-0.0,0.0,-0.0,0.0,-0.0,0.0,0.0,0.0,0.0,0.0,0.0,0.0
0.11,50.0,22.303766702228494,50.0,11.878981267937519,50.0,24.38933047672244,50.0,86.24863572644571,50.0,50.0,50.0,50.0,50.0,0.0,-0.0,0.0,-0.0,0.0,-0.0,0.0,0.0,0.0,0.0,0.0,0.0,0.0
0.12,50.0,22.303766702228494,50.0,11.878981267937519,50.0,24.38933047672244,50.0,86.24863572644571,50.0,50.0,50.0,50.0,50.0,0.0,-0.0,0.0,-0.0,0.0,-0.0,0.0,0.0,0.0,0.0,0.0,0.0,0.0
0.13,50.0,22.303766702228494,50.0,11.878981267937519,50.0,24.38933047672244,50.0,86.24863572644571,50.0,50.0,50.0,50.0,50.0,0.0,-0.0,0.0,-0.0,0.0,-0.0,0.0,0.0,0.0,0.0,0.0,0.0,0.0
0.14,50.0,22.303766702228494,50.0,11.878981267937519,50.0,24.38933047672244,50.0,86.24863572644571,50.0,50.0,50.0,50.0,50.0,0.0,-0.0,0.0,-0.0,0.0,-0.0,0.0,0.0,0.0,0.0,0.0,0.0,0.0
0.15,50.0,22.303766702228494,50.0,11.878981267937519,50.0,24.38933047672244,50.0,86.24863572644571,50.0,50.0,50.0,50.0,50.0,0.0,-0.0,0.0,-0.0,0.0,-0.0,0.0,0.0,0.0,0.0,0.0,0.0,0.0
0.16,50.0,22.303766702228494,50.0,11.878981267937519,50.0,24.38933047672244,50.0,86.24863572644571,50.0,50.0,50.0,50.0,50.0,0.0,-0.0,0.0,-0.0,0.0,-0.0,0.0,0.0,0.0,0.0,0.0,0.0,0.0
0.17,50.0,22.303766702228494,50.0,11.878981267937519,50.0,24.38933047672244,50.0,86.24863572644571,50.0,50.0,50.0,50.0,50.0,0.0,-0.0,0.0,-0.0,0.0,-0.0,0.0,0.0,0.0,0.0,0.0,0.0,0.0
0.18,50.0,22.303766702228494,50.0,11.878981267937519,50.0,24.38933047672244,50.0,86.24863572644571,50.0,50.0,50.0,50.0,50.0,0.0,-0.0,0.0,-0.0,0.0,-0.0,0.0,0.0,0.0,0.0,0.0,0.0,0.0
0.19,50.0,22.303766702228494,50.0,11.878981267937519,50.0,24.38933047672244,50.0,86.24863572644571,50.0,50.0,50.0,50.0,50.0,0.0,-0.0,0.0,-0.0,0.0,-0.0,0.0,0.0,0.0,0.0,0.0,0.0,0.0
0.2,50.0,22.303766702228494,50.0,11.878981267937519,50.0,24.38933047672244,50.0,86.24863572644571,50.0,50.0,50.0,50.0,50.0,0.0,-0.0,0.0,-0.0,0.0,-0.0,0.0,0.0,0.0,0.0,0.0,0.0,0.0
0.21,50.0,22.303766702228494,50.0,11.878981267937519,50.0,24.38933047672244,50.0,86.24863572644571,50.0,50.0,50.0,50.0,50.0,0.0,-0.0,0.0,-0.0,0.0,-0.0,0.0,0.0,0.0,0.0,0.0,0.0,0.0
0.22,50.0,22.303766702228494,50.0,11.878981267937519,50.0,24.38933047672244,50.0,86.24863572644571,50.0,50.0,50.0,50.0,50.0,0.0,-0.0,0.0,-0.0,0.0,-0.0,0.0,0.0,0.0,0.0,0.0,0.0,0.0
0.23,50.0,22.303766702228494,50.0,11.878981267937519,50.0,24.38933047672244,50.0,86.24863572644571,50.0,50.0,50.0,50.0,50.0,0.0,-0.0,0.0,-0.0,0.0,-0.0,0.0,0.0,0.0,0.0,0.0,0.0,0.0
0.24,50.0,22.303766702228494,50.0,11.878981267937519,50.0,24.38933047672244,50.0,86.24863572644571,50.0,50.0,50.0,50.0,50.0,0.0,-0.0,0.0,-0.0,0.0,-0.0,0.0,0.0,0.0,0.0,0.0,0.0,0.0
0.25,50.0,22.303766702228494,50.0,11.878981267937519,50.0,24.38933047672244,50.0,86.24863572644571,50.0,50.0,50.0,50.0,50.0,0.0,-0.0,0.0,-0.0,0.0,-0.0,0.0,0.0,0.0,0.0,0.0,0.0,0.0
0.26,50.0,22.303766702228494,50.0,11.878981267937519,50.0,24.38933047672244,50.0,86.24863572644571,50.0,50.0,50.0,50.0,50.0,0.0,-0.0,0.0,-0.0,0.0,-0.0,0.0,0.0,0.0,0.0,0.0,0.0,0.0
0.27,50.0,22.303766702228494,50.0,11.878981267937519,50.0,24.38933047672244,50.0,86.24863572644571,50.0,50.0,50.0,50.0,50.0,0.0,-0.0,0.0,-0.0,0.0,-0.0,0.0,0.0,0.0,0.0,0.0,0.0,0.0
0.28,50.0,22.303766702228494,50.0,11.878981267937519,50.0,24.38933047672244,50.0,86.24863572644571,50.0,50.0,50.0,50.0,50.0,0.0,-0.0,0.0,-0.0,0.0,-0.0,0.0,0.0,0.0,0.0,0.0,0.0,0.0
0.29,50.0,22.303766702228494,50.0,11.878981267937519,50.0,24.38933047672244,50.0,86.24863572644571,50.0,50.0,50.0,50.0,50.0,0.0,-0.0,0.0,-0.0,0.0,-0.0,0.0,0.0,0.0,0.0,0.0,0.0,0.0
0.3,50.0,22.303766702228494,50.0,11.878981267937519,50.0,24.38933047672244,50.0,86.24863572644571,50.0,50.0,50.0,50.0,50.0,0.0,-0.0,0.0,-0.0,0.0,-0.0,0.0,0.0,0.0,0.0,0.0,0.0,0.0
0.31,50.0,22.303766702228494,50.0,11.878981267937519,50.0,24.38933047672244,50.0,86.24863572644571,50.0,50.0,50.0,50.0,50.0,0.0,-0.0,0.0,-0.0,0.0,-0.0,0.0,0.0,0.0,0.0,0.0,0.0,0.0
0.32,50.0,22.303766702228494,50.0,11.878981267937519,50.0,24.38933047672244,50.0,86.24863572644571,50.0,50.0,50.0,50.0,50.0,0.0,-0.0,0.0,-0.0,0.0,-0.0,0.0,0.0,0.0,0.0,0.0,0.0,0.0
0.33,50.0,22.303766702228494,50.0,11.878981267937519,50.0,24.38933047672244,50.0,86.24863572644571,50.0,50.0,50.0,50.0,50.0,0.0,-0.0,0.0,-0.0,0.0,-0.0,0.0,0.0,0.0,0.0,0.0,0.0,0.0
0.34,50.0,22.303766702228494,50.0,11.878981267937519,50.0,24.38933047672244,50.0,86.24863572644571,50.0,50.0,50.0,50.0,50.0,0.0,-0.0,0.0,-0.0,0.0,-0.0,0.0,0.0,0.0,0.0,0.0,0.0,0.0
0.35,50.0,22.303766702228494,50.0,11.878981267937519,50.0,24.38933047672244,50.0,86.24863572644571,50.0,50.0,50.0,50.0,50.0,0.0,-0.0,0.0,-0.0,0.0,-0.0,0.0,0.0,0.0,0.0,0.0,0.0,0.0
0.36,50.0,22.303766702228494,50.0,11.878981267937519,50.0,24.38933047672244,50.0,86.24863572644571,50.0,50.0,50.0,50.0,50.0,0.0,-0.0,0.0,-0.0,0.0,-0.0,0.0,0.0,0.0,0.0,0.0,0.0,0.0
0.37,50.0,22.303766702228494,50.0,11.878981267937519,50.0,24.38933047672244,50.0,86.24863572644571,50.0,50.0,50.0,50.0,50.0,0.0,-0.0,0.0,-0.0,0.0,-0.0,0.0,0.0,0.0,0.0,0.0,0.0,0.0
0.38,50.0,22.303766702228494,50.0,11.878981267937519,50.0,24.38933047672244,50.0,86.24863572644571,50.0,50.0,50.0,50.0,50.0,0.0,-0.0,0.0,-0.0,0.0,-0.0,0.0,0.0,0.0,0.0,0.0,0.0,0.0
0.39,50.0,22.303766702228494,50.0,11.878981267937519,50.0,24.38933047672244,50.0,86.24863572644571,50.0,50.0,50.0,50.0,50.0,0.0,-0.0,0.0,-0.0,0.0,-0.0,0.0,0.0,0.0,0.0,0.0,0.0,0.0
0.4,50.0,22.303766702228494,50.0,11.878981267937519,50.0,24.38933047672244,50.0,86.24863572644571,50.0,50.0,50.0,50.0,50.0,0.0,-0.0,0.0,-0.0,0.0,-0.0,0.0,0.0,0.0,0.0,0.0,0.0,0.0
0.41,50.0,22.303766702228494,50.0,11.878981267937519,50.0,24.38933047672244,50.0,86.24863572644571,50.0,50.0,50.0,50.0,50.0,0.0,-0.0,0.0,-0.0,0.0,-0.0,0.0,0.0,0.0,0.0,0.0,0.0,0.0
0.42,50.0,22.303766702228494,50.0,11.878981267937519,50.0,24.38933047672244,50.0,86.24863572644571,50.0,50.0,50.0,50.0,50.0,0.0,-0.0,0.0,-0.0,0.0,-0.0,0.0,0.0,0.0,0.0,0.0,0.0,0.0
0.43,50.0,22.303766702228494,50.0,11.878981267937519,50.0,24.38933047672244,50.0,86.24863572644571,50.0,50.0,50.0,50.0,50.0,0.0,-0.0,0.0,-0.0,0.0,-0.0,0.0,0.0,0.0,0.0,0.0,0.0,0.0
0.44,50.0,22.303766702228494,50.0,11.878981267937519,50.0,24.38933047672244,50.0,86.24863572644571,50.0,50.0,50.0,50.0,50.0,0.0,-0.0,0.0,-0.0,0.0,-0.0,0.0,0.0,0.0,0.0,0.0,0.0,0.0
0.45,50.0,22.303766702228494,50.0,11.878981267937519,50.0,24.38933047672244,50.0,86.24863572644571,50.0,50.0,50.0,50.0,50.0,0.0,-0.0,0.0,-0.0,0.0,-0.0,0.0,0.0,0.0,0.0,0.0,0.0,0.0
0.46,50.0,22.303766702228494,50.0,11.878981267937519,50.0,24.38933047672244,50.0,86.24863572644571,50.0,50.0,50.0,50.0,50.0,0.0,-0.0,0.0,-0.0,0.0,-0.0,0.0,0.0,0.0,0.0,0.0,0.0,0.0
0.47,50.0,22.303766702228494,50.0,11.878981267937519,50.0,24.38933047672244,50.0,86.24863572644571,50.0,50.0,50.0,50.0,50.0,0.0,-0.0,0.0,-0.0,0.0,-0.0,0.0,0.0,0.0,0.0,0.0,0.0,0.0
0.48,50.0,22.303766702228494,50.0,11.878981267937519,50.0,24.38933047672244,50.0,86.24863572644571,50.0,50.0,50.0,50.0,50.0,0.0,-0.0,0.0,-0.0,0.0,-0.0,0.0,0.0,0.0,0.0,0.0,0.0,0.0
0.49,50.0,22.303766702228494,50.0,11.878981267937519,50.0,24.38933047672244,50.0,86.24863572644571,50.0,50.0,50.0,50.0,50.0,0.0,-0.0,0.0,-0.0,0.0,-0.0,0.0,0.0,0.0,0.0,0.0,0.0,0.0
0.5,50.0,22.303766702228494,50.0,11.878981267937519,50.0,24.38933047672244,50.0,86.24863572644571,50.0,50.0,50.0,50.0,50.0,0.0,-0.0,0.0,-0.0,0.0,-0.0,0.0,0.0,0.0,0.0,0.0,0.0,0.0
0.51,50.0,22.303766702228494,50.0,11.878981267937519,50.0,24.38933047672244,50.0,86.24863572644571,50.0,50.0,50.0,50.0,50.0,0.0,-0.0,0.0,-0.0,0.0,-0.0,0.0,0.0,0.0,0.0,0.0,0.0,0.0
0.52,50.0,22.303766702228494,50.0,11.878981267937519,50.0,24.38933047672244,50.0,86.24863572644571,50.0,50.0,50.0,50.0,50.0,0.0,-0.0,0.0,-0.0,0.0,-0.0,0.0,0.0,0.0,0.0,0.0,0.0,0.0
0.53,50.0,22.303766702228494,50.0,11.878981267937519,50.0,24.38933047672244,50.0,86.24863572644571,50.0,50.0,50.0,50.0,50.0,0.0,-0.0,0.0,-0.0,0.0,-0.0,0.0,0.0,0.0,0.0,0.0,0.0,0.0
0.54,50.0,22.303766702228494,50.0,11.878981267937519,50.0,24.38933047672244,50.0,86.24863572644571,50.0,50.0,50.0,50.0,50.0,0.0,-0.0,0.0,-0.0,0.0,-0.0,0.0,0.0,0.0,0.0,0.0,0.0,0.0
0.55,50.0,22.303766702228494,50.0,11.878981267937519,50.0,24.38933047672244,50.0,86.24863572644571,50.0,50.0,50.0,50.0,50.0,0.0,-0.0,0.0,-0.0,0.0,-0.0,0.0,0.0,0.0,0.0,0.0,0.0,0.0
0.56,50.0,22.303766702228494,50.0,11.878981267937519,50.0,24.38933047672244,50.0,86.24863572644571,50.0,50.0,50.0,50.0,50.0,0.0,-0.0,0.0,-0.0,0.0,-0.0,0.0,0.0,0.0,0.0,0.0,0.0,0.0
0.57,50.0,22.303766702228494,50.0,11.878981267937519,50.0,24.38933047672244,50.0,86.24863572644571,50.0,50.0,50.0,50.0,50.0,0.0,-0.0,0.0,-0.0,0.0,-0.0,0.0,0.0,0.0,0.0,0.0,0.0,0.0
0.58,50.0,22.303766702228494,50.0,11.878981267937519,50.0,24.38933047672244,50.0,86.24863572644571,50.0,50.0,50.0,50.0,50.0,0.0,-0.0,0.0,-0.0,0.0,-0.0,0.0,0.0,0.0,0.0,0.0,0.0,0.0
0.59,50.0,22.303766702228494,50.0,11.878981267937519,50.0,24.38933047672244,50.0,86.24863572644571,50.0,50.0,50.0,50.0,50.0,0.0,-0.0,0.0,-0.0,0.0,-0.0,0.0,0.0,0.0,0.0,0.0,0.0,0.0
0.6,50.0,22.303766702228494,50.0,11.878981267937519,50.0,24.38933047672244,50.0,86.24863572644571,50.0,50.0,50.0,50.0,50.0,0.0,-0.0,0.0,-0.0,0.0,-0.0,0.0,0.0,0.0,0.0,0.0,0.0,0.0
0.61,50.0,22.303766702228494,50.0,11.878981267937519,50.0,24.38933047672244,50.0,86.24863572644571,50.0,50.0,50.0,50.0,50.0,0.0,-0.0,0.0,-0.0,0.0,-0.0,0.0,0.0,0.0,0.0,0.0,0.0,0.0
0.62,50.0,22.303766702228494,50.0,11.878981267937519,50.0,24.38933047672244,50.0,86.24863572644571,50.0,50.0,50.0,50.0,50.0,0.0,-0.0,0.0,-0.0,0.0,-0.0,0.0,0.0,0.0,0.0,0.0,0.0,0.0
0.63,50.0,22.303766702228494,50.0,11.878981267937519,50.0,24.38933047672244,50.0,86.24863572644571,50.0,50.0,50.0,50.0,50.0,0.0,-0.0,0.0,-0.0,0.0,-0.0,0.0,0.0,0.0,0.0,0.0,0.0,0.0
0.64,50.0,22.303766702228494,50.0,11.878981267937519,50.0,24.38933047672244,50.0,86.24863572644571,50.0,50.0,50.0,50.0,50.0,0.0,-0.0,0.0,-0.0,0.0,-0.0,0.0,0.0,0.0,0.0,0.0,0.0,0.0
0.65,50.0,22.303766702228494,50.0,11.878981267937519,50.0,24.38933047672244,50.0,86.24863572644571,50.0,50.0,50.0,50.0,50.0,0.0,-0.0,0.0,-0.0,0.0,-0.0,0.0,0.0,0.0,0.0,0.0,0.0,0.0
0.66,50.0,22.303766702228494,50.0,11.878981267937519,50.0,24.38933047672244,50.0,86.24863572644571,50.0,50.0,50.0,50.0,50.0,0.0,-0.0,0.0,-0.0,0.0,-0.0,0.0,0.0,0.0,0.0,0.0,0.0,0.0
0.67,50.0,22.303766702228494,50.0,11.878981267937519,50.0,24.38933047672244,50.0,86.24863572644571,50.0,50.0,50.0,50.0,50.0,0.0,-0.0,0.0,-0.0,0.0,-0.0,0.0,0.0,0.0,0.0,0.0,0.0,0.0
0.68,50.0,22.303766702228494,50.0,11.878981267937519,50.0,24.38933047672244,50.0,86.24863572644571,50.0,50.0,50.0,50.0,50.0,0.0,-0.0,0.0,-0.0,0.0,-0.0,0.0,0.0,0.0,0.0,0.0,0.0,0.0
0.69,50.0,22.303766702228494,50.0,11.878981267937519,50.0,24.38933047672244,50.0,86.24863572644571,50.0,50.0,50.0,50.0,50.0,0.0,-0.0,0.0,-0.0,0.0,-0.0,0.0,0.0,0.0,0.0,0.0,0.0,0.0
0.7,50.0,22.303766702228494,50.0,11.878981267937519,50.0,24.38933047672244,50.0,86.24863572644571,50.0,50.0,50.0,50.0,50.0,0.0,-0.0,0.0,-0.0,0.0,-0.0,0.0,0.0,0.0,0.0,0.0,0.0,0.0
0.71,50.0,22.303766702228494,50.0,11.878981267937519,50.0,24.38933047672244,50.0,86.24863572644571,50.0,50.0,50.0,50.0,50.0,0.0,-0.0,0.0,-0.0,0.0,-0.0,0.0,0.0,0.0,0.0,0.0,0.0,0.0
0.72,50.0,22.303766702228494,50.0,11.878981267937519,50.0,24.38933047672244,50.0,86.24863572644571,50.0,50.0,50.0,50.0,50.0,0.0,-0.0,0.0,-0.0,0.0,-0.0,0.0,0.0,0.0,0.0,0.0,0.0,0.0
0.73,50.0,22.303766702228494,50.0,11.878981267937519,50.0,24.38933047672244,50.0,86.24863572644571,50.0,50.0,50.0,50.0,50.0,0.0,-0.0,0.0,-0.0,0.0,-0.0,0.0,0.0,0.0,0.0,0.0,0.0,0.0
0.74,50.0,22.303766702228494,50.0,11.878981267937519,50.0,24.38933047672244,50.0,86.24863572644571,50.0,50.0,50.0,50.0,50.0,0.0,-0.0,0.0,-0.0,0.0,-0.0,0.0,0.0,0.0,0.0,0.0,0.0,0.0
0.75,50.0,22.303766702228494,50.0,11.878981267937519,50.0,24.38933047672244,50.0,86.24863572644571,50.0,50.0,50.0,50.0,50.0,0.0,-0.0,0.0,-0.0,0.0,-0.0,0.0,0.0,0.0,0.0,0.0,0.0,0.0
0.76,50.0,22.303766702228494,50.0,11.878981267937519,50.0,24.38933047672244,50.0,86.24863572644571,50.0,50.0,50.0,50.0,50.0,0.0,-0.0,0.0,-0.0,0.0,-0.0,0.0,0.0,0.0,0.0,0.0,0.0,0.0
0.77,50.0,22.303766702228494,50.0,11.878981267937519,50.0,24.38933047672244,50.0,86.24863572644571,50.0,50.0,50.0,50.0,50.0,0.0,-0.0,0.0,-0.0,0.0,-0.0,0.0,0.0,0.0,0.0,0.0,0.0,0.0
0.78,50.0,22.303766702228494,50.0,11.878981267937519,50.0,24.38933047672244,50.0,86.24863572644571,50.0,50.0,50.0,50.0,50.0,0.0,-0.0,0.0,-0.0,0.0,-0.0,0.0,0.0,0.0,0.0,0.0,0.0,0.0
0.79,50.0,22.303766702228494,50.0,11.878981267937519,50.0,24.38933047672244,50.0,86.24863572644571,50.0,50.0,50.0,50.0,50.0,0.0,-0.0,0.0,-0.0,0.0,-0.0,0.0,0.0,0.0,0.0,0.0,0.0,0.0
0.8,50.0,22.303766702228494,50.0,11.878981267937519,50.0,24.38933047672244,50.0,86.24863572644571,50.0,50.0,50.0,50.0,50.0,0.0,-0.0,0.0,-0.0,0.0,-0.0,0.0,0.0,0.0,0.0,0.0,0.0,0.0
0.81,50.0,22.303766702228494,50.0,11.878981267937519,50.0,24.38933047672244,50.0,86.24863572644571,50.0,50.0,50.0,50.0,50.0,0.0,-0.0,0.0,-0.0,0.0,-0.0,0.0,0.0,0.0,0.0,0.0,0.0,0.0
0.82,50.0,22.303766702228494,50.0,11.878981267937519,50.0,24.38933047672244,50.0,86.24863572644571,50.0,50.0,50.0,50.0,50.0,0.0,-0.0,0.0,-0.0,0.0,-0.0,0.0,0.0,0.0,0.0,0.0,0.0,0.0
0.83,50.0,22.303766702228494,50.0,11.878981267937519,50.0,24.38933047672244,50.0,86.24863572644571,50.0,50.0,50.0,50.0,50.0,0.0,-0.0,0.0,-0.0,0.0,-0.0,0.0,0.0,0.0,0.0,0.0,0.0,0.0
0.84,50.0,22.303766702228494,50.0,11.878981267937519,50.0,24.38933047672244,50.0,86.24863572644571,50.0,50.0,50.0,50.0,50.0,0.0,-0.0,0.0,-0.0,0.0,-0.0,0.0,0.0,0.0,0.0,0.0,0.0,0.0
0.85,50.0,22.303766702228494,50.0,11.878981267937519,50.0,24.38933047672244,50.0,86.24863572644571,50.0,50.0,50.0,50.0,50.0,0.0,-0.0,0.0,-0.0,0.0,-0.0,0.0,0.0,0.0,0.0,0.0,0.0,0.0
0.86,50.0,22.303766702228494,50.0,11.878981267937519,50.0,24.38933047672244,50.0,86.24863572644571,50.0,50.0,50.0,50.0,50.0,0.0,-0.0,0.0,-0.0,0.0,-0.0,0.0,0.0,0.0,0.0,0.0,0.0,0.0
0.87,50.0,22.303766702228494,50.0,11.878981267937519,50.0,24.38933047672244,50.0,86.24863572644571,50.0,50.0,50.0,50.0,50.0,0.0,-0.0,0.0,-0.0,0.0,-0.0,0.0,0.0,0.0,0.0,0.0,0.0,0.0
0.88,50.0,22.303766702228494,50.0,11.878981267937519,50.0,24.38933047672244,50.0,86.24863572644571,50.0,50.0,50.0,50.0,50.0,0.0,-0.0,0.0,-0.0,0.0,-0.0,0.0,0.0,0.0,0.0,0.0,0.0,0.0
0.89,50.0,22.303766702228494,50.0,11.878981267937519,50.0,24.38933047672244,50.0,86.24863572644571,50.0,50.0,50.0,50.0,50.0,0.0,-0.0,0.0,-0.0,0.0,-0.0,0.0,0.0,0.0,0.0,0.0,0.0,0.0
0.9,50.0,22.303766702228494,50.0,11.878981267937519,50.0,24.38933047672244,50.0,86.24863572644571,50.0,50.0,50.0,50.0,50.0,0.0,-0.0,0.0,-0.0,0.0,-0.0,0.0,0.0,0.0,0.0,0.0,0.0,0.0
0.91,50.0,22.303766702228494,50.0,11.878981267937519,50.0,24.38933047672244,50.0,86.24863572644571,50.0,50.0,50.0,50.0,50.0,0.0,-0.0,0.0,-0.0,0.0,-0.0,0.0,0.0,0.0,0.0,0.0,0.0,0.0
0.92,50.0,22.303766702228494,50.0,11.878981267937519,50.0,24.38933047672244,50.0,86.24863572644571,50.0,50.0,50.0,50.0,50.0,0.0,-0.0,0.0,-0.0,0.0,-0.0,0.0,0.0,0.0,0.0,0.0,0.0,0.0
0.93,50.0,22.303766702228494,50.0,11.878981267937519,50.0,24.38933047672244,50.0,86.24863572644571,50.0,50.0,50.0,50.0,50.0,0.0,-0.0,0.0,-0.0,0.0,-0.0,0.0,0.0,0.0,0.0,0.0,0.0,0.0
0.94,50.0,22.303766702228494,50.0,11.878981267937519,50.0,24.38933047672244,50.0,86.24863572644571,50.0,50.0,50.0,50.0,50.0,0.0,-0.0,0.0,-0.0,0.0,-0.0,0.0,0.0,0.0,0.0,0.0,0.0,0.0
0.95,50.0,22.303766702228494,50.0,11.878981267937519,50.0,24.38933047672244,50.0,86.24863572644571,50.0,50.0,50.0,50.0,50.0,0.0,-0.0,0.0,-0.0,0.0,-0.0,0.0,0.0,0.0,0.0,0.0,0.0,0.0
0.96,50.0,22.303766702228494,50.0,11.878981267937519,50.0,16.970888675003014,50.0,86.24863572644571,50.0,50.0,50.0,50.0,50.0,0.0,-0.0,0.0,-0.0,0.0,-0.0,0.0,0.0,0.0,0.0,0.0,0.0,0.0
0.97,50.0,22.303766702228494,50.0,11.878981267937519,50.0,16.970888675003014,50.0,86.24863572644571,50.0,50.0,50.0,50.0,50.0,0.0,-0.0,0.0,-0.0,0.0,-0.0,0.0,0.0,0.0,0.0,0.0,0.0,0.0
0.98,50.0,22.303766702228494,50.0,11.878981267937519,50.0,16.970888675003014,50.0,86.24863572644571,50.0,50.0,50.0,50.0,50.0,0.0,-0.0,0.0,-0.0,0.0,-0.0,0.0,0.0,0.0,0.0,0.0,0.0,0.0
0.99,50.0,22.303766702228494,50.0,11.878981267937519,50.0,16.970888675003014,50.0,86.24863572644571,50.0,50.0,50.0,50.0,50.0,0.0,-0.0,0.0,-0.0,0.0,-0.0,0.0,0.0,0.0,0.0,0.0,0.0,0.0
1.0,50.0,22.303766702228494,50.0,11.878981267937519,50.0,16.970888675003014,50.0,86.24863572644571,50.0,50.0,50.0,50.0,50.0,0.0,-0.0,0.0,-0.0,0.0,-0.0,0.0,0.0,0.0,0.0,0.0,0.0,0.0
1.01,50.0,22.303766702228494,50.0,11.878981267937519,50.0,16.970888675003014,50.0,86.24863572644571,50.0,50.0,50.0,50.0,50.0,0.0,-0.0,0.0,-0.0,0.0,-0.0,0.0,0.0,0.0,0.0,0.0,0.0,0.0
1.02,50.0,22.303766702228494,50.0,11.878981267937519,50.0,16.970888675003014,50.0,86.24863572644571,50.0,50.0,50.0,50.0,50.0,0.0,-0.0,0.0,-0.0,0.0,-0.0,0.0,0.0,0.0,0.0,0.0,0.0,0.0
1.03,50.0,22.303766702228494,50.0,11.878981267937519,50.0,16.970888675003014,50.0,86.24863572644571,50.0,50.0,50.0,50.0,50.0,0.0,-0.0,0.0,-0.0,0.0,-0.0,0.0,0.0,0.0,0.0,0.0,0.0,0.0
1.04,50.0,22.303766702228494,50.0,11.878981267937519,50.0,16.970888675003014,50.0,86.24863572644571,50.0,50.0,50.0,50.0,50.0,0.0,-0.0,0.0,-0.0,0.0,-0.0,0.0,0.0,0.0,0.0,0.0,0.0,0.0
1.05,50.0,22.303766702228494,50.0,11.878981267937519,50.0,16.970888675003014,50.0,86.24863572644571,50.0,50.0,50.0,50.0,50.0,0.0,-0.0,0.0,-0.0,0.0,-0.0,0.0,0.0,0.0,0.0,0.0,0.0,0.0
1.06,50.0,22.303766702228494,50.0,11.878981267937519,50.0,16.970888675003014,50.0,86.24863572644571,50.0,50.0,50.0,50.0,50.0,0.0,-0.0,0.0,-0.0,0.0,-0.0,0.0,0.0,0.0,0.0,0.0,0.0,0.0
1.07,50.0,22.303766702228494,50.0,11.878981267937519,50.0,16.970888675003014,50.0,86.24863572644571,50.0,50.0,50.0,50.0,50.0,0.0,-0.0,0.0,-0.0,0.0,-0.0,0.0,0.0,0.0,0.0,0.0,0.0,0.0
1.08,50.0,22.303766702228494,50.0,11.878981267937519,50.0,16.970888675003014,50.0,86.24863572644571,50.0,50.0,50.0,50.0,50.0,0.0,-0.0,0.0,-0.0,0.0,-0.0,0.0,0.0,0.0,0.0,0.0,0.0,0.0
1.09,50.0,22.303766702228494,50.0,11.878981267937519,50.0,16.970888675003014,50.0,86.24863572644571,50.0,50.0,50.0,50.0,50.0,0.0,-0.0,0.0,-0.0,0.0,-0.0,0.0,0.0,0.0,0.0,0.0,0.0,0.0
1.1,50.0,22.303766702228494,50.0,11.878981267937519,50.0,16.970888675003014,50.0,86.24863572644571,50.0,50.0,50.0,50.0,50.0,0.0,-0.0,0.0,-0.0,0.0,-0.0,0.0,0.0,0.0,0.0,0.0,0.0,0.0
1.11,50.0,22.303766702228494,50.0,11.878981267937519,50.0,16.970888675003014,50.0,86.24863572644571,50.0,50.0,50.0,50.0,50.0,0.0,-0.0,0.0,-0.0,0.0,-0.0,0.0,0.0,0.0,0.0,0.0,0.0,0.0
1.12,50.0,22.303766702228494,50.0,11.878981267937519,50.0,16.970888675003014,50.0,86.24863572644571,50.0,50.0,50.0,50.0,50.0,0.0,-0.0,0.0,-0.0,0.0,-0.0,0.0,0.0,0.0,0.0,0.0,0.0,0.0
1.13,50.0,22.303766702228494,50.0,11.878981267937519,50.0,16.970888675003014,50.0,86.24863572644571,50.0,50.0,50.0,50.0,50.0,0.0,-0.0,0.0,-0.0,0.0,-0.0,0.0,0.0,0.0,0.0,0.0,0.0,0.0
1.14,50.0,15.940060220046366,50.0,11.878981267937519,50.0,16.970888675003014,50.0,86.24863572644571,50.0,50.0,50.0,50.0,50.0,0.0,-0.0,0.0,-0.0,0.0,-0.0,0.0,0.0,0.0,0.0,0.0,0.0,0.0
1.15,50.0,15.940060220046366,50.0,11.878981267937519,50.0,16.970888675003014,50.0,86.24863572644571,50.0,50.0,50.0,50.0,50.0,0.0,-0.0,0.0,-0.0,0.0,-0.0,0.0,0.0,0.0,0.0,0.0,0.0,0.0
1.16,50.0,15.940060220046366,50.0,11.878981267937519,50.0,16.970888675003014,50.0,86.24863572644571,50.0,50.0,50.0,50.0,50.0,0.0,-0.0,0.0,-0.0,0.0,-0.0,0.0,0.0,0.0,0.0,0.0,0.0,0.0
1.17,50.0,15.940060220046366,50.0,11.878981267937519,50.0,16.970888675003014,50.0,86.24863572644571,50.0,50.0,50.0,50.0,50.0,0.0,-0.0,0.0,-0.0,0.0,-0.0,0.0,0.0,0.0,0.0,0.0,0.0,0.0
1.18,50.0,15.940060220046366,50.0,11.878981267937519,50.0,16.970888675003014,50.0,86.24863572644571,50.0,50.0,50.0,50.0,50.0,0.0,-0.0,0.0,-0.0,0.0,-0.0,0.0,0.0,0.0,0.0,0.0,0.0,0.0
1.19,50.0,15.940060220046366,50.0,11.878981267937519,50.0,16.970888675003014,50.0,86.24863572644571,50.0,50.0,50.0,50.0,50.0,0.0,-0.0,0.0,-0.0,0.0,-0.0,0.0,0.0,0.0,0.0,0.0,0.0,0.0
1.2,50.0,15.940060220046366,50.0,11.878981267937519,50.0,16.970888675003014,50.0,86.24863572644571,50.0,50.0,50.0,50.0,50.0,0.0,-0.0,0.0,-0.0,0.0,-0.0,0.0,0.0,0.0,0.0,0.0,0.0,0.0
1.21,50.0,15.940060220046366,50.0,11.878981267937519,50.0,16.970888675003014,50.0,86.24863572644571,50.0,50.0,50.0,50.0,50.0,0.0,-0.0,0.0,-0.0,0.0,-0.0,0.0,0.0,0.0,0.0,0.0,0.0,0.0
1.22,50.0,15.940060220046366,50.0,11.878981267937519,50.0,16.970888675003014,50.0,86.24863572644571,50.0,50.0,50.0,50.0,50.0,0.0,-0.0,0.0,-0.0,0.0,-0.0,0.0,0.0,0.0,0.0,0.0,0.0,0.0
1.23,50.0,15.940060220046366,50.0,11.878981267937519,50.0,16.970888675003014,50.0,86.24863572644571,50.0,50.0,50.0,50.0,50.0,0.0,-0.0,0.0,-0.0,0.0,-0.0,0.0,0.0,0.0,0.0,0.0,0.0,0.0
1.24,50.0,15.940060220046366,50.0,11.878981267937519,50.0,16.970888675003014,50.0,86.24863572644571,50.0,50.0,50.0,50.0,50.0,0.0,-0.0,0.0,-0.0,0.0,-0.0,0.0,0.0,0.0,0.0,0.0,0.0,0.0
1.25,50.0,15.940060220046366,50.0,11.878981267937519,50.0,16.970888675003014,50.0,86.24863572644571,50.0,50.0,50.0,50.0,50.0,0.0,-0.0,0.0,-0.0,0.0,-0.0,0.0,0.0,0.0,0.0,0.0,0.0,0.0
1.26,50.0,15.940060220046366,50.0,11.878981267937519,50.0,16.970888675003014,50.0,86.24863572644571,50.0,50.0,50.0,50.0,50.0,0.0,-0.0,0.0,-0.0,0.0,-0.0,0.0,0.0,0.0,0.0,0.0,0.0,0.0
1.27,50.0,15.940060220046366,50.0,11.878981267937519,50.0,16.970888675003014,50.0,86.24863572644571,50.0,50.0,50.0,50.0,50.0,0.0,-0.0,0.0,-0.0,0.0,-0.0,0.0,0.0,0.0,0.0,0.0,0.0,0.0
1.28,50.0,15.940060220046366,50.0,11.878981267937519,50.0,16.970888675003014,50.0,86.24863572644571,50.0,50.0,50.0,50.0,50.0,0.0,-0.0,0.0,-0.0,0.0,-0.0,0.0,0.0,0.0,0.0,0.0,0.0,0.0
1.29,50.0,15.940060220046366,50.0,11.878981267937519,50.0,16.970888675003014,50.0,86.24863572644571,50.0,50.0,50.0,50.0,50.0,0.0,-0.0,0.0,-0.0,0.0,-0.0,0.0,0.0,0.0,0.0,0.0,0.0,0.0
1.3,50.0,15.940060220046366,50.0,11.878981267937519,50.0,16.970888675003014,50.0,86.24863572644571,50.0,50.0,50.0,50.0,50.0,0.0,-0.0,0.0,-0.0,0.0,-0.0,0.0,0.0,0.0,0.0,0.0,0.0,0.0
1.31,50.0,15.940060220046366,50.0,11.878981267937519,50.0,16.970888675003014,50.0,86.24863572644571,50.0,50.0,50.0,50.0,50.0,0.0,-0.0,0.0,-0.0,0.0,-0.0,0.0,0.0,0.0,0.0,0.0,0.0,0.0
1.32,50.0,15.940060220046366,50.0,11.878981267937519,50.0,16.970888675003014,50.0,86.24863572644571,50.0,50.0,50.0,50.0,50.0,0.0,-0.0,0.0,-0.0,0.0,-0.0,0.0,0.0,0.0,0.0,0.0,0.0,0.0
1.33,50.0,15.940060220046366,50.0,11.878981267937519,50.0,16.970888675003014,50.0,86.24863572644571,50.0,50.0,50.0,50.0,50.0,0.0,-0.0,0.0,-0.0,0.0,-0.0,0.0,0.0,0.0,0.0,0.0,0.0,0.0
1.34,50.0,15.940060220046366,50.0,11.878981267937519,50.0,16.970888675003014,50.0,86.24863572644571,50.0,50.0,50.0,50.0,50.0,0.0,-0.0,0.0,-0.0,0.0,-0.0,0.0,0.0,0.0,0.0,0.0,0.0,0.0
1.35,50.0,15.940060220046366,50.0,11.878981267937519,50.0,16.970888675003014,50.0,86.24863572644571,50.0,50.0,50.0,50.0,50.0,0.0,-0.0,0.0,-0.0,0.0,-0.0,0.0,0.0,0.0,0.0,0.0,0.0,0.0
1.36,50.0,15.940060220046366,50.0,11.878981267937519,50.0,16.970888675003014,50.0,86.24863572644571,50.0,50.0,50.0,50.0,50.0,0.0,-0.0,0.0,-0.0,0.0,-0.0,0.0,0.0,0.0,0.0,0.0,0.0,0.0
1.37,50.0,15.940060220046366,50.0,11.878981267937519,50.0,16.970888675003014,50.0,86.24863572644571,50.0,50.0,50.0,50.0,50.0,0.0,-0.0,0.0,-0.0,0.0,-0.0,0.0,0.0,0.0,0.0,0.0,0.0,0.0
1.38,50.0,15.940060220046366,50.0,11.878981267937519,50.0,16.970888675003014,50.0,86.24863572644571,50.0,50.0,50.0,50.0,50.0,0.0,-0.0,0.0,-0.0,0.0,-0.0,0.0,0.0,0.0,0.0,0.0,0.0,0.0
1.39,50.0,15.940060220046366,50.0,11.878981267937519,50.0,16.970888675003014,50.0,86.24863572644571,50.0,50.0,50.0,50.0,50.0,0.0,-0.0,0.0,-0.0,0.0,-0.0,0.0,0.0,0.0,0.0,0.0,0.0,0.0
1.4,50.0,15.940060220046366,50.0,11.878981267937519,50.0,16.970888675003014,50.0,86.24863572644571,50.0,50.0,50.0,50.0,50.0,0.0,-0.0,0.0,-0.0,0.0,-0.0,0.0,0.0,0.0,0.0,0.0,0.0,0.0
1.41,50.0,15.940060220046366,50.0,11.878981267937519,50.0,16.970888675003014,50.0,86.24863572644571,50.0,50.0,50.0,50.0,50.0,0.0,-0.0,0.0,-0.0,0.0,-0.0,0.0,0.0,0.0,0.0,0.0,0.0,0.0
1.42,50.0,15.940060220046366,50.0,11.878981267937519,50.0,16.970888675003014,50.0,86.24863572644571,50.0,50.0,50.0,50.0,50.0,0.0,-0.0,0.0,-0.0,0.0,-0.0,0.0,0.0,0.0,0.0,0.0,0.0,0.0
1.43,50.0,15.940060220046366,50.0,11.878981267937519,50.0,16.970888675003014,50.0,86.24863572644571,50.0,50.0,50.0,50.0,50.0,0.0,-0.0,0.0,-0.0,0.0,-0.0,0.0,0.0,0.0,0.0,0.0,0.0,0.0
1.44,50.0,15.940060220046366,50.0,11.878981267937519,50.0,16.970888675003014,50.0,86.24863572644571,50.0,50.0,50.0,50.0,50.0,0.0,-0.0,0.0,-0.0,0.0,-0.0,0.0,0.0,0.0,0.0,0.0,0.0,0.0
1.45,50.0,15.940060220046366,50.0,11.878981267937519,50.0,16.970888675003014,50.0,86.24863572644571,50.0,50.0,50.0,50.0,50.0,0.0,-0.0,0.0,-0.0,0.0,-0.0,0.0,0.0,0.0,0.0,0.0,0.0,0.0
1.46,50.0,15.940060220046366,50.0,46.48802054306494,50.0,16.970888675003014,50.0,86.24863572644571,50.0,50.0,50.0,50.0,50.0,0.0,-0.0,0.0,0.0,0.0,-0.0,0.0,0.0,0.0,0.0,0.0,0.0,0.0
1.47,50.0,15.940060220046366,50.0,46.48802054306494,50.0,16.970888675003014,50.0,86.24863572644571,50.0,50.0,50.0,50.0,50.0,0.0,-0.0,0.0,0.0,0.0,-0.0,0.0,0.0,0.0,0.0,0.0,0.0,0.0
1.48,50.0,15.940060220046366,50.0,46.48802054306494,50.0,16.970888675003014,50.0,86.24863572644571,50.0,50.0,50.0,50.0,50.0,0.0,-0.0,0.0,0.0,0.0,-0.0,0.0,0.0,0.0,0.0,0.0,0.0,0.0
1.49,50.0,15.940060220046366,50.0,46.48802054306494,50.0,16.970888675003014,50.0,61.222785197176535,50.0,50.0,50.0,50.0,50.0,0.0,-0.0,0.0,0.0,0.0,-0.0,0.0,-0.0,0.0,0.0,0.0,0.0,0.0
1.5,50.0,15.940060220046366,50.0,46.48802054306494,50.0,16.970888675003014,50.0,61.222785197176535,50.0,50.0,50.0,50.0,50.0,0.0,-0.0,0.0,0.0,0.0,-0.0,0.0,-0.0,0.0,0.0,0.0,0.0,0.0
1.51,50.0,15.940060220046366,50.0,46.48802054306494,50.0,16.970888675003014,50.0,61.222785197176535,50.0,50.0,50.0,50.0,50.0,0.0,-0.0,0.0,0.0,0.0,-0.0,0.0,-0.0,0.0,0.0,0.0,0.0,0.0
1.52,50.0,15.940060220046366,50.0,46.48802054306494,50.0,16.970888675003014,50.0,61.222785197176535,50.0,50.0,50.0,50.0,50.0,0.0,-0.0,0.0,0.0,0.0,-0.0,0.0,-0.0,0.0,0.0,0.0,0.0,0.0
1.53,50.0,15.940060220046366,50.0,46.48802054306494,50.0,16.970888675003014,50.0,61.222785197176535,50.0,50.0,50.0,50.0,50.0,0.0,-0.0,0.0,0.0,0.0,-0.0,0.0,-0.0,0.0,0.0,0.0,0.0,0.0
1.54,50.0,15.940060220046366,50.0,46.48802054306494,50.0,16.970888675003014,50.0,61.222785197176535,50.0,50.0,50.0,50.0,50.0,0.0,-0.0,0.0,0.0,0.0,-0.0,0.0,-0.0,0.0,0.0,0.0,0.0,0.0
1.55,50.0,15.940060220046366,50.0,46.48802054306494,50.0,16.970888675003014,50.0,61.222785197176535,50.0,50.0,50.0,50.0,50.0,0.0,-0.0,0.0,0.0,0.0,-0.0,0.0,-0.0,0.0,0.0,0.0,0.0,0.0
1.56,50.0,15.940060220046366,50.0,46.48802054306494,50.0,16.970888675003014,50.0,61.222785197176535,50.0,50.0,50.0,50.0,50.0,0.0,-0.0,0.0,0.0,0.0,-0.0,0.0,-0.0,0.0,0.0,0.0,0.0,0.0
1.57,50.0,15.940060220046366,50.0,46.48802054306494,50.0,16.970888675003014,50.0,61.222785197176535,50.0,50.0,50.0,50.0,50.0,0.0,-0.0,0.0,0.0,0.0,-0.0,0.0,-0.0,0.0,0.0,0.0,0.0,0.0
1.58,50.0,15.940060220046366,50.0,46.48802054306494,50.0,16.970888675003014,50.0,61.222785197176535,50.0,50.0,50.0,50.0,50.0,0.0,-0.0,0.0,0.0,0.0,-0.0,0.0,-0.0,0.0,0.0,0.0,0.0,0.0
1.59,50.0,15.940060220046366,50.0,46.48802054306494,50.0,16.970888675003014,50.0,61.222785197176535,50.0,50.0,50.0,50.0,50.0,0.0,-0.0,0.0,0.0,0.0,-0.0,0.0,-0.0,0.0,0.0,0.0,0.0,0.0
1.6,50.0,15.940060220046366,50.0,46.48802054306494,50.0,16.970888675003014,50.0,61.222785197176535,50.0,50.0,50.0,50.0,50.0,0.0,-0.0,0.0,0.0,0.0,-0.0,0.0,-0.0,0.0,0.0,0.0,0.0,0.0
1.61,50.0,15.940060220046366,50.0,46.48802054306494,50.0,16.970888675003014,50.0,61.222785197176535,50.0,50.0,50.0,50.0,50.0,0.0,-0.0,0.0,0.0,0.0,-0.0,0.0,-0.0,0.0,0.0,0.0,0.0,0.0
1.62,50.0,15.940060220046366,50.0,46.48802054306494,50.0,16.970888675003014,50.0,61.222785197176535,50.0,50.0,50.0,50.0,50.0,0.0,-0.0,0.0,0.0,0.0,-0.0,0.0,-0.0,0.0,0.0,0.0,0.0,0.0
1.63,50.0,15.940060220046366,50.0,46.48802054306494,50.0,16.970888675003014,50.0,61.222785197176535,50.0,50.0,50.0,50.0,50.0,0.0,-0.0,0.0,0.0,0.0,-0.0,0.0,-0.0,0.0,0.0,0.0,0.0,0.0
1.64,50.0,15.940060220046366,50.0,46.48802054306494,50.0,16.970888675003014,50.0,61.222785197176535,50.0,50.0,50.0,50.0,50.0,0.0,-0.0,0.0,0.0,0.0,-0.0,0.0,-0.0,0.0,0.0,0.0,0.0,0.0
1.65,50.0,15.940060220046366,50.0,46.48802054306494,50.0,16.970888675003014,50.0,61.222785197176535,50.0,50.0,50.0,50.0,50.0,0.0,-0.0,0.0,0.0,0.0,-0.0,0.0,-0.0,0.0,0.0,0.0,0.0,0.0
1.66,50.0,15.940060220046366,50.0,46.48802054306494,50.0,16.970888675003014,50.0,61.222785197176535,50.0,50.0,50.0,50.0,50.0,0.0,-0.0,0.0,0.0,0.0,-0.0,0.0,-0.0,0.0,0.0,0.0,0.0,0.0
1.67,50.0,15.940060220046366,50.0,46.48802054306494,50.0,16.970888675003014,50.0,61.222785197176535,50.0,50.0,50.0,50.0,50.0,0.0,-0.0,0.0,0.0,0.0,-0.0,0.0,-0.0,0.0,0.0,0.0,0.0,0.0
1.68,50.0,15.940060220046366,50.0,46.48802054306494,50.0,16.970888675003014,50.0,61.222785197176535,50.0,50.0,50.0,50.0,50.0,0.0,-0.0,0.0,0.0,0.0,-0.0,0.0,-0.0,0.0,0.0,0.0,0.0,0.0
1.69,50.0,15.940060220046366,50.0,46.48802054306494,50.0,16.970888675003014,50.0,61.222785197176535,50.0,50.0,50.0,50.0,50.0,0.0,-0.0,0.0,0.0,0.0,-0.0,0.0,-0.0,0.0,0.0,0.0,0.0,0.0
1.7,50.0,15.940060220046366,50.0,46.48802054306494,50.0,16.970888675003014,50.0,61.222785197176535,50.0,50.0,50.0,50.0,50.0,0.0,-0.0,0.0,0.0,0.0,-0.0,0.0,-0.0,0.0,0.0,0.0,0.0,0.0
1.71,50.0,15.940060220046366,50.0,46.48802054306494,50.0,16.970888675003014,50.0,61.222785197176535,50.0,50.0,50.0,50.0,50.0,0.0,-0.0,0.0,0.0,0.0,-0.0,0.0,-0.0,0.0,0.0,0.0,0.0,0.0
1.72,50.0,15.940060220046366,50.0,46.48802054306494,50.0,16.970888675003014,50.0,61.222785197176535,50.0,50.0,50.0,50.0,50.0,0.0,-0.0,0.0,0.0,0.0,-0.0,0.0,-0.0,0.0,0.0,0.0,0.0,0.0
1.73,50.0,15.940060220046366,50.0,46.48802054306494,50.0,16.970888675003014,50.0,61.222785197176535,50.0,50.0,50.0,50.0,50.0,0.0,-0.0,0.0,0.0,0.0,-0.0,0.0,-0.0,0.0,0.0,0.0,0.0,0.0
1.74,50.0,15.940060220046366,50.0,46.48802054306494,50.0,16.970888675003014,50.0,61.222785197176535,50.0,50.0,50.0,50.0,50.0,0.0,-0.0,0.0,0.0,0.0,-0.0,0.0,-0.0,0.0,0.0,0.0,0.0,0.0
1.75,50.0,15.940060220046366,50.0,46.48802054306494,50.0,16.970888675003014,50.0,61.222785197176535,50.0,50.0,50.0,50.0,50.0,0.0,-0.0,0.0,0.0,0.0,-0.0,0.0,-0.0,0.0,0.0,0.0,0.0,0.0
1.76,50.0,15.940060220046366,50.0,46.48802054306494,50.0,16.970888675003014,50.0,61.222785197176535,50.0,50.0,50.0,50.0,50.0,0.0,-0.0,0.0,0.0,0.0,-0.0,0.0,-0.0,0.0,0.0,0.0,0.0,0.0
1.77,50.0,15.940060220046366,50.0,46.48802054306494,50.0,25.411958755302745,50.0,61.222785197176535,50.0,50.0,50.0,50.0,50.0,0.0,-0.0,0.0,0.0,0.0,0.0,0.0,-0.0,0.0,0.0,0.0,0.0,0.0
1.78,50.0,15.940060220046366,50.0,46.48802054306494,50.0,25.411958755302745,50.0,61.222785197176535,50.0,50.0,50.0,50.0,50.0,0.0,-0.0,0.0,0.0,0.0,0.0,0.0,-0.0,0.0,0.0,0.0,0.0,0.0
1.79,50.0,15.940060220046366,50.0,46.48802054306494,50.0,25.411958755302745,50.0,61.222785197176535,50.0,50.0,50.0,50.0,50.0,0.0,-0.0,0.0,0.0,0.0,0.0,0.0,-0.0,0.0,0.0,0.0,0.0,0.0
1.8,50.0,15.940060220046366,50.0,46.48802054306494,50.0,25.411958755302745,50.0,61.222785197176535,50.0,50.0,50.0,50.0,50.0,0.0,-0.0,0.0,0.0,0.0,0.0,0.0,-0.0,0.0,0.0,0.0,0.0,0.0
1.81,50.0,15.940060220046366,50.0,46.48802054306494,50.0,25.411958755302745,50.0,61.222785197176535,50.0,50.0,50.0,50.0,50.0,0.0,-0.0,0.0,0.0,0.0,0.0,0.0,-0.0,0.0,0.0,0.0,0.0,0.0
1.82,50.0,15.940060220046366,50.0,46.48802054306494,50.0,25.411958755302745,50.0,61.222785197176535,50.0,50.0,50.0,50.0,50.0,0.0,-0.0,0.0,0.0,0.0,0.0,0.0,-0.0,0.0,0.0,0.0,0.0,0.0
1.83,50.0,15.940060220046366,50.0,46.48802054306494,50.0,25.411958755302745,50.0,61.222785197176535,50.0,50.0,50.0,50.0,50.0,0.0,-0.0,0.0,0.0,0.0,0.0,0.0,-0.0,0.0,0.0,0.0,0.0,0.0
1.84,50.0,15.940060220046366,50.0,46.48802054306494,50.0,25.411958755302745,50.0,61.222785197176535,50.0,50.0,50.0,50.0,50.0,0.0,-0.0,0.0,0.0,0.0,0.0,0.0,-0.0,0.0,0.0,0.0,0.0,0.0
1.85,50.0,15.940060220046366,50.0,46.48802054306494,50.0,25.411958755302745,50.0,61.222785197176535,50.0,50.0,50.0,50.0,50.0,0.0,-0.0,0.0,0.0,0.0,0.0,0.0,-0.0,0.0,0.0,0.0,0.0,0.0
1.86,50.0,15.940060220046366,50.0,46.48802054306494,50.0,25.411958755302745,50.0,61.222785197176535,50.0,50.0,50.0,50.0,50.0,0.0,-0.0,0.0,0.0,0.0,0.0,0.0,-0.0,0.0,0.0,0.0,0.0,0.0
1.87,50.0,15.940060220046366,50.0,46.48802054306494,50.0,25.411958755302745,50.0,61.222785197176535,50.0,50.0,50.0,50.0,50.0,0.0,-0.0,0.0,0.0,0.0,0.0,0.0,-0.0,0.0,0.0,0.0,0.0,0.0
1.88,50.0,15.940060220046366,50.0,46.48802054306494,50.0,25.411958755302745,50.0,61.222785197176535,50.0,50.0,50.0,50.0,50.0,0.0,-0.0,0.0,0.0,0.0,0.0,0.0,-0.0,0.0,0.0,0.0,0.0,0.0
1.89,50.0,15.940060220046366,50.0,46.48802054306494,50.0,25.411958755302745,50.0,61.222785197176535,50.0,50.0,50.0,50.0,50.0,0.0,-0.0,0.0,0.0,0.0,0.0,0.0,-0.0,0.0,0.0,0.0,0.0,0.0
1.9,50.0,15.940060220046366,50.0,46.48802054306494,50.0,25.411958755302745,50.0,61.222785197176535,50.0,50.0,50.0,50.0,50.0,0.0,-0.0,0.0,0.0,0.0,0.0,0.0,-0.0,0.0,0.0,0.0,0.0,0.0
1.91,50.0,15.940060220046366,50.0,46.48802054306494,50.0,25.411958755302745,50.0,61.222785197176535,50.0,50.0,50.0,50.0,50.0,0.0,-0.0,0.0,0.0,0.0,0.0,0.0,-0.0,0.0,0.0,0.0,0.0,0.0
1.92,50.0,15.940060220046366,50.0,46.48802054306494,50.0,25.411958755302745,50.0,61.222785197176535,50.0,50.0,50.0,50.0,50.0,0.0,-0.0,0.0,0.0,0.0,0.0,0.0,-0.0,0.0,0.0,0.0,0.0,0.0
1.93,50.0,15.940060220046366,50.0,46.48802054306494,50.0,25.411958755302745,50.0,61.222785197176535,50.0,50.0,50.0,50.0,50.0,0.0,-0.0,0.0,0.0,0.0,0.0,0.0,-0.0,0.0,0.0,0.0,0.0,0.0
1.94,50.0,15.940060220046366,50.0,46.48802054306494,50.0,25.411958755302745,50.0,61.222785197176535,50.0,50.0,50.0,50.0,50.0,0.0,-0.0,0.0,0.0,0.0,0.0,0.0,-0.0,0.0,0.0,0.0,0.0,0.0
1.95,50.0,15.940060220046366,50.0,46.48802054306494,50.0,25.411958755302745,50.0,61.222785197176535,50.0,50.0,50.0,50.0,50.0,0.0,-0.0,0.0,0.0,0.0,0.0,0.0,-0.0,0.0,0.0,0.0,0.0,0.0
1.96,50.0,15.940060220046366,50.0,46.48802054306494,50.0,25.411958755302745,50.0,61.222785197176535,50.0,50.0,50.0,50.0,50.0,0.0,-0.0,0.0,0.0,0.0,0.0,0.0,-0.0,0.0,0.0,0.0,0.0,0.0
1.97,50.0,15.940060220046366,50.0,46.48802054306494,50.0,25.411958755302745,50.0,61.222785197176535,50.0,50.0,50.0,50.0,50.0,0.0,-0.0,0.0,0.0,0.0,0.0,0.0,-0.0,0.0,0.0,0.0,0.0,0.0
1.98,50.0,15.940060220046366,50.0,46.48802054306494,50.0,25.411958755302745,50.0,61.222785197176535,50.0,50.0,50.0,50.0,50.0,0.0,-0.0,0.0,0.0,0.0,0.0,0.0,-0.0,0.0,0.0,0.0,0.0,0.0
1.99,50.0,15.940060220046366,50.0,46.48802054306494,50.0,25.411958755302745,50.0,61.222785197176535,50.0,50.0,50.0,50.0,50.0,0.0,-0.0,0.0,0.0,0.0,0.0,0.0,-0.0,0.0,0.0,0.0,0.0,0.0
2.0,50.0,15.940060220046366,50.0,46.48802054306494,50.0,25.411958755302745,50.0,61.222785197176535,50.0,50.0,50.0,50.0,50.0,0.0,-0.0,0.0,0.0,0.0,0.0,0.0,-0.0,0.0,0.0,0.0,0.0,0.0
2.01,50.0,15.940060220046366,50.0,46.48802054306494,50.0,25.411958755302745,50.0,88.20119783585284,50.0,50.0,50.0,50.0,50.0,0.0,-0.0,0.0,0.0,0.0,0.0,0.0,0.0,0.0,0.0,0.0,0.0,0.0
2.02,50.0,15.940060220046366,50.0,46.48802054306494,50.0,25.411958755302745,50.0,88.20119783585284,50.0,50.0,50.0,50.0,50.0,0.0,-0.0,0.0,0.0,0.0,0.0,0.0,0.0,0.0,0.0,0.0,0.0,0.0
2.03,50.0,15.940060220046366,50.0,46.48802054306494,50.0,25.411958755302745,50.0,88.20119783585284,50.0,50.0,50.0,50.0,50.0,0.0,-0.0,0.0,0.0,0.0,0.0,0.0,0.0,0.0,0.0,0.0,0.0,0.0
2.04,50.0,15.940060220046366,50.0,46.48802054306494,50.0,25.411958755302745,50.0,88.20119783585284,50.0,50.0,50.0,50.0,50.0,0.0,-0.0,0.0,0.0,0.0,0.0,0.0,0.0,0.0,0.0,0.0,0.0,0.0
2.05,50.0,15.940060220046366,50.0,46.48802054306494,50.0,25.411958755302745,50.0,88.20119783585284,50.0,50.0,50.0,50.0,50.0,0.0,-0.0,0.0,0.0,0.0,0.0,0.0,0.0,0.0,0.0,0.0,0.0,0.0
2.06,50.0,15.940060220046366,50.0,46.48802054306494,50.0,25.411958755302745,50.0,88.20119783585284,50.0,50.0,50.0,50.0,50.0,0.0,-0.0,0.0,0.0,0.0,0.0,0.0,0.0,0.0,0.0,0.0,0.0,0.0
2.07,50.0,15.940060220046366,50.0,46.48802054306494,50.0,25.411958755302745,50.0,88.20119783585284,50.0,50.0,50.0,50.0,50.0,0.0,-0.0,0.0,0.0,0.0,0.0,0.0,0.0,0.0,0.0,0.0,0.0,0.0
2.08,50.0,15.940060220046366,50.0,46.48802054306494,50.0,25.411958755302745,50.0,88.20119783585284,50.0,50.0,50.0,50.0,50.0,0.0,-0.0,0.0,0.0,0.0,0.0,0.0,0.0,0.0,0.0,0.0,0.0,0.0
2.09,50.0,15.940060220046366,50.0,46.48802054306494,50.0,25.411958755302745,50.0,88.20119783585284,50.0,50.0,50.0,50.0,50.0,0.0,-0.0,0.0,0.0,0.0,0.0,0.0,0.0,0.0,0.0,0.0,0.0,0.0
2.1,50.0,15.940060220046366,50.0,46.48802054306494,50.0,25.411958755302745,50.0,88.20119783585284,50.0,50.0,50.0,50.0,50.0,0.0,-0.0,0.0,0.0,0.0,0.0,0.0,0.0,0.0,0.0,0.0,0.0,0.0
2.11,50.0,15.940060220046366,50.0,46.48802054306494,50.0,25.411958755302745,50.0,88.20119783585284,50.0,50.0,50.0,50.0,50.0,0.0,-0.0,0.0,0.0,0.0,0.0,0.0,0.0,0.0,0.0,0.0,0.0,0.0
2.12,50.0,15.940060220046366,50.0,46.48802054306494,50.0,25.411958755302745,50.0,88.20119783585284,50.0,50.0,50.0,50.0,50.0,0.0,-0.0,0.0,0.0,0.0,0.0,0.0,0.0,0.0,0.0,0.0,0.0,0.0
2.13,50.0,15.940060220046366,50.0,46.48802054306494,50.0,25.411958755302745,50.0,88.20119783585284,50.0,50.0,50.0,50.0,50.0,0.0,-0.0,0.0,0.0,0.0,0.0,0.0,0.0,0.0,0.0,0.0,0.0,0.0
2.14,50.0,15.940060220046366,50.0,46.48802054306494,50.0,25.411958755302745,50.0,88.20119783585284,50.0,50.0,50.0,50.0,50.0,0.0,-0.0,0.0,0.0,0.0,0.0,0.0,0.0,0.0,0.0,0.0,0.0,0.0
2.15,50.0,15.940060220046366,50.0,46.48802054306494,50.0,25.411958755302745,50.0,88.20119783585284,50.0,50.0,50.0,50.0,50.0,0.0,-0.0,0.0,0.0,0.0,0.0,0.0,0.0,0.0,0.0,0.0,0.0,0.0
2.16,50.0,15.940060220046366,50.0,46.48802054306494,50.0,25.411958755302745,50.0,88.20119783585284,50.0,50.0,50.0,50.0,50.0,0.0,-0.0,0.0,0.0,0.0,0.0,0.0,0.0,0.0,0.0,0.0,0.0,0.0
2.17,50.0,15.940060220046366,50.0,46.48802054306494,50.0,25.411958755302745,50.0,88.20119783585284,50.0,50.0,50.0,50.0,50.0,0.0,-0.0,0.0,0.0,0.0,0.0,0.0,0.0,0.0,0.0,0.0,0.0,0.0
2.18,50.0,15.940060220046366,50.0,46.48802054306494,50.0,25.411958755302745,50.0,88.20119783585284,50.0,50.0,50.0,50.0,50.0,0.0,-0.0,0.0,0.0,0.0,0.0,0.0,0.0,0.0,0.0,0.0,0.0,0.0
2.19,50.0,15.940060220046366,50.0,46.48802054306494,50.0,25.411958755302745,50.0,88.20119783585284,50.0,50.0,50.0,50.0,50.0,0.0,-0.0,0.0,0.0,0.0,0.0,0.0,0.0,0.0,0.0,0.0,0.0,0.0
2.2,50.0,15.940060220046366,50.0,46.48802054306494,50.0,25.411958755302745,50.0,88.20119783585284,50.0,50.0,50.0,50.0,50.0,0.0,-0.0,0.0,0.0,0.0,0.0,0.0,0.0,0.0,0.0,0.0,0.0,0.0
2.21,50.0,36.53712320687043,50.0,46.48802054306494,50.0,25.411958755302745,50.0,88.20119783585284,50.0,50.0,50.0,50.0,50.0,0.0,0.0,0.0,0.0,0.0,0.0,0.0,0.0,0.0,0.0,0.0,0.0,0.0
2.22,50.0,36.53712320687043,50.0,46.48802054306494,50.0,25.411958755302745,50.0,88.20119783585284,50.0,50.0,50.0,50.0,50.0,0.0,0.0,0.0,0.0,0.0,0.0,0.0,0.0,0.0,0.0,0.0,0.0,0.0
2.23,50.0,36.53712320687043,50.0,46.48802054306494,50.0,25.411958755302745,50.0,88.20119783585284,50.0,50.0,50.0,50.0,50.0,0.0,0.0,0.0,0.0,0.0,0.0,0.0,0.0,0.0,0.0,0.0,0.0,0.0
2.24,50.0,36.53712320687043,50.0,46.48802054306494,50.0,25.411958755302745,50.0,88.20119783585284,50.0,50.0,50.0,50.0,50.0,0.0,0.0,0.0,0.0,0.0,0.0,0.0,0.0,0.0,0.0,0.0,0.0,0.0
2.25,50.0,36.53712320687043,50.0,46.48802054306494,50.0,25.411958755302745,50.0,88.20119783585284,50.0,50.0,50.0,50.0,50.0,0.0,0.0,0.0,0.0,0.0,0.0,0.0,0.0,0.0,0.0,0.0,0.0,0.0
2.26,50.0,36.53712320687043,50.0,46.48802054306494,50.0,25.411958755302745,50.0,88.20119783585284,50.0,50.0,50.0,50.0,50.0,0.0,0.0,0.0,0.0,0.0,0.0,0.0,0.0,0.0,0.0,0.0,0.0,0.0
2.27,50.0,36.53712320687043,50.0,46.48802054306494,50.0,25.411958755302745,50.0,88.20119783585284,50.0,50.0,50.0,50.0,50.0,0.0,0.0,0.0,0.0,0.0,0.0,0.0,0.0,0.0,0.0,0.0,0.0,0.0
2.28,50.0,36.53712320687043,50.0,46.48802054306494,50.0,25.411958755302745,50.0,88.20119783585284,50.0,50.0,50.0,50.0,50.0,0.0,0.0,0.0,0.0,0.0,0.0,0.0,0.0,0.0,0.0,0.0,0.0,0.0
2.29,50.0,36.53712320687043,50.0,46.48802054306494,50.0,25.411958755302745,50.0,88.20119783585284,50.0,50.0,50.0,50.0,50.0,0.0,0.0,0.0,0.0,0.0,0.0,0.0,0.0,0.0,0.0,0.0,0.0,0.0
2.3,50.0,36.53712320687043,50.0,46.48802054306494,50.0,25.411958755302745,50.0,88.20119783585284,50.0,50.0,50.0,50.0,50.0,0.0,0.0,0.0,0.0,0.0,0.0,0.0,0.0,0.0,0.0,0.0,0.0,0.0
2.31,50.0,36.53712320687043,50.0,18.26447987049918,50.0,25.411958755302745,50.0,88.20119783585284,50.0,50.0,50.0,50.0,50.0,0.0,0.0,0.0,-0.0,0.0,0.0,0.0,0.0,0.0,0.0,0.0,0.0,0.0
2.32,50.0,36.53712320687043,50.0,18.26447987049918,50.0,25.411958755302745,50.0,88.20119783585284,50.0,50.0,50.0,50.0,50.0,0.0,0.0,0.0,-0.0,0.0,0.0,0.0,0.0,0.0,0.0,0.0,0.0,0.0
2.33,50.0,36.53712320687043,50.0,18.26447987049918,50.0,25.411958755302745,50.0,88.20119783585284,50.0,50.0,50.0,50.0,50.0,0.0,0.0,0.0,-0.0,0.0,0.0,0.0,0.0,0.0,0.0,0.0,0.0,0.0
2.34,50.0,36.53712320687043,50.0,18.26447987049918,50.0,25.411958755302745,50.0,88.20119783585284,50.0,50.0,50.0,50.0,50.0,0.0,0.0,0.0,-0.0,0.0,0.0,0.0,0.0,0.0,0.0,0.0,0.0,0.0
2.35,50.0,36.53712320687043,50.0,18.26447987049918,50.0,25.411958755302745,50.0,88.20119783585284,50.0,50.0,50.0,50.0,50.0,0.0,0.0,0.0,-0.0,0.0,0.0,0.0,0.0,0.0,0.0,0.0,0.0,0.0
2.36,50.0,36.53712320687043,50.0,18.26447987049918,50.0,25.411958755302745,50.0,88.20119783585284,50.0,50.0,50.0,50.0,50.0,0.0,0.0,0.0,-0.0,0.0,0.0,0.0,0.0,0.0,0.0,0.0,0.0,0.0
2.37,50.0,36.53712320687043,50.0,18.26447987049918,50.0,25.411958755302745,50.0,88.20119783585284,50.0,50.0,50.0,50.0,50.0,0.0,0.0,0.0,-0.0,0.0,0.0,0.0,0.0,0.0,0.0,0.0,0.0,0.0
2.38,50.0,36.53712320687043,50.0,18.26447987049918,50.0,25.411958755302745,50.0,88.20119783585284,50.0,50.0,50.0,50.0,50.0,0.0,0.0,0.0,-0.0,0.0,0.0,0.0,0.0,0.0,0.0,0.0,0.0,0.0
2.39,50.0,36.53712320687043,50.0,18.26447987049918,50.0,25.411958755302745,50.0,88.20119783585284,50.0,50.0,50.0,50.0,50.0,0.0,0.0,0.0,-0.0,0.0,0.0,0.0,0.0,0.0,0.0,0.0,0.0,0.0
2.4,50.0,36.53712320687043,50.0,18.26447987049918,50.0,25.411958755302745,50.0,88.20119783585284,50.0,50.0,50.0,50.0,50.0,0.0,0.0,0.0,-0.0,0.0,0.0,0.0,0.0,0.0,0.0,0.0,0.0,0.0
2.41,50.0,36.53712320687043,50.0,18.26447987049918,50.0,25.411958755302745,50.0,88.20119783585284,50.0,50.0,50.0,50.0,50.0,0.0,0.0,0.0,-0.0,0.0,0.0,0.0,0.0,0.0,0.0,0.0,0.0,0.0
2.42,50.0,36.53712320687043,50.0,18.26447987049918,50.0,25.411958755302745,50.0,88.20119783585284,50.0,50.0,50.0,50.0,50.0,0.0,0.0,0.0,-0.0,0.0,0.0,0.0,0.0,0.0,0.0,0.0,0.0,0.0
2.43,50.0,36.53712320687043,50.0,18.26447987049918,50.0,25.411958755302745,50.0,88.20119783585284,50.0,50.0,50.0,50.0,50.0,0.0,0.0,0.0,-0.0,0.0,0.0,0.0,0.0,0.0,0.0,0.0,0.0,0.0
2.44,50.0,36.53712320687043,50.0,18.26447987049918,50.0,25.411958755302745,50.0,88.20119783585284,50.0,50.0,50.0,50.0,50.0,0.0,0.0,0.0,-0.0,0.0,0.0,0.0,0.0,0.0,0.0,0.0,0.0,0.0
2.45,50.0,36.53712320687043,50.0,18.26447987049918,50.0,25.411958755302745,50.0,88.20119783585284,50.0,50.0,50.0,50.0,50.0,0.0,0.0,0.0,-0.0,0.0,0.0,0.0,0.0,0.0,0.0,0.0,0.0,0.0
2.46,50.0,36.53712320687043,50.0,18.26447987049918,50.0,25.411958755302745,50.0,88.20119783585284,50.0,50.0,50.0,50.0,50.0,0.0,0.0,0.0,-0.0,0.0,0.0,0.0,0.0,0.0,0.0,0.0,0.0,0.0
2.47,50.0,36.53712320687043,50.0,18.26447987049918,50.0,25.411958755302745,50.0,88.20119783585284,50.0,50.0,50.0,50.0,50.0,0.0,0.0,0.0,-0.0,0.0,0.0,0.0,0.0,0.0,0.0,0.0,0.0,0.0
2.48,50.0,36.53712320687043,50.0,18.26447987049918,50.0,25.411958755302745,50.0,88.20119783585284,50.0,50.0,50.0,50.0,50.0,0.0,0.0,0.0,-0.0,0.0,0.0,0.0,0.0,0.0,0.0,0.0,0.0,0.0
2.49,50.0,36.53712320687043,50.0,18.26447987049918,50.0,25.411958755302745,50.0,88.20119783585284,50.0,50.0,50.0,50.0,50.0,0.0,0.0,0.0,-0.0,0.0,0.0,0.0,0.0,0.0,0.0,0.0,0.0,0.0
2.5,50.0,36.53712320687043,50.0,18.26447987049918,50.0,25.411958755302745,50.0,88.20119783585284,50.0,50.0,50.0,50.0,50.0,0.0,0.0,0.0,-0.0,0.0,0.0,0.0,0.0,0.0,0.0,0.0,0.0,0.0
2.51,50.0,36.53712320687043,50.0,18.26447987049918,50.0,53.08752563489655,50.0,88.20119783585284,50.0,50.0,50.0,50.0,50.0,0.0,0.0,0.0,-0.0,0.0,0.0,0.0,0.0,0.0,0.0,0.0,0.0,0.0
2.52,50.0,36.53712320687043,50.0,18.26447987049918,50.0,53.08752563489655,50.0,88.20119783585284,50.0,50.0,50.0,50.0,50.0,0.0,0.0,0.0,-0.0,0.0,0.0,0.0,0.0,0.0,0.0,0.0,0.0,0.0
2.53,50.0,36.53712320687043,50.0,18.26447987049918,50.0,53.08752563489655,50.0,88.20119783585284,50.0,50.0,50.0,50.0,50.0,0.0,0.0,0.0,-0.0,0.0,0.0,0.0,0.0,0.0,0.0,0.0,0.0,0.0
2.54,50.0,36.53712320687043,50.0,18.26447987049918,50.0,53.08752563489655,50.0,88.20119783585284,50.0,50.0,50.0,50.0,50.0,0.0,0.0,0.0,-0.0,0.0,0.0,0.0,0.0,0.0,0.0,0.0,0.0,0.0
2.55,50.0,36.53712320687043,50.0,18.26447987049918,50.0,53.08752563489655,50.0,88.20119783585284,50.0,50.0,50.0,50.0,50.0,0.0,0.0,0.0,-0.0,0.0,0.0,0.0,0.0,0.0,0.0,0.0,0.0,0.0
2.56,50.0,36.53712320687043,50.0,18.26447987049918,50.0,53.08752563489655,50.0,88.20119783585284,50.0,50.0,50.0,50.0,50.0,0.0,0.0,0.0,-0.0,0.0,0.0,0.0,0.0,0.0,0.0,0.0,0.0,0.0
2.57,50.0,36.53712320687043,50.0,18.26447987049918,50.0,53.08752563489655,50.0,88.20119783585284,50.0,50.0,50.0,50.0,50.0,0.0,0.0,0.0,-0.0,0.0,0.0,0.0,0.0,0.0,0.0,0.0,0.0,0.0
2.58,50.0,36.53712320687043,50.0,18.26447987049918,50.0,53.08752563489655,50.0,88.20119783585284,50.0,50.0,50.0,50.0,50.0,0.0,0.0,0.0,-0.0,0.0,0.0,0.0,0.0,0.0,0.0,0.0,0.0,0.0
2.59,50.0,36.53712320687043,50.0,18.26447987049918,50.0,53.08752563489655,50.0,88.20119783585284,50.0,50.0,50.0,50.0,50.0,0.0,0.0,0.0,-0.0,0.0,0.0,0.0,0.0,0.0,0.0,0.0,0.0,0.0
2.6,50.0,36.53712320687043,50.0,18.26447987049918,50.0,53.08752563489655,50.0,88.20119783585284,50.0,50.0,50.0,50.0,50.0,0.0,0.0,0.0,-0.0,0.0,0.0,0.0,0.0,0.0,0.0,0.0,0.0,0.0
2.61,50.0,36.53712320687043,50.0,18.26447987049918,50.0,53.08752563489655,50.0,88.20119783585284,50.0,50.0,50.0,50.0,50.0,0.0,0.0,0.0,-0.0,0.0,0.0,0.0,0.0,0.0,0.0,0.0,0.0,0.0
2.62,50.0,36.53712320687043,50.0,18.26447987049918,50.0,53.08752563489655,50.0,88.20119783585284,50.0,50.0,50.0,50.0,50.0,0.0,0.0,0.0,-0.0,0.0,0.0,0.0,0.0,0.0,0.0,0.0,0.0,0.0
2.63,50.0,36.53712320687043,50.0,18.26447987049918,50.0,53.08752563489655,50.0,88.20119783585284,50.0,50.0,50.0,50.0,50.0,0.0,0.0,0.0,-0.0,0.0,0.0,0.0,0.0,0.0,0.0,0.0,0.0,0.0
2.64,50.0,36.53712320687043,50.0,18.26447987049918,50.0,53.08752563489655,50.0,88.20119783585284,50.0,50.0,50.0,50.0,50.0,0.0,0.0,0.0,-0.0,0.0,0.0,0.0,0.0,0.0,0.0,0.0,0.0,0.0
2.65,50.0,36.53712320687043,50.0,18.26447987049918,50.0,53.08752563489655,50.0,88.20119783585284,50.0,50.0,50.0,50.0,50.0,0.0,0.0,0.0,-0.0,0.0,0.0,0.0,0.0,0.0,0.0,0.0,0.0,0.0
2.66,50.0,36.53712320687043,50.0,18.26447987049918,50.0,53.08752563489655,50.0,88.20119783585284,50.0,50.0,50.0,50.0,50.0,0.0,0.0,0.0,-0.0,0.0,0.0,0.0,0.0,0.0,0.0,0.0,0.0,0.0
2.67,50.0,36.53712320687043,50.0,18.26447987049918,50.0,53.08752563489655,50.0,88.20119783585284,50.0,50.0,50.0,50.0,50.0,0.0,0.0,0.0,-0.0,0.0,0.0,0.0,0.0,0.0,0.0,0.0,0.0,0.0
2.68,50.0,36.53712320687043,50.0,18.26447987049918,50.0,53.08752563489655,50.0,88.20119783585284,50.0,50.0,50.0,50.0,50.0,0.0,0.0,0.0,-0.0,0.0,0.0,0.0,0.0,0.0,0.0,0.0,0.0,0.0
2.69,50.0,36.53712320687043,50.0,18.26447987049918,50.0,53.08752563489655,50.0,88.20119783585284,50.0,50.0,50.0,50.0,50.0,0.0,0.0,0.0,-0.0,0.0,0.0,0.0,0.0,0.0,0.0,0.0,0.0,0.0
2.7,50.0,36.53712320687043,50.0,18.26447987049918,50.0,53.08752563489655,50.0,88.20119783585284,50.0,50.0,50.0,50.0,50.0,0.0,0.0,0.0,-0.0,0.0,0.0,0.0,0.0,0.0,0.0,0.0,0.0,0.0
2.71,50.0,36.53712320687043,50.0,18.26447987049918,50.0,53.08752563489655,50.0,88.20119783585284,50.0,50.0,50.0,50.0,50.0,0.0,0.0,0.0,-0.0,0.0,0.0,0.0,0.0,0.0,0.0,0.0,0.0,0.0
2.72,50.0,36.53712320687043,50.0,18.26447987049918,50.0,53.08752563489655,50.0,88.20119783585284,50.0,50.0,50.0,50.0,50.0,0.0,0.0,0.0,-0.0,0.0,0.0,0.0,0.0,0.0,0.0,0.0,0.0,0.0
2.73,50.0,36.53712320687043,50.0,18.26447987049918,50.0,53.08752563489655,50.0,88.20119783585284,50.0,50.0,50.0,50.0,50.0,0.0,0.0,0.0,-0.0,0.0,0.0,0.0,0.0,0.0,0.0,0.0,0.0,0.0
2.74,50.0,36.53712320687043,50.0,18.26447987049918,50.0,53.08752563489655,50.0,88.20119783585284,50.0,50.0,50.0,50.0,50.0,0.0,0.0,0.0,-0.0,0.0,0.0,0.0,0.0,0.0,0.0,0.0,0.0,0.0
2.75,50.0,36.53712320687043,50.0,18.26447987049918,50.0,53.08752563489655,50.0,88.20119783585284,50.0,50.0,50.0,50.0,50.0,0.0,0.0,0.0,-0.0,0.0,0.0,0.0,0.0,0.0,0.0,0.0,0.0,0.0
2.76,50.0,36.53712320687043,50.0,18.26447987049918,50.0,53.08752563489655,50.0,88.20119783585284,50.0,50.0,50.0,50.0,50.0,0.0,0.0,0.0,-0.0,0.0,0.0,0.0,0.0,0.0,0.0,0.0,0.0,0.0
2.77,50.0,36.53712320687043,50.0,18.26447987049918,50.0,53.08752563489655,50.0,88.20119783585284,50.0,50.0,50.0,50.0,50.0,0.0,0.0,0.0,-0.0,0.0,0.0,0.0,0.0,0.0,0.0,0.0,0.0,0.0
2.78,50.0,36.53712320687043,50.0,18.26447987049918,50.0,53.08752563489655,50.0,88.20119783585284,50.0,50.0,50.0,50.0,50.0,0.0,0.0,0.0,-0.0,0.0,0.0,0.0,0.0,0.0,0.0,0.0,0.0,0.0
2.79,50.0,36.53712320687043,50.0,18.26447987049918,50.0,53.08752563489655,50.0,88.20119783585284,50.0,50.0,50.0,50.0,50.0,0.0,0.0,0.0,-0.0,0.0,0.0,0.0,0.0,0.0,0.0,0.0,0.0,0.0
2.8,50.0,36.53712320687043,50.0,18.26447987049918,50.0,53.08752563489655,50.0,65.76354124035107,50.0,50.0,50.0,50.0,50.0,0.0,0.0,0.0,-0.0,0.0,0.0,0.0,-0.0,0.0,0.0,0.0,0.0,0.0
2.81,50.0,36.53712320687043,50.0,18.26447987049918,50.0,53.08752563489655,50.0,65.76354124035107,50.0,50.0,50.0,50.0,50.0,0.0,0.0,0.0,-0.0,0.0,0.0,0.0,-0.0,0.0,0.0,0.0,0.0,0.0
2.82,50.0,36.53712320687043,50.0,18.26447987049918,50.0,53.08752563489655,50.0,65.76354124035107,50.0,50.0,50.0,50.0,50.0,0.0,0.0,0.0,-0.0,0.0,0.0,0.0,-0.0,0.0,0.0,0.0,0.0,0.0
2.83,50.0,36.53712320687043,50.0,18.26447987049918,50.0,53.08752563489655,50.0,65.76354124035107,50.0,50.0,50.0,50.0,50.0,0.0,0.0,0.0,-0.0,0.0,0.0,0.0,-0.0,0.0,0.0,0.0,0.0,0.0
2.84,50.0,36.53712320687043,50.0,18.26447987049918,50.0,53.08752563489655,50.0,65.76354124035107,50.0,50.0,50.0,50.0,50.0,0.0,0.0,0.0,-0.0,0.0,0.0,0.0,-0.0,0.0,0.0,0.0,0.0,0.0
2.85,50.0,36.53712320687043,50.0,18.26447987049918,50.0,53.08752563489655,50.0,65.76354124035107,50.0,50.0,50.0,50.0,50.0,0.0,0.0,0.0,-0.0,0.0,0.0,0.0,-0.0,0.0,0.0,0.0,0.0,0.0
2.86,50.0,36.53712320687043,50.0,18.26447987049918,50.0,53.08752563489655,50.0,65.76354124035107,50.0,50.0,50.0,50.0,50.0,0.0,0.0,0.0,-0.0,0.0,0.0,0.0,-0.0,0.0,0.0,0.0,0.0,0.0
2.87,50.0,36.53712320687043,50.0,18.26447987049918,50.0,53.08752563489655,50.0,65.76354124035107,50.0,50.0,50.0,50.0,50.0,0.0,0.0,0.0,-0.0,0.0,0.0,0.0,-0.0,0.0,0.0,0.0,0.0,0.0
2.88,50.0,36.53712320687043,50.0,18.26447987049918,50.0,53.08752563489655,50.0,65.76354124035107,50.0,50.0,50.0,50.0,50.0,0.0,0.0,0.0,-0.0,0.0,0.0,0.0,-0.0,0.0,0.0,0.0,0.0,0.0
2.89,50.0,36.53712320687043,50.0,18.26447987049918,50.0,53.08752563489655,50.0,65.76354124035107,50.0,50.0,50.0,50.0,50.0,0.0,0.0,0.0,-0.0,0.0,0.0,0.0,-0.0,0.0,0.0,0.0,0.0,0.0
2.9,50.0,36.53712320687043,50.0,18.26447987049918,50.0,53.08752563489655,50.0,65.76354124035107,50.0,50.0,50.0,50.0,50.0,0.0,0.0,0.0,-0.0,0.0,0.0,0.0,-0.0,0.0,0.0,0.0,0.0,0.0
2.91,50.0,36.53712320687043,50.0,18.26447987049918,50.0,53.08752563489655,50.0,65.76354124035107,50.0,50.0,50.0,50.0,50.0,0.0,0.0,0.0,-0.0,0.0,0.0,0.0,-0.0,0.0,0.0,0.0,0.0,0.0
2.92,50.0,36.53712320687043,50.0,18.26447987049918,50.0,53.08752563489655,50.0,65.76354124035107,50.0,50.0,50.0,50.0,50.0,0.0,0.0,0.0,-0.0,0.0,0.0,0.0,-0.0,0.0,0.0,0.0,0.0,0.0
2.93,50.0,36.53712320687043,50.0,18.26447987049918,50.0,53.08752563489655,50.0,65.76354124035107,50.0,50.0,50.0,50.0,50.0,0.0,0.0,0.0,-0.0,0.0,0.0,0.0,-0.0,0.0,0.0,0.0,0.0,0.0
2.94,50.0,36.53712320687043,50.0,18.26447987049918,50.0,53.08752563489655,50.0,65.76354124035107,50.0,50.0,50.0,50.0,50.0,0.0,0.0,0.0,-0.0,0.0,0.0,0.0,-0.0,0.0,0.0,0.0,0.0,0.0
2.95,50.0,36.53712320687043,50.0,18.26447987049918,50.0,53.08752563489655,50.0,65.76354124035107,50.0,50.0,50.0,50.0,50.0,0.0,0.0,0.0,-0.0,0.0,0.0,0.0,-0.0,0.0,0.0,0.0,0.0,0.0
2.96,50.0,36.53712320687043,50.0,18.26447987049918,50.0,53.08752563489655,50.0,65.76354124035107,50.0,50.0,50.0,50.0,50.0,0.0,0.0,0.0,-0.0,0.0,0.0,0.0,-0.0,0.0,0.0,0.0,0.0,0.0
2.97,50.0,36.53712320687043,50.0,18.26447987049918,50.0,53.08752563489655,50.0,65.76354124035107,50.0,50.0,50.0,50.0,50.0,0.0,0.0,0.0,-0.0,0.0,0.0,0.0,-0.0,0.0,0.0,0.0,0.0,0.0
2.98,50.0,36.53712320687043,50.0,18.26447987049918,50.0,53.08752563489655,50.0,65.76354124035107,50.0,50.0,50.0,50.0,50.0,0.0,0.0,0.0,-0.0,0.0,0.0,0.0,-0.0,0.0,0.0,0.0,0.0,0.0
2.99,50.0,36.53712320687043,50.0,18.26447987049918,50.0,53.08752563489655,50.0,65.76354124035107,50.0,50.0,50.0,50.0,50.0,0.0,0.0,0.0,-0.0,0.0,0.0,0.0,-0.0,0.0,0.0,0.0,0.0,0.0
3.0,50.0,36.53712320687043,50.0,18.26447987049918,50.0,53.08752563489655,50.0,65.76354124035107,50.0,50.0,50.0,50.0,50.0,0.0,0.0,0.0,-0.0,0.0,0.0,0.0,-0.0,0.0,0.0,0.0,0.0,0.0
3.01,50.0,36.53712320687043,50.0,18.26447987049918,50.0,53.08752563489655,50.0,65.76354124035107,50.0,50.0,50.0,50.0,50.0,0.0,0.0,0.0,-0.0,0.0,0.0,0.0,-0.0,0.0,0.0,0.0,0.0,0.0
3.02,50.0,36.53712320687043,50.0,18.26447987049918,50.0,53.08752563489655,50.0,65.76354124035107,50.0,50.0,50.0,50.0,50.0,0.0,0.0,0.0,-0.0,0.0,0.0,0.0,-0.0,0.0,0.0,0.0,0.0,0.0
3.03,50.0,36.53712320687043,50.0,18.26447987049918,50.0,53.08752563489655,50.0,65.76354124035107,50.0,50.0,50.0,50.0,50.0,0.0,0.0,0.0,-0.0,0.0,0.0,0.0,-0.0,0.0,0.0,0.0,0.0,0.0
3.04,50.0,36.53712320687043,50.0,18.26447987049918,50.0,53.08752563489655,50.0,65.76354124035107,50.0,50.0,50.0,50.0,50.0,0.0,0.0,0.0,-0.0,0.0,0.0,0.0,-0.0,0.0,0.0,0.0,0.0,0.0
3.05,50.0,36.53712320687043,50.0,18.26447987049918,50.0,53.08752563489655,50.0,65.76354124035107,50.0,50.0,50.0,50.0,50.0,0.0,0.0,0.0,-0.0,0.0,0.0,0.0,-0.0,0.0,0.0,0.0,0.0,0.0
3.06,50.0,36.53712320687043,50.0,18.26447987049918,50.0,53.08752563489655,50.0,65.76354124035107,50.0,50.0,50.0,50.0,50.0,0.0,0.0,0.0,-0.0,0.0,0.0,0.0,-0.0,0.0,0.0,0.0,0.0,0.0
3.07,50.0,36.53712320687043,50.0,18.26447987049918,50.0,53.08752563489655,50.0,65.76354124035107,50.0,50.0,50.0,50.0,50.0,0.0,0.0,0.0,-0.0,0.0,0.0,0.0,-0.0,0.0,0.0,0.0,0.0,0.0
3.08,50.0,36.53712320687043,50.0,18.26447987049918,50.0,53.08752563489655,50.0,65.76354124035107,50.0,50.0,50.0,50.0,50.0,0.0,0.0,0.0,-0.0,0.0,0.0,0.0,-0.0,0.0,0.0,0.0,0.0,0.0
3.09,50.0,36.53712320687043,50.0,18.26447987049918,50.0,53.08752563489655,50.0,65.76354124035107,50.0,50.0,50.0,50.0,50.0,0.0,0.0,0.0,-0.0,0.0,0.0,0.0,-0.0,0.0,0.0,0.0,0.0,0.0
3.1,50.0,36.53712320687043,50.0,18.26447987049918,50.0,53.08752563489655,50.0,65.76354124035107,50.0,50.0,50.0,50.0,50.0,0.0,0.0,0.0,-0.0,0.0,0.0,0.0,-0.0,0.0,0.0,0.0,0.0,0.0
3.11,50.0,36.53712320687043,50.0,18.26447987049918,50.0,53.08752563489655,50.0,65.76354124035107,50.0,50.0,50.0,50.0,50.0,0.0,0.0,0.0,-0.0,0.0,0.0,0.0,-0.0,0.0,0.0,0.0,0.0,0.0
3.12,50.0,36.53712320687043,50.0,18.26447987049918,50.0,53.08752563489655,50.0,65.76354124035107,50.0,50.0,50.0,50.0,50.0,0.0,0.0,0.0,-0.0,0.0,0.0,0.0,-0.0,0.0,0.0,0.0,0.0,0.0
3.13,50.0,36.53712320687043,50.0,18.26447987049918,50.0,53.08752563489655,50.0,65.76354124035107,50.0,50.0,50.0,50.0,50.0,0.0,0.0,0.0,-0.0,0.0,0.0,0.0,-0.0,0.0,0.0,0.0,0.0,0.0
3.14,50.0,36.53712320687043,50.0,18.26447987049918,50.0,53.08752563489655,50.0,65.76354124035107,50.0,50.0,50.0,50.0,50.0,0.0,0.0,0.0,-0.0,0.0,0.0,0.0,-0.0,0.0,0.0,0.0,0.0,0.0
3.15,50.0,36.53712320687043,50.0,18.26447987049918,50.0,53.08752563489655,50.0,65.76354124035107,50.0,50.0,50.0,50.0,50.0,0.0,0.0,0.0,-0.0,0.0,0.0,0.0,-0.0,0.0,0.0,0.0,0.0,0.0
3.16,50.0,36.53712320687043,50.0,18.26447987049918,50.0,53.08752563489655,50.0,65.76354124035107,50.0,50.0,50.0,50.0,50.0,0.0,0.0,0.0,-0.0,0.0,0.0,0.0,-0.0,0.0,0.0,0.0,0.0,0.0
3.17,50.0,36.53712320687043,50.0,18.26447987049918,50.0,53.08752563489655,50.0,65.76354124035107,50.0,50.0,50.0,50.0,50.0,0.0,0.0,0.0,-0.0,0.0,0.0,0.0,-0.0,0.0,0.0,0.0,0.0,0.0
3.18,50.0,36.53712320687043,50.0,18.26447987049918,50.0,53.08752563489655,50.0,65.76354124035107,50.0,50.0,50.0,50.0,50.0,0.0,0.0,0.0,-0.0,0.0,0.0,0.0,-0.0,0.0,0.0,0.0,0.0,0.0
3.19,50.0,36.53712320687043,50.0,18.26447987049918,50.0,53.08752563489655,50.0,65.76354124035107,50.0,50.0,50.0,50.0,50.0,0.0,0.0,0.0,-0.0,0.0,0.0,0.0,-0.0,0.0,0.0,0.0,0.0,0.0
3.2,50.0,36.53712320687043,50.0,18.26447987049918,50.0,53.08752563489655,50.0,65.76354124035107,50.0,50.0,50.0,50.0,50.0,0.0,0.0,0.0,-0.0,0.0,0.0,0.0,-0.0,0.0,0.0,0.0,0.0,0.0
3.21,50.0,36.53712320687043,50.0,18.26447987049918,50.0,53.08752563489655,50.0,65.76354124035107,50.0,50.0,50.0,50.0,50.0,0.0,0.0,0.0,-0.0,0.0,0.0,0.0,-0.0,0.0,0.0,0.0,0.0,0.0
3.22,50.0,36.53712320687043,50.0,18.26447987049918,50.0,53.08752563489655,50.0,65.76354124035107,50.0,50.0,50.0,50.0,50.0,0.0,0.0,0.0,-0.0,0.0,0.0,0.0,-0.0,0.0,0.0,0.0,0.0,0.0
3.23,50.0,36.53712320687043,50.0,18.26447987049918,50.0,53.08752563489655,50.0,65.76354124035107,50.0,50.0,50.0,50.0,50.0,0.0,0.0,0.0,-0.0,0.0,0.0,0.0,-0.0,0.0,0.0,0.0,0.0,0.0
3.24,50.0,36.53712320687043,50.0,18.26447987049918,50.0,53.08752563489655,50.0,65.76354124035107,50.0,50.0,50.0,50.0,50.0,0.0,0.0,0.0,-0.0,0.0,0.0,0.0,-0.0,0.0,0.0,0.0,0.0,0.0
3.25,50.0,36.53712320687043,50.0,18.26447987049918,50.0,53.08752563489655,50.0,65.76354124035107,50.0,50.0,50.0,50.0,50.0,0.0,0.0,0.0,-0.0,0.0,0.0,0.0,-0.0,0.0,0.0,0.0,0.0,0.0
3.26,50.0,36.53712320687043,50.0,18.26447987049918,50.0,53.08752563489655,50.0,65.76354124035107,50.0,50.0,50.0,50.0,50.0,0.0,0.0,0.0,-0.0,0.0,0.0,0.0,-0.0,0.0,0.0,0.0,0.0,0.0
3.27,50.0,36.53712320687043,50.0,18.26447987049918,50.0,53.08752563489655,50.0,65.76354124035107,50.0,50.0,50.0,50.0,50.0,0.0,0.0,0.0,-0.0,0.0,0.0,0.0,-0.0,0.0,0.0,0.0,0.0,0.0
3.28,50.0,36.53712320687043,50.0,18.26447987049918,50.0,53.08752563489655,50.0,65.76354124035107,50.0,50.0,50.0,50.0,50.0,0.0,0.0,0.0,-0.0,0.0,0.0,0.0,-0.0,0.0,0.0,0.0,0.0,0.0
3.29,50.0,36.53712320687043,50.0,18.26447987049918,50.0,53.08752563489655,50.0,65.76354124035107,50.0,50.0,50.0,50.0,50.0,0.0,0.0,0.0,-0.0,0.0,0.0,0.0,-0.0,0.0,0.0,0.0,0.0,0.0
3.3,50.0,36.53712320687043,50.0,18.26447987049918,50.0,53.08752563489655,50.0,65.76354124035107,50.0,50.0,50.0,50.0,50.0,0.0,0.0,0.0,-0.0,0.0,0.0,0.0,-0.0,0.0,0.0,0.0,0.0,0.0
3.31,50.0,36.53712320687043,50.0,18.26447987049918,50.0,53.08752563489655,50.0,65.76354124035107,50.0,50.0,50.0,50.0,50.0,0.0,0.0,0.0,-0.0,0.0,0.0,0.0,-0.0,0.0,0.0,0.0,0.0,0.0
3.32,50.0,36.53712320687043,50.0,18.26447987049918,50.0,53.08752563489655,50.0,65.76354124035107,50.0,50.0,50.0,50.0,50.0,0.0,0.0,0.0,-0.0,0.0,0.0,0.0,-0.0,0.0,0.0,0.0,0.0,0.0
3.33,50.0,36.53712320687043,50.0,18.26447987049918,50.0,53.08752563489655,50.0,65.76354124035107,50.0,50.0,50.0,50.0,50.0,0.0,0.0,0.0,-0.0,0.0,0.0,0.0,-0.0,0.0,0.0,0.0,0.0,0.0
3.34,50.0,36.53712320687043,50.0,18.26447987049918,50.0,53.08752563489655,50.0,65.76354124035107,50.0,50.0,50.0,50.0,50.0,0.0,0.0,0.0,-0.0,0.0,0.0,0.0,-0.0,0.0,0.0,0.0,0.0,0.0
3.35,50.0,36.53712320687043,50.0,18.26447987049918,50.0,53.08752563489655,50.0,65.76354124035107,50.0,50.0,50.0,50.0,50.0,0.0,0.0,0.0,-0.0,0.0,0.0,0.0,-0.0,0.0,0.0,0.0,0.0,0.0
3.36,50.0,36.53712320687043,50.0,18.26447987049918,50.0,53.08752563489655,50.0,65.76354124035107,50.0,50.0,50.0,50.0,50.0,0.0,0.0,0.0,-0.0,0.0,0.0,0.0,-0.0,0.0,0.0,0.0,0.0,0.0
3.37,50.0,36.53712320687043,50.0,18.26447987049918,50.0,53.08752563489655,50.0,65.76354124035107,50.0,50.0,50.0,50.0,50.0,0.0,0.0,0.0,-0.0,0.0,0.0,0.0,-0.0,0.0,0.0,0.0,0.0,0.0
3.38,50.0,36.53712320687043,50.0,18.26447987049918,50.0,53.08752563489655,50.0,65.76354124035107,50.0,50.0,50.0,50.0,50.0,0.0,0.0,0.0,-0.0,0.0,0.0,0.0,-0.0,0.0,0.0,0.0,0.0,0.0
3.39,50.0,36.53712320687043,50.0,50.96915958746904,50.0,53.08752563489655,50.0,65.76354124035107,50.0,50.0,50.0,50.0,50.0,0.0,0.0,0.0,0.0,0.0,0.0,0.0,-0.0,0.0,0.0,0.0,0.0,0.0
3.4,50.0,36.53712320687043,50.0,50.96915958746904,50.0,53.08752563489655,50.0,65.76354124035107,50.0,50.0,50.0,50.0,50.0,0.0,0.0,0.0,0.0,0.0,0.0,0.0,-0.0,0.0,0.0,0.0,0.0,0.0
3.41,50.0,36.53712320687043,50.0,50.96915958746904,50.0,53.08752563489655,50.0,65.76354124035107,50.0,50.0,50.0,50.0,50.0,0.0,0.0,0.0,0.0,0.0,0.0,0.0,-0.0,0.0,0.0,0.0,0.0,0.0
3.42,50.0,36.53712320687043,50.0,50.96915958746904,50.0,53.08752563489655,50.0,65.76354124035107,50.0,50.0,50.0,50.0,50.0,0.0,0.0,0.0,0.0,0.0,0.0,0.0,-0.0,0.0,0.0,0.0,0.0,0.0
3.43,50.0,36.53712320687043,50.0,50.96915958746904,50.0,53.08752563489655,50.0,65.76354124035107,50.0,50.0,50.0,50.0,50.0,0.0,0.0,0.0,0.0,0.0,0.0,0.0,-0.0,0.0,0.0,0.0,0.0,0.0
3.44,50.0,36.53712320687043,50.0,50.96915958746904,50.0,53.08752563489655,50.0,65.76354124035107,50.0,50.0,50.0,50.0,50.0,0.0,0.0,0.0,0.0,0.0,0.0,0.0,-0.0,0.0,0.0,0.0,0.0,0.0
3.45,50.0,36.53712320687043,50.0,50.96915958746904,50.0,53.08752563489655,50.0,65.76354124035107,50.0,50.0,50.0,50.0,50.0,0.0,0.0,0.0,0.0,0.0,0.0,0.0,-0.0,0.0,0.0,0.0,0.0,0.0
3.46,50.0,36.53712320687043,50.0,50.96915958746904,50.0,53.08752563489655,50.0,65.76354124035107,50.0,50.0,50.0,50.0,50.0,0.0,0.0,0.0,0.0,0.0,0.0,0.0,-0.0,0.0,0.0,0.0,0.0,0.0
3.47,50.0,36.53712320687043,50.0,50.96915958746904,50.0,53.08752563489655,50.0,65.76354124035107,50.0,50.0,50.0,50.0,50.0,0.0,0.0,0.0,0.0,0.0,0.0,0.0,-0.0,0.0,0.0,0.0,0.0,0.0
3.48,50.0,36.53712320687043,50.0,50.96915958746904,50.0,53.08752563489655,50.0,65.76354124035107,50.0,50.0,50.0,50.0,50.0,0.0,0.0,0.0,0.0,0.0,0.0,0.0,-0.0,0.0,0.0,0.0,0.0,0.0
3.49,50.0,36.53712320687043,50.0,50.96915958746904,50.0,53.08752563489655,50.0,65.76354124035107,50.0,50.0,50.0,50.0,50.0,0.0,0.0,0.0,0.0,0.0,0.0,0.0,-0.0,0.0,0.0,0.0,0.0,0.0
3.5,50.0,36.53712320687043,50.0,50.96915958746904,50.0,53.08752563489655,50.0,65.76354124035107,50.0,50.0,50.0,50.0,50.0,0.0,0.0,0.0,0.0,0.0,0.0,0.0,-0.0,0.0,0.0,0.0,0.0,0.0
3.51,50.0,36.53712320687043,50.0,50.96915958746904,50.0,53.08752563489655,50.0,65.76354124035107,50.0,50.0,50.0,50.0,50.0,0.0,0.0,0.0,0.0,0.0,0.0,0.0,-0.0,0.0,0.0,0.0,0.0,0.0
3.52,50.0,36.53712320687043,50.0,50.96915958746904,50.0,53.08752563489655,50.0,65.76354124035107,50.0,50.0,50.0,50.0,50.0,0.0,0.0,0.0,0.0,0.0,0.0,0.0,-0.0,0.0,0.0,0.0,0.0,0.0
3.53,50.0,36.53712320687043,50.0,50.96915958746904,50.0,53.08752563489655,50.0,65.76354124035107,50.0,50.0,50.0,50.0,50.0,0.0,0.0,0.0,0.0,0.0,0.0,0.0,-0.0,0.0,0.0,0.0,0.0,0.0
3.54,50.0,36.53712320687043,50.0,50.96915958746904,50.0,53.08752563489655,50.0,65.76354124035107,50.0,50.0,50.0,50.0,50.0,0.0,0.0,0.0,0.0,0.0,0.0,0.0,-0.0,0.0,0.0,0.0,0.0,0.0
3.55,50.0,75.98651574415786,50.0,50.96915958746904,50.0,53.08752563489655,50.0,65.76354124035107,50.0,50.0,50.0,50.0,50.0,0.0,0.0,0.0,0.0,0.0,0.0,0.0,-0.0,0.0,0.0,0.0,0.0,0.0
3.56,50.0,75.98651574415786,50.0,50.96915958746904,50.0,53.08752563489655,50.0,65.76354124035107,50.0,50.0,50.0,50.0,50.0,0.0,0.0,0.0,0.0,0.0,0.0,0.0,-0.0,0.0,0.0,0.0,0.0,0.0
3.57,50.0,75.98651574415786,50.0,50.96915958746904,50.0,53.08752563489655,50.0,65.76354124035107,50.0,50.0,50.0,50.0,50.0,0.0,0.0,0.0,0.0,0.0,0.0,0.0,-0.0,0.0,0.0,0.0,0.0,0.0
3.58,50.0,75.98651574415786,50.0,50.96915958746904,50.0,53.08752563489655,50.0,65.76354124035107,50.0,50.0,50.0,50.0,50.0,0.0,0.0,0.0,0.0,0.0,0.0,0.0,-0.0,0.0,0.0,0.0,0.0,0.0
3.59,50.0,75.98651574415786,50.0,50.96915958746904,50.0,53.08752563489655,50.0,65.76354124035107,50.0,50.0,50.0,50.0,50.0,0.0,0.0,0.0,0.0,0.0,0.0,0.0,-0.0,0.0,0.0,0.0,0.0,0.0
3.6,50.0,75.98651574415786,50.0,50.96915958746904,50.0,53.08752563489655,50.0,65.76354124035107,50.0,50.0,50.0,50.0,50.0,0.0,0.0,0.0,0.0,0.0,0.0,0.0,-0.0,0.0,0.0,0.0,0.0,0.0
3.61,50.0,75.98651574415786,50.0,50.96915958746904,50.0,20.10994993651697,50.0,65.76354124035107,50.0,50.0,50.0,50.0,50.0,0.0,0.0,0.0,0.0,0.0,-0.0,0.0,-0.0,0.0,0.0,0.0,0.0,0.0
3.62,50.0,75.98651574415786,50.0,50.96915958746904,50.0,20.10994993651697,50.0,65.76354124035107,50.0,50.0,50.0,50.0,50.0,0.0,0.0,0.0,0.0,0.0,-0.0,0.0,-0.0,0.0,0.0,0.0,0.0,0.0
3.63,50.0,75.98651574415786,50.0,50.96915958746904,50.0,20.10994993651697,50.0,65.76354124035107,50.0,50.0,50.0,50.0,50.0,0.0,0.0,0.0,0.0,0.0,-0.0,0.0,-0.0,0.0,0.0,0.0,0.0,0.0
3.64,50.0,75.98651574415786,50.0,50.96915958746904,50.0,20.10994993651697,50.0,65.76354124035107,50.0,50.0,50.0,50.0,50.0,0.0,0.0,0.0,0.0,0.0,-0.0,0.0,-0.0,0.0,0.0,0.0,0.0,0.0
3.65,50.0,75.98651574415786,50.0,50.96915958746904,50.0,20.10994993651697,50.0,65.76354124035107,50.0,50.0,50.0,50.0,50.0,0.0,0.0,0.0,0.0,0.0,-0.0,0.0,-0.0,0.0,0.0,0.0,0.0,0.0
3.66,50.0,75.98651574415786,50.0,50.96915958746904,50.0,20.10994993651697,50.0,65.76354124035107,50.0,50.0,50.0,50.0,50.0,0.0,0.0,0.0,0.0,0.0,-0.0,0.0,-0.0,0.0,0.0,0.0,0.0,0.0
3.67,50.0,75.98651574415786,50.0,50.96915958746904,50.0,20.10994993651697,50.0,65.76354124035107,50.0,50.0,50.0,50.0,50.0,0.0,0.0,0.0,0.0,0.0,-0.0,0.0,-0.0,0.0,0.0,0.0,0.0,0.0
3.68,50.0,75.98651574415786,50.0,50.96915958746904,50.0,20.10994993651697,50.0,65.76354124035107,50.0,50.0,50.0,50.0,50.0,0.0,0.0,0.0,0.0,0.0,-0.0,0.0,-0.0,0.0,0.0,0.0,0.0,0.0
3.69,50.0,75.98651574415786,50.0,50.96915958746904,50.0,20.10994993651697,50.0,65.76354124035107,50.0,50.0,50.0,50.0,50.0,0.0,0.0,0.0,0.0,0.0,-0.0,0.0,-0.0,0.0,0.0,0.0,0.0,0.0
3.7,50.0,75.98651574415786,50.0,50.96915958746904,50.0,20.10994993651697,50.0,65.76354124035107,50.0,50.0,50.0,50.0,50.0,0.0,0.0,0.0,0.0,0.0,-0.0,0.0,-0.0,0.0,0.0,0.0,0.0,0.0
3.71,50.0,75.98651574415786,50.0,50.96915958746904,50.0,20.10994993651697,50.0,65.76354124035107,50.0,50.0,50.0,50.0,50.0,0.0,0.0,0.0,0.0,0.0,-0.0,0.0,-0.0,0.0,0.0,0.0,0.0,0.0
3.72,50.0,75.98651574415786,50.0,50.96915958746904,50.0,20.10994993651697,50.0,65.76354124035107,50.0,50.0,50.0,50.0,50.0,0.0,0.0,0.0,0.0,0.0,-0.0,0.0,-0.0,0.0,0.0,0.0,0.0,0.0
3.73,50.0,75.98651574415786,50.0,50.96915958746904,50.0,20.10994993651697,50.0,65.76354124035107,50.0,50.0,50.0,50.0,50.0,0.0,0.0,0.0,0.0,0.0,-0.0,0.0,-0.0,0.0,0.0,0.0,0.0,0.0
3.74,50.0,75.98651574415786,50.0,50.96915958746904,50.0,20.10994993651697,50.0,65.76354124035107,50.0,50.0,50.0,50.0,50.0,0.0,0.0,0.0,0.0,0.0,-0.0,0.0,-0.0,0.0,0.0,0.0,0.0,0.0
3.75,50.0,75.98651574415786,50.0,50.96915958746904,50.0,20.10994993651697,50.0,65.76354124035107,50.0,50.0,50.0,50.0,50.0,0.0,0.0,0.0,0.0,0.0,-0.0,0.0,-0.0,0.0,0.0,0.0,0.0,0.0
3.76,50.0,75.98651574415786,50.0,50.96915958746904,50.0,20.10994993651697,50.0,65.76354124035107,50.0,50.0,50.0,50.0,50.0,0.0,0.0,0.0,0.0,0.0,-0.0,0.0,-0.0,0.0,0.0,0.0,0.0,0.0
3.77,50.0,75.98651574415786,50.0,50.96915958746904,50.0,20.10994993651697,50.0,65.76354124035107,50.0,50.0,50.0,50.0,50.0,0.0,0.0,0.0,0.0,0.0,-0.0,0.0,-0.0,0.0,0.0,0.0,0.0,0.0
3.78,50.0,75.98651574415786,50.0,50.96915958746904,50.0,20.10994993651697,50.0,65.76354124035107,50.0,50.0,50.0,50.0,50.0,0.0,0.0,0.0,0.0,0.0,-0.0,0.0,-0.0,0.0,0.0,0.0,0.0,0.0
3.79,50.0,75.98651574415786,50.0,50.96915958746904,50.0,20.10994993651697,50.0,65.76354124035107,50.0,50.0,50.0,50.0,50.0,0.0,0.0,0.0,0.0,0.0,-0.0,0.0,-0.0,0.0,0.0,0.0,0.0,0.0
3.8,50.0,75.98651574415786,50.0,50.96915958746904,50.0,20.10994993651697,50.0,65.76354124035107,50.0,50.0,50.0,50.0,50.0,0.0,0.0,0.0,0.0,0.0,-0.0,0.0,-0.0,0.0,0.0,0.0,0.0,0.0
3.81,50.0,75.98651574415786,50.0,50.96915958746904,50.0,20.10994993651697,50.0,65.76354124035107,50.0,50.0,50.0,50.0,50.0,0.0,0.0,0.0,0.0,0.0,-0.0,0.0,-0.0,0.0,0.0,0.0,0.0,0.0
3.82,50.0,75.98651574415786,50.0,50.96915958746904,50.0,20.10994993651697,50.0,65.76354124035107,50.0,50.0,50.0,50.0,50.0,0.0,0.0,0.0,0.0,0.0,-0.0,0.0,-0.0,0.0,0.0,0.0,0.0,0.0
3.83,50.0,75.98651574415786,50.0,50.96915958746904,50.0,20.10994993651697,50.0,65.76354124035107,50.0,50.0,50.0,50.0,50.0,0.0,0.0,0.0,0.0,0.0,-0.0,0.0,-0.0,0.0,0.0,0.0,0.0,0.0
3.84,50.0,75.98651574415786,50.0,50.96915958746904,50.0,20.10994993651697,50.0,65.76354124035107,50.0,50.0,50.0,50.0,50.0,0.0,0.0,0.0,0.0,0.0,-0.0,0.0,-0.0,0.0,0.0,0.0,0.0,0.0
3.85,50.0,75.98651574415786,50.0,50.96915958746904,50.0,20.10994993651697,50.0,65.76354124035107,50.0,50.0,50.0,50.0,50.0,0.0,0.0,0.0,0.0,0.0,-0.0,0.0,-0.0,0.0,0.0,0.0,0.0,0.0
3.86,50.0,75.98651574415786,50.0,50.96915958746904,50.0,20.10994993651697,50.0,65.76354124035107,50.0,50.0,50.0,50.0,50.0,0.0,0.0,0.0,0.0,0.0,-0.0,0.0,-0.0,0.0,0.0,0.0,0.0,0.0
3.87,50.0,75.98651574415786,50.0,50.96915958746904,50.0,20.10994993651697,50.0,65.76354124035107,50.0,50.0,50.0,50.0,50.0,0.0,0.0,0.0,0.0,0.0,-0.0,0.0,-0.0,0.0,0.0,0.0,0.0,0.0
3.88,50.0,75.98651574415786,50.0,50.96915958746904,50.0,20.10994993651697,50.0,65.76354124035107,50.0,50.0,50.0,50.0,50.0,0.0,0.0,0.0,0.0,0.0,-0.0,0.0,-0.0,0.0,0.0,0.0,0.0,0.0
3.89,50.0,75.98651574415786,50.0,50.96915958746904,50.0,20.10994993651697,50.0,65.76354124035107,50.0,50.0,50.0,50.0,50.0,0.0,0.0,0.0,0.0,0.0,-0.0,0.0,-0.0,0.0,0.0,0.0,0.0,0.0
3.9,50.0,75.98651574415786,50.0,50.96915958746904,50.0,20.10994993651697,50.0,65.76354124035107,50.0,50.0,50.0,50.0,50.0,0.0,0.0,0.0,0.0,0.0,-0.0,0.0,-0.0,0.0,0.0,0.0,0.0,0.0
3.91,50.0,75.98651574415786,50.0,50.96915958746904,50.0,20.10994993651697,50.0,65.76354124035107,50.0,50.0,50.0,50.0,50.0,0.0,0.0,0.0,0.0,0.0,-0.0,0.0,-0.0,0.0,0.0,0.0,0.0,0.0
3.92,50.0,75.98651574415786,50.0,50.96915958746904,50.0,20.10994993651697,50.0,65.76354124035107,50.0,50.0,50.0,50.0,50.0,0.0,0.0,0.0,0.0,0.0,-0.0,0.0,-0.0,0.0,0.0,0.0,0.0,0.0
3.93,50.0,75.98651574415786,50.0,50.96915958746904,50.0,20.10994993651697,50.0,65.76354124035107,50.0,50.0,50.0,50.0,50.0,0.0,0.0,0.0,0.0,0.0,-0.0,0.0,-0.0,0.0,0.0,0.0,0.0,0.0
3.94,50.0,75.98651574415786,50.0,50.96915958746904,50.0,20.10994993651697,50.0,65.76354124035107,50.0,50.0,50.0,50.0,50.0,0.0,0.0,0.0,0.0,0.0,-0.0,0.0,-0.0,0.0,0.0,0.0,0.0,0.0
3.95,50.0,75.98651574415786,50.0,50.96915958746904,50.0,20.10994993651697,50.0,65.76354124035107,50.0,50.0,50.0,50.0,50.0,0.0,0.0,0.0,0.0,0.0,-0.0,0.0,-0.0,0.0,0.0,0.0,0.0,0.0
3.96,50.0,75.98651574415786,50.0,50.96915958746904,50.0,20.10994993651697,50.0,65.76354124035107,50.0,50.0,50.0,50.0,50.0,0.0,0.0,0.0,0.0,0.0,-0.0,0.0,-0.0,0.0,0.0,0.0,0.0,0.0
3.97,50.0,75.98651574415786,50.0,50.96915958746904,50.0,20.10994993651697,50.0,65.76354124035107,50.0,50.0,50.0,50.0,50.0,0.0,0.0,0.0,0.0,0.0,-0.0,0.0,-0.0,0.0,0.0,0.0,0.0,0.0
3.98,50.0,75.98651574415786,50.0,50.96915958746904,50.0,20.10994993651697,50.0,65.76354124035107,50.0,50.0,50.0,50.0,50.0,0.0,0.0,0.0,0.0,0.0,-0.0,0.0,-0.0,0.0,0.0,0.0,0.0,0.0
3.99,50.0,75.98651574415786,50.0,50.96915958746904,50.0,20.10994993651697,50.0,65.76354124035107,50.0,50.0,50.0,50.0,50.0,0.0,0.0,0.0,0.0,0.0,-0.0,0.0,-0.0,0.0,0.0,0.0,0.0,0.0
4.0,50.0,75.98651574415786,50.0,50.96915958746904,50.0,20.10994993651697,50.0,65.76354124035107,50.0,50.0,50.0,50.0,50.0,0.0,0.0,0.0,0.0,0.0,-0.0,0.0,-0.0,0.0,0.0,0.0,0.0,0.0
4.01,50.0,75.98651574415786,50.0,50.96915958746904,50.0,20.10994993651697,50.0,65.76354124035107,50.0,50.0,50.0,50.0,50.0,0.0,0.0,0.0,0.0,0.0,-0.0,0.0,-0.0,0.0,0.0,0.0,0.0,0.0
4.02,50.0,75.98651574415786,50.0,50.96915958746904,50.0,20.10994993651697,50.0,34.03361035746098,50.0,50.0,50.0,50.0,50.0,0.0,0.0,0.0,0.0,0.0,-0.0,0.0,-0.0,0.0,0.0,0.0,0.0,0.0
4.03,50.0,75.98651574415786,50.0,50.96915958746904,50.0,20.10994993651697,50.0,34.03361035746098,50.0,50.0,50.0,50.0,50.0,0.0,0.0,0.0,0.0,0.0,-0.0,0.0,-0.0,0.0,0.0,0.0,0.0,0.0
4.04,50.0,75.98651574415786,50.0,50.96915958746904,50.0,20.10994993651697,50.0,34.03361035746098,50.0,50.0,50.0,50.0,50.0,0.0,0.0,0.0,0.0,0.0,-0.0,0.0,-0.0,0.0,0.0,0.0,0.0,0.0
4.05,50.0,75.98651574415786,50.0,50.96915958746904,50.0,20.10994993651697,50.0,34.03361035746098,50.0,50.0,50.0,50.0,50.0,0.0,0.0,0.0,0.0,0.0,-0.0,0.0,-0.0,0.0,0.0,0.0,0.0,0.0
4.06,50.0,75.98651574415786,50.0,50.96915958746904,50.0,20.10994993651697,50.0,34.03361035746098,50.0,50.0,50.0,50.0,50.0,0.0,0.0,0.0,0.0,0.0,-0.0,0.0,-0.0,0.0,0.0,0.0,0.0,0.0
4.07,50.0,75.98651574415786,50.0,50.96915958746904,50.0,20.10994993651697,50.0,34.03361035746098,50.0,50.0,50.0,50.0,50.0,0.0,0.0,0.0,0.0,0.0,-0.0,0.0,-0.0,0.0,0.0,0.0,0.0,0.0
4.08,50.0,75.98651574415786,50.0,50.96915958746904,50.0,20.10994993651697,50.0,34.03361035746098,50.0,50.0,50.0,50.0,50.0,0.0,0.0,0.0,0.0,0.0,-0.0,0.0,-0.0,0.0,0.0,0.0,0.0,0.0
4.09,50.0,75.98651574415786,50.0,50.96915958746904,50.0,20.10994993651697,50.0,34.03361035746098,50.0,50.0,50.0,50.0,50.0,0.0,0.0,0.0,0.0,0.0,-0.0,0.0,-0.0,0.0,0.0,0.0,0.0,0.0
4.1,50.0,75.98651574415786,50.0,50.96915958746904,50.0,20.10994993651697,50.0,34.03361035746098,50.0,50.0,50.0,50.0,50.0,0.0,0.0,0.0,0.0,0.0,-0.0,0.0,-0.0,0.0,0.0,0.0,0.0,0.0
4.11,50.0,75.98651574415786,50.0,50.96915958746904,50.0,20.10994993651697,50.0,34.03361035746098,50.0,50.0,50.0,50.0,50.0,0.0,0.0,0.0,0.0,0.0,-0.0,0.0,-0.0,0.0,0.0,0.0,0.0,0.0
4.12,50.0,75.98651574415786,50.0,50.96915958746904,50.0,20.10994993651697,50.0,34.03361035746098,50.0,50.0,50.0,50.0,50.0,0.0,0.0,0.0,0.0,0.0,-0.0,0.0,-0.0,0.0,0.0,0.0,0.0,0.0
4.13,50.0,75.98651574415786,50.0,50.96915958746904,50.0,20.10994993651697,50.0,34.03361035746098,50.0,50.0,50.0,50.0,50.0,0.0,0.0,0.0,0.0,0.0,-0.0,0.0,-0.0,0.0,0.0,0.0,0.0,0.0
4.14,50.0,75.98651574415786,50.0,50.96915958746904,50.0,20.10994993651697,50.0,34.03361035746098,50.0,50.0,50.0,50.0,50.0,0.0,0.0,0.0,0.0,0.0,-0.0,0.0,-0.0,0.0,0.0,0.0,0.0,0.0
4.15,50.0,75.98651574415786,50.0,50.96915958746904,50.0,20.10994993651697,50.0,34.03361035746098,50.0,50.0,50.0,50.0,50.0,0.0,0.0,0.0,0.0,0.0,-0.0,0.0,-0.0,0.0,0.0,0.0,0.0,0.0
4.16,50.0,75.98651574415786,50.0,50.96915958746904,50.0,20.10994993651697,50.0,34.03361035746098,50.0,50.0,50.0,50.0,50.0,0.0,0.0,0.0,0.0,0.0,-0.0,0.0,-0.0,0.0,0.0,0.0,0.0,0.0
4.17,50.0,75.98651574415786,50.0,50.96915958746904,50.0,20.10994993651697,50.0,34.03361035746098,50.0,50.0,50.0,50.0,50.0,0.0,0.0,0.0,0.0,0.0,-0.0,0.0,-0.0,0.0,0.0,0.0,0.0,0.0
4.18,50.0,75.98651574415786,50.0,50.96915958746904,50.0,20.10994993651697,50.0,34.03361035746098,50.0,50.0,50.0,50.0,50.0,0.0,0.0,0.0,0.0,0.0,-0.0,0.0,-0.0,0.0,0.0,0.0,0.0,0.0
4.19,50.0,75.98651574415786,50.0,50.96915958746904,50.0,20.10994993651697,50.0,34.03361035746098,50.0,50.0,50.0,50.0,50.0,0.0,0.0,0.0,0.0,0.0,-0.0,0.0,-0.0,0.0,0.0,0.0,0.0,0.0
4.2,50.0,75.98651574415786,50.0,50.96915958746904,50.0,20.10994993651697,50.0,34.03361035746098,50.0,50.0,50.0,50.0,50.0,0.0,0.0,0.0,0.0,0.0,-0.0,0.0,-0.0,0.0,0.0,0.0,0.0,0.0
4.21,50.0,75.98651574415786,50.0,50.96915958746904,50.0,20.10994993651697,50.0,34.03361035746098,50.0,50.0,50.0,50.0,50.0,0.0,0.0,0.0,0.0,0.0,-0.0,0.0,-0.0,0.0,0.0,0.0,0.0,0.0
4.22,50.0,75.98651574415786,50.0,50.96915958746904,50.0,20.10994993651697,50.0,34.03361035746098,50.0,50.0,50.0,50.0,50.0,0.0,0.0,0.0,0.0,0.0,-0.0,0.0,-0.0,0.0,0.0,0.0,0.0,0.0
4.23,50.0,75.98651574415786,50.0,50.96915958746904,50.0,20.10994993651697,50.0,34.03361035746098,50.0,50.0,50.0,50.0,50.0,0.0,0.0,0.0,0.0,0.0,-0.0,0.0,-0.0,0.0,0.0,0.0,0.0,0.0
4.24,50.0,75.98651574415786,50.0,50.96915958746904,50.0,20.10994993651697,50.0,34.03361035746098,50.0,50.0,50.0,50.0,50.0,0.0,0.0,0.0,0.0,0.0,-0.0,0.0,-0.0,0.0,0.0,0.0,0.0,0.0
4.25,50.0,75.98651574415786,50.0,50.96915958746904,50.0,20.10994993651697,50.0,34.03361035746098,50.0,50.0,50.0,50.0,50.0,0.0,0.0,0.0,0.0,0.0,-0.0,0.0,-0.0,0.0,0.0,0.0,0.0,0.0
4.26,50.0,75.98651574415786,50.0,50.96915958746904,50.0,20.10994993651697,50.0,34.03361035746098,50.0,50.0,50.0,50.0,50.0,0.0,0.0,0.0,0.0,0.0,-0.0,0.0,-0.0,0.0,0.0,0.0,0.0,0.0
4.27,50.0,75.98651574415786,50.0,50.96915958746904,50.0,20.10994993651697,50.0,34.03361035746098,50.0,50.0,50.0,50.0,50.0,0.0,0.0,0.0,0.0,0.0,-0.0,0.0,-0.0,0.0,0.0,0.0,0.0,0.0
4.28,50.0,75.98651574415786,50.0,50.96915958746904,50.0,20.10994993651697,50.0,34.03361035746098,50.0,50.0,50.0,50.0,50.0,0.0,0.0,0.0,0.0,0.0,-0.0,0.0,-0.0,0.0,0.0,0.0,0.0,0.0
4.29,50.0,75.98651574415786,50.0,50.96915958746904,50.0,20.10994993651697,50.0,34.03361035746098,50.0,50.0,50.0,50.0,50.0,0.0,0.0,0.0,0.0,0.0,-0.0,0.0,-0.0,0.0,0.0,0.0,0.0,0.0
4.3,50.0,75.98651574415786,50.0,50.96915958746904,50.0,20.10994993651697,50.0,34.03361035746098,50.0,50.0,50.0,50.0,50.0,0.0,0.0,0.0,0.0,0.0,-0.0,0.0,-0.0,0.0,0.0,0.0,0.0,0.0
4.31,50.0,75.98651574415786,50.0,50.96915958746904,50.0,20.10994993651697,50.0,34.03361035746098,50.0,50.0,50.0,50.0,50.0,0.0,0.0,0.0,0.0,0.0,-0.0,0.0,-0.0,0.0,0.0,0.0,0.0,0.0
4.32,50.0,75.98651574415786,50.0,50.96915958746904,50.0,20.10994993651697,50.0,34.03361035746098,50.0,50.0,50.0,50.0,50.0,0.0,0.0,0.0,0.0,0.0,-0.0,0.0,-0.0,0.0,0.0,0.0,0.0,0.0
4.33,50.0,75.98651574415786,50.0,50.96915958746904,50.0,20.10994993651697,50.0,34.03361035746098,50.0,50.0,50.0,50.0,50.0,0.0,0.0,0.0,0.0,0.0,-0.0,0.0,-0.0,0.0,0.0,0.0,0.0,0.0
4.34,50.0,75.98651574415786,50.0,50.96915958746904,50.0,20.10994993651697,50.0,34.03361035746098,50.0,50.0,50.0,50.0,50.0,0.0,0.0,0.0,0.0,0.0,-0.0,0.0,-0.0,0.0,0.0,0.0,0.0,0.0
4.35,50.0,75.98651574415786,50.0,50.96915958746904,50.0,20.10994993651697,50.0,34.03361035746098,50.0,50.0,50.0,50.0,50.0,0.0,0.0,0.0,0.0,0.0,-0.0,0.0,-0.0,0.0,0.0,0.0,0.0,0.0
4.36,50.0,75.98651574415786,50.0,50.96915958746904,50.0,20.10994993651697,50.0,34.03361035746098,50.0,50.0,50.0,50.0,50.0,0.0,0.0,0.0,0.0,0.0,-0.0,0.0,-0.0,0.0,0.0,0.0,0.0,0.0
4.37,50.0,75.98651574415786,50.0,50.96915958746904,50.0,20.10994993651697,50.0,34.03361035746098,50.0,50.0,50.0,50.0,50.0,0.0,0.0,0.0,0.0,0.0,-0.0,0.0,-0.0,0.0,0.0,0.0,0.0,0.0
4.38,50.0,75.98651574415786,50.0,50.96915958746904,50.0,20.10994993651697,50.0,34.03361035746098,50.0,50.0,50.0,50.0,50.0,0.0,0.0,0.0,0.0,0.0,-0.0,0.0,-0.0,0.0,0.0,0.0,0.0,0.0
4.39,50.0,75.98651574415786,50.0,50.96915958746904,50.0,20.10994993651697,50.0,34.03361035746098,50.0,50.0,50.0,50.0,50.0,0.0,0.0,0.0,0.0,0.0,-0.0,0.0,-0.0,0.0,0.0,0.0,0.0,0.0
4.4,50.0,75.98651574415786,50.0,50.96915958746904,50.0,20.10994993651697,50.0,34.03361035746098,50.0,50.0,50.0,50.0,50.0,0.0,0.0,0.0,0.0,0.0,-0.0,0.0,-0.0,0.0,0.0,0.0,0.0,0.0
4.41,50.0,75.98651574415786,50.0,50.96915958746904,50.0,20.10994993651697,50.0,34.03361035746098,50.0,50.0,50.0,50.0,50.0,0.0,0.0,0.0,0.0,0.0,-0.0,0.0,-0.0,0.0,0.0,0.0,0.0,0.0
4.42,50.0,75.98651574415786,50.0,50.96915958746904,50.0,20.10994993651697,50.0,34.03361035746098,50.0,50.0,50.0,50.0,50.0,0.0,0.0,0.0,0.0,0.0,-0.0,0.0,-0.0,0.0,0.0,0.0,0.0,0.0
4.43,50.0,75.98651574415786,50.0,50.96915958746904,50.0,20.10994993651697,50.0,34.03361035746098,50.0,50.0,50.0,50.0,50.0,0.0,0.0,0.0,0.0,0.0,-0.0,0.0,-0.0,0.0,0.0,0.0,0.0,0.0
4.44,50.0,75.98651574415786,50.0,50.96915958746904,50.0,20.10994993651697,50.0,34.03361035746098,50.0,50.0,50.0,50.0,50.0,0.0,0.0,0.0,0.0,0.0,-0.0,0.0,-0.0,0.0,0.0,0.0,0.0,0.0
4.45,50.0,75.98651574415786,50.0,50.96915958746904,50.0,20.10994993651697,50.0,34.03361035746098,50.0,50.0,50.0,50.0,50.0,0.0,0.0,0.0,0.0,0.0,-0.0,0.0,-0.0,0.0,0.0,0.0,0.0,0.0
4.46,50.0,75.98651574415786,50.0,50.96915958746904,50.0,20.10994993651697,50.0,34.03361035746098,50.0,50.0,50.0,50.0,50.0,0.0,0.0,0.0,0.0,0.0,-0.0,0.0,-0.0,0.0,0.0,0.0,0.0,0.0
4.47,50.0,75.98651574415786,50.0,50.96915958746904,50.0,20.10994993651697,50.0,34.03361035746098,50.0,50.0,50.0,50.0,50.0,0.0,0.0,0.0,0.0,0.0,-0.0,0.0,-0.0,0.0,0.0,0.0,0.0,0.0
4.48,50.0,75.98651574415786,50.0,50.96915958746904,50.0,20.10994993651697,50.0,34.03361035746098,50.0,50.0,50.0,50.0,50.0,0.0,0.0,0.0,0.0,0.0,-0.0,0.0,-0.0,0.0,0.0,0.0,0.0,0.0
4.49,50.0,75.98651574415786,50.0,50.96915958746904,50.0,20.10994993651697,50.0,34.03361035746098,50.0,50.0,50.0,50.0,50.0,0.0,0.0,0.0,0.0,0.0,-0.0,0.0,-0.0,0.0,0.0,0.0,0.0,0.0
4.5,50.0,75.98651574415786,50.0,50.96915958746904,50.0,20.10994993651697,50.0,34.03361035746098,50.0,50.0,50.0,50.0,50.0,0.0,0.0,0.0,0.0,0.0,-0.0,0.0,-0.0,0.0,0.0,0.0,0.0,0.0
4.51,50.0,75.98651574415786,50.0,50.96915958746904,50.0,20.10994993651697,50.0,34.03361035746098,50.0,50.0,50.0,50.0,50.0,0.0,0.0,0.0,0.0,0.0,-0.0,0.0,-0.0,0.0,0.0,0.0,0.0,0.0
4.52,50.0,75.98651574415786,50.0,50.96915958746904,50.0,20.10994993651697,50.0,8.006983295818912,50.0,50.0,50.0,50.0,50.0,0.0,0.0,0.0,0.0,0.0,-0.0,0.0,-0.0,0.0,0.0,0.0,0.0,0.0
4.53,50.0,75.98651574415786,50.0,50.96915958746904,50.0,20.10994993651697,50.0,8.006983295818912,50.0,50.0,50.0,50.0,50.0,0.0,0.0,0.0,0.0,0.0,-0.0,0.0,-0.0,0.0,0.0,0.0,0.0,0.0
4.54,50.0,75.98651574415786,50.0,50.96915958746904,50.0,20.10994993651697,50.0,8.006983295818912,50.0,50.0,50.0,50.0,50.0,0.0,0.0,0.0,0.0,0.0,-0.0,0.0,-0.0,0.0,0.0,0.0,0.0,0.0
4.55,50.0,75.98651574415786,50.0,50.96915958746904,50.0,20.10994993651697,50.0,8.006983295818912,50.0,50.0,50.0,50.0,50.0,0.0,0.0,0.0,0.0,0.0,-0.0,0.0,-0.0,0.0,0.0,0.0,0.0,0.0
4.56,50.0,75.98651574415786,50.0,50.96915958746904,50.0,20.10994993651697,50.0,8.006983295818912,50.0,50.0,50.0,50.0,50.0,0.0,0.0,0.0,0.0,0.0,-0.0,0.0,-0.0,0.0,0.0,0.0,0.0,0.0
4.57,50.0,75.98651574415786,50.0,50.96915958746904,50.0,20.10994993651697,50.0,8.006983295818912,50.0,50.0,50.0,50.0,50.0,0.0,0.0,0.0,0.0,0.0,-0.0,0.0,-0.0,0.0,0.0,0.0,0.0,0.0
4.58,50.0,75.98651574415786,50.0,50.96915958746904,50.0,20.10994993651697,50.0,8.006983295818912,50.0,50.0,50.0,50.0,50.0,0.0,0.0,0.0,0.0,0.0,-0.0,0.0,-0.0,0.0,0.0,0.0,0.0,0.0
4.59,50.0,75.98651574415786,50.0,50.96915958746904,50.0,20.10994993651697,50.0,8.006983295818912,50.0,50.0,50.0,50.0,50.0,0.0,0.0,0.0,0.0,0.0,-0.0,0.0,-0.0,0.0,0.0,0.0,0.0,0.0
4.6,50.0,75.98651574415786,50.0,50.96915958746904,50.0,20.10994993651697,50.0,8.006983295818912,50.0,50.0,50.0,50.0,50.0,0.0,0.0,0.0,0.0,0.0,-0.0,0.0,-0.0,0.0,0.0,0.0,0.0,0.0
4.61,50.0,75.98651574415786,50.0,50.96915958746904,50.0,20.10994993651697,50.0,8.006983295818912,50.0,50.0,50.0,50.0,50.0,0.0,0.0,0.0,0.0,0.0,-0.0,0.0,-0.0,0.0,0.0,0.0,0.0,0.0
4.62,50.0,75.98651574415786,50.0,50.96915958746904,50.0,20.10994993651697,50.0,8.006983295818912,50.0,50.0,50.0,50.0,50.0,0.0,0.0,0.0,0.0,0.0,-0.0,0.0,-0.0,0.0,0.0,0.0,0.0,0.0
4.63,50.0,75.98651574415786,50.0,50.96915958746904,50.0,20.10994993651697,50.0,8.006983295818912,50.0,50.0,50.0,50.0,50.0,0.0,0.0,0.0,0.0,0.0,-0.0,0.0,-0.0,0.0,0.0,0.0,0.0,0.0
4.64,50.0,75.98651574415786,50.0,50.96915958746904,50.0,20.10994993651697,50.0,8.006983295818912,50.0,50.0,50.0,50.0,50.0,0.0,0.0,0.0,0.0,0.0,-0.0,0.0,-0.0,0.0,0.0,0.0,0.0,0.0
4.65,50.0,75.98651574415786,50.0,50.96915958746904,50.0,20.10994993651697,50.0,8.006983295818912,50.0,50.0,50.0,50.0,50.0,0.0,0.0,0.0,0.0,0.0,-0.0,0.0,-0.0,0.0,0.0,0.0,0.0,0.0
4.66,50.0,75.98651574415786,50.0,50.96915958746904,50.0,20.10994993651697,50.0,8.006983295818912,50.0,50.0,50.0,50.0,50.0,0.0,0.0,0.0,0.0,0.0,-0.0,0.0,-0.0,0.0,0.0,0.0,0.0,0.0
4.67,50.0,75.98651574415786,50.0,50.96915958746904,50.0,20.10994993651697,50.0,8.006983295818912,50.0,50.0,50.0,50.0,50.0,0.0,0.0,0.0,0.0,0.0,-0.0,0.0,-0.0,0.0,0.0,0.0,0.0,0.0
4.68,50.0,75.98651574415786,50.0,50.96915958746904,50.0,20.10994993651697,50.0,8.006983295818912,50.0,50.0,50.0,50.0,50.0,0.0,0.0,0.0,0.0,0.0,-0.0,0.0,-0.0,0.0,0.0,0.0,0.0,0.0
4.69,50.0,75.98651574415786,50.0,50.96915958746904,50.0,20.10994993651697,50.0,8.006983295818912,50.0,50.0,50.0,50.0,50.0,0.0,0.0,0.0,0.0,0.0,-0.0,0.0,-0.0,0.0,0.0,0.0,0.0,0.0
4.7,50.0,75.98651574415786,50.0,50.96915958746904,50.0,20.10994993651697,50.0,8.006983295818912,50.0,50.0,50.0,50.0,50.0,0.0,0.0,0.0,0.0,0.0,-0.0,0.0,-0.0,0.0,0.0,0.0,0.0,0.0
4.71,50.0,75.98651574415786,50.0,50.96915958746904,50.0,20.10994993651697,50.0,8.006983295818912,50.0,50.0,50.0,50.0,50.0,0.0,0.0,0.0,0.0,0.0,-0.0,0.0,-0.0,0.0,0.0,0.0,0.0,0.0
4.72,50.0,75.98651574415786,50.0,50.96915958746904,50.0,20.10994993651697,50.0,8.006983295818912,50.0,50.0,50.0,50.0,50.0,0.0,0.0,0.0,0.0,0.0,-0.0,0.0,-0.0,0.0,0.0,0.0,0.0,0.0
4.73,50.0,75.98651574415786,50.0,50.96915958746904,50.0,20.10994993651697,50.0,8.006983295818912,50.0,50.0,50.0,50.0,50.0,0.0,0.0,0.0,0.0,0.0,-0.0,0.0,-0.0,0.0,0.0,0.0,0.0,0.0
4.74,50.0,75.98651574415786,50.0,50.96915958746904,50.0,20.10994993651697,50.0,8.006983295818912,50.0,50.0,50.0,50.0,50.0,0.0,0.0,0.0,0.0,0.0,-0.0,0.0,-0.0,0.0,0.0,0.0,0.0,0.0
4.75,50.0,75.98651574415786,50.0,50.96915958746904,50.0,20.10994993651697,50.0,8.006983295818912,50.0,50.0,50.0,50.0,50.0,0.0,0.0,0.0,0.0,0.0,-0.0,0.0,-0.0,0.0,0.0,0.0,0.0,0.0
4.76,50.0,75.98651574415786,50.0,50.96915958746904,50.0,20.10994993651697,50.0,8.006983295818912,50.0,50.0,50.0,50.0,50.0,0.0,0.0,0.0,0.0,0.0,-0.0,0.0,-0.0,0.0,0.0,0.0,0.0,0.0
4.77,50.0,75.98651574415786,50.0,50.96915958746904,50.0,20.10994993651697,50.0,8.006983295818912,50.0,50.0,50.0,50.0,50.0,0.0,0.0,0.0,0.0,0.0,-0.0,0.0,-0.0,0.0,0.0,0.0,0.0,0.0
4.78,50.0,75.98651574415786,50.0,50.96915958746904,50.0,20.10994993651697,50.0,8.006983295818912,50.0,50.0,50.0,50.0,50.0,0.0,0.0,0.0,0.0,0.0,-0.0,0.0,-0.0,0.0,0.0,0.0,0.0,0.0
4.79,50.0,75.98651574415786,50.0,50.96915958746904,50.0,20.10994993651697,50.0,8.006983295818912,50.0,50.0,50.0,50.0,50.0,0.0,0.0,0.0,0.0,0.0,-0.0,0.0,-0.0,0.0,0.0,0.0,0.0,0.0
4.8,50.0,75.98651574415786,50.0,50.96915958746904,50.0,20.10994993651697,50.0,8.006983295818912,50.0,50.0,50.0,50.0,50.0,0.0,0.0,0.0,0.0,0.0,-0.0,0.0,-0.0,0.0,0.0,0.0,0.0,0.0
4.81,50.0,75.98651574415786,50.0,50.96915958746904,50.0,20.10994993651697,50.0,8.006983295818912,50.0,50.0,50.0,50.0,50.0,0.0,0.0,0.0,0.0,0.0,-0.0,0.0,-0.0,0.0,0.0,0.0,0.0,0.0
4.82,50.0,75.98651574415786,50.0,50.96915958746904,50.0,20.10994993651697,50.0,8.006983295818912,50.0,50.0,50.0,50.0,50.0,0.0,0.0,0.0,0.0,0.0,-0.0,0.0,-0.0,0.0,0.0,0.0,0.0,0.0
4.83,50.0,75.98651574415786,50.0,50.96915958746904,50.0,20.10994993651697,50.0,8.006983295818912,50.0,50.0,50.0,50.0,50.0,0.0,0.0,0.0,0.0,0.0,-0.0,0.0,-0.0,0.0,0.0,0.0,0.0,0.0
4.84,50.0,75.98651574415786,50.0,50.96915958746904,50.0,20.10994993651697,50.0,8.006983295818912,50.0,50.0,50.0,50.0,50.0,0.0,0.0,0.0,0.0,0.0,-0.0,0.0,-0.0,0.0,0.0,0.0,0.0,0.0
4.85,50.0,75.98651574415786,50.0,50.96915958746904,50.0,42.41474197321104,50.0,8.006983295818912,50.0,50.0,50.0,50.0,50.0,0.0,0.0,0.0,0.0,0.0,0.0,0.0,-0.0,0.0,0.0,0.0,0.0,0.0
4.86,50.0,75.98651574415786,50.0,82.61945900414055,50.0,42.41474197321104,50.0,8.006983295818912,50.0,50.0,50.0,50.0,50.0,0.0,0.0,0.0,0.0,0.0,0.0,0.0,-0.0,0.0,0.0,0.0,0.0,0.0
4.87,50.0,75.98651574415786,50.0,82.61945900414055,50.0,42.41474197321104,50.0,8.006983295818912,50.0,50.0,50.0,50.0,50.0,0.0,0.0,0.0,0.0,0.0,0.0,0.0,-0.0,0.0,0.0,0.0,0.0,0.0
4.88,50.0,75.98651574415786,50.0,82.61945900414055,50.0,42.41474197321104,50.0,8.006983295818912,50.0,50.0,50.0,50.0,50.0,0.0,0.0,0.0,0.0,0.0,0.0,0.0,-0.0,0.0,0.0,0.0,0.0,0.0
4.89,50.0,75.98651574415786,50.0,82.61945900414055,50.0,42.41474197321104,50.0,8.006983295818912,50.0,50.0,50.0,50.0,50.0,0.0,0.0,0.0,0.0,0.0,0.0,0.0,-0.0,0.0,0.0,0.0,0.0,0.0
4.9,50.0,75.98651574415786,50.0,82.61945900414055,50.0,42.41474197321104,50.0,8.006983295818912,50.0,50.0,50.0,50.0,50.0,0.0,0.0,0.0,0.0,0.0,0.0,0.0,-0.0,0.0,0.0,0.0,0.0,0.0
4.91,50.0,75.98651574415786,50.0,82.61945900414055,50.0,42.41474197321104,50.0,8.006983295818912,50.0,50.0,50.0,50.0,50.0,0.0,0.0,0.0,0.0,0.0,0.0,0.0,-0.0,0.0,0.0,0.0,0.0,0.0
4.92,50.0,75.98651574415786,50.0,82.61945900414055,50.0,42.41474197321104,50.0,8.006983295818912,50.0,50.0,50.0,50.0,50.0,0.0,0.0,0.0,0.0,0.0,0.0,0.0,-0.0,0.0,0.0,0.0,0.0,0.0
4.93,50.0,75.98651574415786,50.0,82.61945900414055,50.0,42.41474197321104,50.0,8.006983295818912,50.0,50.0,50.0,50.0,50.0,0.0,0.0,0.0,0.0,0.0,0.0,0.0,-0.0,0.0,0.0,0.0,0.0,0.0
4.94,50.0,75.98651574415786,50.0,82.61945900414055,50.0,42.41474197321104,50.0,8.006983295818912,50.0,50.0,50.0,50.0,50.0,0.0,0.0,0.0,0.0,0.0,0.0,0.0,-0.0,0.0,0.0,0.0,0.0,0.0
4.95,50.0,75.98651574415786,50.0,82.61945900414055,50.0,42.41474197321104,50.0,8.006983295818912,50.0,50.0,50.0,50.0,50.0,0.0,0.0,0.0,0.0,0.0,0.0,0.0,-0.0,0.0,0.0,0.0,0.0,0.0
4.96,50.0,75.98651574415786,50.0,82.61945900414055,50.0,42.41474197321104,50.0,8.006983295818912,50.0,50.0,50.0,50.0,50.0,0.0,0.0,0.0,0.0,0.0,0.0,0.0,-0.0,0.0,0.0,0.0,0.0,0.0
4.97,50.0,75.98651574415786,50.0,82.61945900414055,50.0,42.41474197321104,50.0,8.006983295818912,50.0,50.0,50.0,50.0,50.0,0.0,0.0,0.0,0.0,0.0,0.0,0.0,-0.0,0.0,0.0,0.0,0.0,0.0
4.98,50.0,75.98651574415786,50.0,82.61945900414055,50.0,42.41474197321104,50.0,8.006983295818912,50.0,50.0,50.0,50.0,50.0,0.0,0.0,0.0,0.0,0.0,0.0,0.0,-0.0,0.0,0.0,0.0,0.0,0.0
4.99,50.0,75.98651574415786,50.0,82.61945900414055,50.0,42.41474197321104,50.0,8.006983295818912,50.0,50.0,50.0,50.0,50.0,0.0,0.0,0.0,0.0,0.0,0.0,0.0,-0.0,0.0,0.0,0.0,0.0,0.0
5.0,50.0,92.40902831639413,50.0,82.61945900414055,50.0,42.41474197321104,50.0,8.006983295818912,50.0,50.0,50.0,50.0,50.0,0.0,0.0,0.0,0.0,0.0,0.0,0.0,-0.0,0.0,0.0,0.0,0.0,0.0
5.01,50.0,92.40902831639413,50.0,82.61945900414055,50.0,42.41474197321104,50.0,8.006983295818912,50.0,50.0,50.0,50.0,50.0,0.0,0.0,0.0,0.0,0.0,0.0,0.0,-0.0,0.0,0.0,0.0,0.0,0.0
5.02,50.0,92.40902831639413,50.0,82.61945900414055,50.0,42.41474197321104,50.0,8.006983295818912,50.0,50.0,50.0,50.0,50.0,0.0,0.0,0.0,0.0,0.0,0.0,0.0,-0.0,0.0,0.0,0.0,0.0,0.0
5.03,50.0,92.40902831639413,50.0,82.61945900414055,50.0,42.41474197321104,50.0,8.006983295818912,50.0,50.0,50.0,50.0,50.0,0.0,0.0,0.0,0.0,0.0,0.0,0.0,-0.0,0.0,0.0,0.0,0.0,0.0
5.04,50.0,92.40902831639413,50.0,82.61945900414055,50.0,42.41474197321104,50.0,8.006983295818912,50.0,50.0,50.0,50.0,50.0,0.0,0.0,0.0,0.0,0.0,0.0,0.0,-0.0,0.0,0.0,0.0,0.0,0.0
5.05,50.0,92.40902831639413,50.0,82.61945900414055,50.0,42.41474197321104,50.0,8.006983295818912,50.0,50.0,50.0,50.0,50.0,0.0,0.0,0.0,0.0,0.0,0.0,0.0,-0.0,0.0,0.0,0.0,0.0,0.0
5.06,50.0,92.40902831639413,50.0,82.61945900414055,50.0,42.41474197321104,50.0,8.006983295818912,50.0,50.0,50.0,50.0,50.0,0.0,0.0,0.0,0.0,0.0,0.0,0.0,-0.0,0.0,0.0,0.0,0.0,0.0
5.07,50.0,92.40902831639413,50.0,82.61945900414055,50.0,42.41474197321104,50.0,8.006983295818912,50.0,50.0,50.0,50.0,50.0,0.0,0.0,0.0,0.0,0.0,0.0,0.0,-0.0,0.0,0.0,0.0,0.0,0.0
5.08,50.0,92.40902831639413,50.0,82.61945900414055,50.0,42.41474197321104,50.0,8.006983295818912,50.0,50.0,50.0,50.0,50.0,0.0,0.0,0.0,0.0,0.0,0.0,0.0,-0.0,0.0,0.0,0.0,0.0,0.0
5.09,50.0,92.40902831639413,50.0,82.61945900414055,50.0,42.41474197321104,50.0,8.006983295818912,50.0,50.0,50.0,50.0,50.0,0.0,0.0,0.0,0.0,0.0,0.0,0.0,-0.0,0.0,0.0,0.0,0.0,0.0
5.1,50.0,92.40902831639413,50.0,82.61945900414055,50.0,42.41474197321104,50.0,8.006983295818912,50.0,50.0,50.0,50.0,50.0,0.0,0.0,0.0,0.0,0.0,0.0,0.0,-0.0,0.0,0.0,0.0,0.0,0.0
5.11,50.0,92.40902831639413,50.0,82.61945900414055,50.0,42.41474197321104,50.0,8.006983295818912,50.0,50.0,50.0,50.0,50.0,0.0,0.0,0.0,0.0,0.0,0.0,0.0,-0.0,0.0,0.0,0.0,0.0,0.0
5.12,50.0,92.40902831639413,50.0,82.61945900414055,50.0,42.41474197321104,50.0,8.006983295818912,50.0,50.0,50.0,50.0,50.0,0.0,0.0,0.0,0.0,0.0,0.0,0.0,-0.0,0.0,0.0,0.0,0.0,0.0
5.13,50.0,92.40902831639413,50.0,82.61945900414055,50.0,42.41474197321104,50.0,8.006983295818912,50.0,50.0,50.0,50.0,50.0,0.0,0.0,0.0,0.0,0.0,0.0,0.0,-0.0,0.0,0.0,0.0,0.0,0.0
5.14,50.0,92.40902831639413,50.0,82.61945900414055,50.0,42.41474197321104,50.0,8.006983295818912,50.0,50.0,50.0,50.0,50.0,0.0,0.0,0.0,0.0,0.0,0.0,0.0,-0.0,0.0,0.0,0.0,0.0,0.0
5.15,50.0,92.40902831639413,50.0,82.61945900414055,50.0,42.41474197321104,50.0,8.006983295818912,50.0,50.0,50.0,50.0,50.0,0.0,0.0,0.0,0.0,0.0,0.0,0.0,-0.0,0.0,0.0,0.0,0.0,0.0
5.16,50.0,92.40902831639413,50.0,82.61945900414055,50.0,42.41474197321104,50.0,8.006983295818912,50.0,50.0,50.0,50.0,50.0,0.0,0.0,0.0,0.0,0.0,0.0,0.0,-0.0,0.0,0.0,0.0,0.0,0.0
5.17,50.0,92.40902831639413,50.0,82.61945900414055,50.0,42.41474197321104,50.0,8.006983295818912,50.0,50.0,50.0,50.0,50.0,0.0,0.0,0.0,0.0,0.0,0.0,0.0,-0.0,0.0,0.0,0.0,0.0,0.0
5.18,50.0,92.40902831639413,50.0,82.61945900414055,50.0,42.41474197321104,50.0,8.006983295818912,50.0,50.0,50.0,50.0,50.0,0.0,0.0,0.0,0.0,0.0,0.0,0.0,-0.0,0.0,0.0,0.0,0.0,0.0
5.19,50.0,92.40902831639413,50.0,82.61945900414055,50.0,42.41474197321104,50.0,8.006983295818912,50.0,50.0,50.0,50.0,50.0,0.0,0.0,0.0,0.0,0.0,0.0,0.0,-0.0,0.0,0.0,0.0,0.0,0.0
5.2,50.0,92.40902831639413,50.0,82.61945900414055,50.0,42.41474197321104,50.0,8.006983295818912,50.0,50.0,50.0,50.0,50.0,0.0,0.0,0.0,0.0,0.0,0.0,0.0,-0.0,0.0,0.0,0.0,0.0,0.0
5.21,50.0,92.40902831639413,50.0,82.61945900414055,50.0,42.41474197321104,50.0,8.006983295818912,50.0,50.0,50.0,50.0,50.0,0.0,0.0,0.0,0.0,0.0,0.0,0.0,-0.0,0.0,0.0,0.0,0.0,0.0
5.22,50.0,92.40902831639413,50.0,82.61945900414055,50.0,42.41474197321104,50.0,8.006983295818912,50.0,50.0,50.0,50.0,50.0,0.0,0.0,0.0,0.0,0.0,0.0,0.0,-0.0,0.0,0.0,0.0,0.0,0.0
5.23,50.0,92.40902831639413,50.0,82.61945900414055,50.0,42.41474197321104,50.0,8.006983295818912,50.0,50.0,50.0,50.0,50.0,0.0,0.0,0.0,0.0,0.0,0.0,0.0,-0.0,0.0,0.0,0.0,0.0,0.0
5.24,50.0,92.40902831639413,50.0,82.61945900414055,50.0,42.41474197321104,50.0,8.006983295818912,50.0,50.0,50.0,50.0,50.0,0.0,0.0,0.0,0.0,0.0,0.0,0.0,-0.0,0.0,0.0,0.0,0.0,0.0
5.25,50.0,92.40902831639413,50.0,82.61945900414055,50.0,42.41474197321104,50.0,8.006983295818912,50.0,50.0,50.0,50.0,50.0,0.0,0.0,0.0,0.0,0.0,0.0,0.0,-0.0,0.0,0.0,0.0,0.0,0.0
5.26,50.0,92.40902831639413,50.0,82.61945900414055,50.0,42.41474197321104,50.0,8.006983295818912,50.0,50.0,50.0,50.0,50.0,0.0,0.0,0.0,0.0,0.0,0.0,0.0,-0.0,0.0,0.0,0.0,0.0,0.0
5.27,50.0,92.40902831639413,50.0,82.61945900414055,50.0,42.41474197321104,50.0,8.006983295818912,50.0,50.0,50.0,50.0,50.0,0.0,0.0,0.0,0.0,0.0,0.0,0.0,-0.0,0.0,0.0,0.0,0.0,0.0
5.28,50.0,92.40902831639413,50.0,82.61945900414055,50.0,42.41474197321104,50.0,8.006983295818912,50.0,50.0,50.0,50.0,50.0,0.0,0.0,0.0,0.0,0.0,0.0,0.0,-0.0,0.0,0.0,0.0,0.0,0.0
5.29,50.0,92.40902831639413,50.0,82.61945900414055,50.0,42.41474197321104,50.0,8.006983295818912,50.0,50.0,50.0,50.0,50.0,0.0,0.0,0.0,0.0,0.0,0.0,0.0,-0.0,0.0,0.0,0.0,0.0,0.0
5.3,50.0,92.40902831639413,50.0,82.61945900414055,50.0,42.41474197321104,50.0,8.006983295818912,50.0,50.0,50.0,50.0,50.0,0.0,0.0,0.0,0.0,0.0,0.0,0.0,-0.0,0.0,0.0,0.0,0.0,0.0
5.31,50.0,92.40902831639413,50.0,82.61945900414055,50.0,42.41474197321104,50.0,8.006983295818912,50.0,50.0,50.0,50.0,50.0,0.0,0.0,0.0,0.0,0.0,0.0,0.0,-0.0,0.0,0.0,0.0,0.0,0.0
5.32,50.0,92.40902831639413,50.0,82.61945900414055,50.0,42.41474197321104,50.0,8.006983295818912,50.0,50.0,50.0,50.0,50.0,0.0,0.0,0.0,0.0,0.0,0.0,0.0,-0.0,0.0,0.0,0.0,0.0,0.0
5.33,50.0,92.40902831639413,50.0,82.61945900414055,50.0,42.41474197321104,50.0,8.006983295818912,50.0,50.0,50.0,50.0,50.0,0.0,0.0,0.0,0.0,0.0,0.0,0.0,-0.0,0.0,0.0,0.0,0.0,0.0
5.34,50.0,92.40902831639413,50.0,82.61945900414055,50.0,42.41474197321104,50.0,8.006983295818912,50.0,50.0,50.0,50.0,50.0,0.0,0.0,0.0,0.0,0.0,0.0,0.0,-0.0,0.0,0.0,0.0,0.0,0.0
5.35,50.0,92.40902831639413,50.0,82.61945900414055,50.0,42.41474197321104,50.0,8.006983295818912,50.0,50.0,50.0,50.0,50.0,0.0,0.0,0.0,0.0,0.0,0.0,0.0,-0.0,0.0,0.0,0.0,0.0,0.0
5.36,50.0,92.40902831639413,50.0,82.61945900414055,50.0,42.41474197321104,50.0,8.006983295818912,50.0,50.0,50.0,50.0,50.0,0.0,0.0,0.0,0.0,0.0,0.0,0.0,-0.0,0.0,0.0,0.0,0.0,0.0
5.37,50.0,92.40902831639413,50.0,82.61945900414055,50.0,42.41474197321104,50.0,8.006983295818912,50.0,50.0,50.0,50.0,50.0,0.0,0.0,0.0,0.0,0.0,0.0,0.0,-0.0,0.0,0.0,0.0,0.0,0.0
5.38,50.0,92.40902831639413,50.0,82.61945900414055,50.0,42.41474197321104,50.0,8.006983295818912,50.0,50.0,50.0,50.0,50.0,0.0,0.0,0.0,0.0,0.0,0.0,0.0,-0.0,0.0,0.0,0.0,0.0,0.0
5.39,50.0,92.40902831639413,50.0,82.61945900414055,50.0,42.41474197321104,50.0,8.006983295818912,50.0,50.0,50.0,50.0,50.0,0.0,0.0,0.0,0.0,0.0,0.0,0.0,-0.0,0.0,0.0,0.0,0.0,0.0
5.4,50.0,92.40902831639413,50.0,82.61945900414055,50.0,42.41474197321104,50.0,8.006983295818912,50.0,50.0,50.0,50.0,50.0,0.0,0.0,0.0,0.0,0.0,0.0,0.0,-0.0,0.0,0.0,0.0,0.0,0.0
5.41,50.0,92.40902831639413,50.0,82.61945900414055,50.0,42.41474197321104,50.0,8.006983295818912,50.0,50.0,50.0,50.0,50.0,0.0,0.0,0.0,0.0,0.0,0.0,0.0,-0.0,0.0,0.0,0.0,0.0,0.0
5.42,50.0,92.40902831639413,50.0,82.61945900414055,50.0,42.41474197321104,50.0,8.006983295818912,50.0,50.0,50.0,50.0,50.0,0.0,0.0,0.0,0.0,0.0,0.0,0.0,-0.0,0.0,0.0,0.0,0.0,0.0
5.43,50.0,92.40902831639413,50.0,82.61945900414055,50.0,42.41474197321104,50.0,8.006983295818912,50.0,50.0,50.0,50.0,50.0,0.0,0.0,0.0,0.0,0.0,0.0,0.0,-0.0,0.0,0.0,0.0,0.0,0.0
5.44,50.0,92.40902831639413,50.0,82.61945900414055,50.0,42.41474197321104,50.0,8.006983295818912,50.0,50.0,50.0,50.0,50.0,0.0,0.0,0.0,0.0,0.0,0.0,0.0,-0.0,0.0,0.0,0.0,0.0,0.0
5.45,50.0,92.40902831639413,50.0,82.61945900414055,50.0,42.41474197321104,50.0,8.006983295818912,50.0,50.0,50.0,50.0,50.0,0.0,0.0,0.0,0.0,0.0,0.0,0.0,-0.0,0.0,0.0,0.0,0.0,0.0
5.46,50.0,92.40902831639413,50.0,82.61945900414055,50.0,42.41474197321104,50.0,8.006983295818912,50.0,50.0,50.0,50.0,50.0,0.0,0.0,0.0,0.0,0.0,0.0,0.0,-0.0,0.0,0.0,0.0,0.0,0.0
5.47,50.0,92.40902831639413,50.0,82.61945900414055,50.0,42.41474197321104,50.0,8.006983295818912,50.0,50.0,50.0,50.0,50.0,0.0,0.0,0.0,0.0,0.0,0.0,0.0,-0.0,0.0,0.0,0.0,0.0,0.0
5.48,50.0,92.40902831639413,50.0,82.61945900414055,50.0,42.41474197321104,50.0,8.006983295818912,50.0,50.0,50.0,50.0,50.0,0.0,0.0,0.0,0.0,0.0,0.0,0.0,-0.0,0.0,0.0,0.0,0.0,0.0
5.49,50.0,92.40902831639413,50.0,82.61945900414055,50.0,42.41474197321104,50.0,8.006983295818912,50.0,50.0,50.0,50.0,50.0,0.0,0.0,0.0,0.0,0.0,0.0,0.0,-0.0,0.0,0.0,0.0,0.0,0.0
5.5,50.0,92.40902831639413,50.0,82.61945900414055,50.0,42.41474197321104,50.0,8.006983295818912,50.0,50.0,50.0,50.0,50.0,0.0,0.0,0.0,0.0,0.0,0.0,0.0,-0.0,0.0,0.0,0.0,0.0,0.0
5.51,50.0,92.40902831639413,50.0,82.61945900414055,50.0,42.41474197321104,50.0,8.006983295818912,50.0,50.0,50.0,50.0,50.0,0.0,0.0,0.0,0.0,0.0,0.0,0.0,-0.0,0.0,0.0,0.0,0.0,0.0
5.52,50.0,92.40902831639413,50.0,82.61945900414055,50.0,42.41474197321104,50.0,8.006983295818912,50.0,50.0,50.0,50.0,50.0,0.0,0.0,0.0,0.0,0.0,0.0,0.0,-0.0,0.0,0.0,0.0,0.0,0.0
5.53,50.0,92.40902831639413,50.0,82.61945900414055,50.0,42.41474197321104,50.0,8.006983295818912,50.0,50.0,50.0,50.0,50.0,0.0,0.0,0.0,0.0,0.0,0.0,0.0,-0.0,0.0,0.0,0.0,0.0,0.0
5.54,50.0,92.40902831639413,50.0,82.61945900414055,50.0,42.41474197321104,50.0,8.006983295818912,50.0,50.0,50.0,50.0,50.0,0.0,0.0,0.0,0.0,0.0,0.0,0.0,-0.0,0.0,0.0,0.0,0.0,0.0
5.55,50.0,92.40902831639413,50.0,82.61945900414055,50.0,42.41474197321104,50.0,8.006983295818912,50.0,50.0,50.0,50.0,50.0,0.0,0.0,0.0,0.0,0.0,0.0,0.0,-0.0,0.0,0.0,0.0,0.0,0.0
5.56,50.0,92.40902831639413,50.0,82.61945900414055,50.0,42.41474197321104,50.0,8.006983295818912,50.0,50.0,50.0,50.0,50.0,0.0,0.0,0.0,0.0,0.0,0.0,0.0,-0.0,0.0,0.0,0.0,0.0,0.0
5.57,50.0,92.40902831639413,50.0,82.61945900414055,50.0,42.41474197321104,50.0,8.006983295818912,50.0,50.0,50.0,50.0,50.0,0.0,0.0,0.0,0.0,0.0,0.0,0.0,-0.0,0.0,0.0,0.0,0.0,0.0
5.58,50.0,92.40902831639413,50.0,82.61945900414055,50.0,42.41474197321104,50.0,8.006983295818912,50.0,50.0,50.0,50.0,50.0,0.0,0.0,0.0,0.0,0.0,0.0,0.0,-0.0,0.0,0.0,0.0,0.0,0.0
5.59,50.0,92.40902831639413,50.0,82.61945900414055,50.0,42.41474197321104,50.0,8.006983295818912,50.0,50.0,50.0,50.0,50.0,0.0,0.0,0.0,0.0,0.0,0.0,0.0,-0.0,0.0,0.0,0.0,0.0,0.0
5.6,50.0,92.40902831639413,50.0,82.61945900414055,50.0,42.41474197321104,50.0,8.006983295818912,50.0,50.0,50.0,50.0,50.0,0.0,0.0,0.0,0.0,0.0,0.0,0.0,-0.0,0.0,0.0,0.0,0.0,0.0
5.61,50.0,92.40902831639413,50.0,82.61945900414055,50.0,42.41474197321104,50.0,8.006983295818912,50.0,50.0,50.0,50.0,50.0,0.0,0.0,0.0,0.0,0.0,0.0,0.0,-0.0,0.0,0.0,0.0,0.0,0.0
5.62,50.0,92.40902831639413,50.0,82.61945900414055,50.0,42.41474197321104,50.0,8.006983295818912,50.0,50.0,50.0,50.0,50.0,0.0,0.0,0.0,0.0,0.0,0.0,0.0,-0.0,0.0,0.0,0.0,0.0,0.0
5.63,50.0,92.40902831639413,50.0,82.61945900414055,50.0,42.41474197321104,50.0,8.006983295818912,50.0,50.0,50.0,50.0,50.0,0.0,0.0,0.0,0.0,0.0,0.0,0.0,-0.0,0.0,0.0,0.0,0.0,0.0
