milky766/affetto/tests/data/rand_traj_trapez_sync_all.csv
t,q0,q1,q2,q3,q4,q5,q6,q7,q8,q9,q10,q11,q12,dq0,dq1,dq2,dq3,dq4,dq5,dq6,dq7,dq8,dq9,dq10,dq11,dq12
0.0,50.0,50.0,50.0,50.0,50.0,50.0,50.0,50.0,50.0,50.0,50.0,50.0,50.0,0.0,-0.0,-0.0,-0.0,-0.0,0.0,0.0,0.0,-0.0,-0.0,0.0,-0.0,-0.0
0.01,50.00134063747032,49.993188135064884,49.99335954821772,49.995538775674476,49.994299854726016,50.006314293943895,50.00454715340739,50.00355595111451,49.994519507444195,49.99531318056876,50.00602868612072,49.99643830993763,49.995640647619666,0.2681274940644549,-1.3623729870237737,-1.3280903564568005,-0.8922448651053343,-1.140029054797041,1.2628587887793672,0.909430681477508,0.7111902229010074,-1.0960985111612416,-0.9373638862492278,1.2057372241438151,-0.7123380124747057,-0.8718704760661966
0.02,50.00536254988128,49.97275254025952,49.97343819287086,49.98215510269789,49.97719941890406,50.025257175775586,50.01818861362955,50.01422380445801,49.97807802977677,49.98125272227501,50.02411474448287,49.9857532397505,49.98256259047867,0.5362549881289098,-2.7247459740475475,-2.656180712913601,-1.7844897302106686,-2.280058109594082,2.5257175775587344,1.818861362955016,1.4223804458020148,-2.192197022322483,-1.8747277724984557,2.4114744482876302,-1.4246760249494115,-1.7437409521323932
0.03,50.0120657372329,49.93869321558393,49.94023593395944,49.95984898107026,49.94869869253413,50.056828645495074,50.04092438066649,50.032003560030546,49.950675566997745,49.95781862511878,50.054258175086474,49.96794478943864,49.96076582857702,0.8043824821933646,-4.0871189610713206,-3.984271069370401,-2.676734595316003,-3.420087164391123,3.788576366338102,2.728292044432524,2.133570668703022,-3.2882955334837245,-2.8120916587476836,3.6172116724314454,-2.1370140374241173,-2.61561142819859
0.04,50.02145019952516,49.8910101610381,49.89375277148346,49.92862041079158,49.90879767561624,50.10102870310235,50.072754454518204,50.056895217832086,49.912312119107106,49.925010889100065,50.09645897793151,49.943012959002026,49.93025036191471,1.0725099762578196,-5.449491948095095,-5.312361425827202,-3.568979460421337,-4.560116219188164,5.051435155117469,3.637722725910032,2.8447608916040297,-4.384394044644966,-3.7494555449969114,4.8229488965752605,-2.849352049898823,-3.4874819042647864
0.05,50.03351593675806,49.829703376622035,49.833988705442906,49.88846939186184,49.85749636815037,50.157857348597425,50.11367883518469,50.08889877786263,49.86298768610485,49.88282951421885,50.15071715301798,49.910957748440666,49.891016190491726,1.3406374703222745,-6.8118649351188685,-6.640451782284003,-4.461224325526672,-5.700145273985205,6.314293943896837,4.54715340738754,3.5559511145050373,-5.480492555806208,-4.68681943124614,6.028686120719076,-3.561690062373529,-4.359352380330983
0.06,50.0482629489316,49.75477286233572,49.76094373583777,49.839395924281035,49.79479477013653,50.22731458198028,50.16369752266595,50.12801424012218,49.80270226799097,49.83127450047514,50.21703270034588,49.87177915775455,49.84306331430808,1.6087649643867292,-8.174237922142641,-7.968542138740802,-5.353469190632006,-6.840174328782246,7.577152732676204,5.456584088865048,4.267141337406044,-6.576591066967449,-5.624183317495367,7.234423344862891,-4.274028074848235,-5.23122285639718
0.07,50.065691236045794,49.66621861817917,49.674617862668086,49.78140000804919,49.72069288157473,50.30940040325095,50.22281051696199,50.17424160461075,49.73145586476549,49.77034584786894,50.295405619915236,49.825477186943694,49.78639173336378,1.8768924584511846,-9.536610909166416,-9.296632495197604,-6.245714055737341,-7.980203383579289,8.840011521455573,6.366014770342558,4.978331560307053,-7.672689578128692,-6.561547203744596,8.440160569006707,-4.986366087322941,-6.103093332463377
0.08,50.08580079810062,49.564040644152385,49.575011085933816,49.71448164316629,49.63519070246494,50.4041148124094,50.291017818072795,50.22758087132832,49.6492484764284,49.700043556400246,50.38583591172602,49.77205183600809,49.721001447658814,2.1450199525156393,-10.89898389619019,-10.624722851654404,-7.137958920842674,-9.120232438376329,10.102870310234938,7.275445451820064,5.689521783208059,-8.768788089289933,-7.498911089993823,9.645897793150521,-5.698704099797646,-6.974963808529573
0.09,50.108591635096104,49.44823894025537,49.462123405635,49.638640829632344,49.5382882328072,50.51145780945564,50.36831942599839,50.288032040274906,49.5560801029797,49.62036762606906,50.488323575778246,49.711503104947745,49.64689245719319,2.4131474465800937,-12.261356883213962,-11.952813208111204,-8.030203785948009,-10.260261493173369,11.365729099014304,8.184876133297573,6.4007120061090665,-9.864886600451173,-8.43627497624305,10.851635017294335,-6.4110421122723515,-7.8468342845957695
0.1,50.13406374703223,49.31881350648811,49.3359548217716,49.55387756744733,49.42998547260148,50.631429394389684,50.45471534073875,50.355595111450505,49.45195074441938,49.531318056875385,50.60286861207191,49.64383099376265,49.564064761966904,2.681274940644549,-13.623729870237737,-13.280903564568005,-8.922448651053344,-11.40029054797041,12.628587887793675,9.09430681477508,7.111902229010075,-10.960985111612416,-9.37363886249228,12.057372241438152,-7.123380124747058,-8.718704760661966
0.11,50.162217133908996,49.17576434285062,49.196505334343634,49.460191856611274,49.31028242184779,50.764029567211516,50.5502055622939,50.43027008485511,49.33686040074745,49.43289484881922,50.72947102060701,49.569035502452806,49.47251836197995,2.949402434709004,-14.98610285726151,-14.608993921024805,-9.814693516158679,-12.540319602767452,13.891446676573041,10.003737496252588,7.823092451911082,-12.057083622773657,-10.311002748741506,13.263109465581966,-7.835718137221764,-9.590575236728164
0.12,50.19305179572641,49.01909144934289,49.04377494335111,49.35758369712416,49.179179080546135,50.909258327921144,50.65479009066381,50.51205696048873,49.21080907196391,49.32509800190056,50.86813080138355,49.48711663101822,49.372253257232344,3.2175299287734584,-16.348475844285282,-15.937084277481604,-10.706938381264012,-13.680348657564492,15.154305465352408,10.913168177730096,8.534282674812088,-13.153182133934898,-11.248366634990735,14.468846689725781,-8.54805614969647,-10.46244571279436
0.13,50.22656773248446,48.84879482596491,48.877763648794,49.246053088985995,49.0366754486965,51.06711567651857,50.768468925848495,50.60095573835135,49.07379675806875,49.207927516119405,51.01884795440152,49.398074379458876,49.26326944772406,3.485657422837914,-17.710848831309058,-17.265174633938408,-11.599183246369348,-14.820377712361534,16.417164254131777,11.822598859207606,9.245472897713096,-14.24928064509614,-12.185730521239963,15.674583913869597,-9.260394162171176,-11.334316188860557
0.14,50.26276494418316,48.6648744727167,48.698471450672336,49.12560003219677,48.882771526298896,51.237601613003775,50.891242067847955,50.69696641844298,48.92582345906198,49.081383391475754,51.18162247966094,49.30190874777479,49.14556693345512,3.753784916902369,-19.073221818332833,-18.59326499039521,-12.491428111474683,-15.960406767158577,17.680023042911145,12.732029540685115,9.956663120614106,-15.345379156257383,-13.123094407489193,16.880321138013414,-9.972732174645882,-12.206186664926754
0.15,50.30164343082251,48.46733038959825,48.50589834898609,48.99622452675649,48.717467313353325,51.420716137376786,51.023109516662196,50.80008900076363,48.7668891749436,48.94546562796962,51.35645437716179,49.198619735965956,49.01914571442553,4.021912410966823,-20.435594805356605,-19.921355346852003,-13.383672976580014,-17.100435821955614,18.942881831690507,13.64146022216262,10.66785334351511,-16.44147766741862,-14.060458293738417,18.086058362157225,-10.685070187120585,-13.078057140992948
0.16,50.343203192402505,48.256162576609576,48.3000443437353,48.85792657266518,48.54076280985979,51.61645924963759,51.16407127229122,50.91032348531329,48.59699390571362,48.80017422560099,51.54334364690409,49.088207344032384,48.88400579063527,4.2900399050312785,-21.79796779238038,-21.249445703308808,-14.275917841685349,-18.240464876752657,20.205740620469875,14.550890903640129,11.379043566416119,-17.537576178579865,-14.997822179987645,19.291795586301042,-11.397408199595292,-13.949927617059146
0.17,50.38744422892314,48.031371033750645,48.080909434919924,48.710706169922794,48.35265801581828,51.82483094978619,51.314127334735,51.027669872091955,48.416137651372004,48.645509184369864,51.742290288887816,48.97067157197405,48.74014716208435,4.558167399095733,-23.160340779404155,-22.57753605976561,-15.168162706790685,-19.380493931549697,21.468599409249247,15.460321585117638,12.090233789317127,-18.633674689741106,-15.935186066236875,20.49753281044486,-12.109746212069998,-14.821798093125343
0.18,50.43436654038441,47.79295576102148,47.848493622539976,48.554563318529354,48.15315293122879,52.04583123782257,51.47327770399356,51.152128161099625,48.22432041191878,48.481470504276245,51.953294303112976,48.84601241979097,48.58756982877276,4.8262948931601874,-24.522713766427923,-23.905626416222407,-16.060407571896018,-20.520522986346737,22.73145819802861,16.369752266595146,12.801424012218133,-19.729773200902347,-16.8725499524861,21.70327003458867,-12.822084224544703,-15.693668569191539
0.19,50.48397012678634,47.54091675842209,47.60279690659548,48.38949801848487,47.942247556091345,52.27946011374676,51.6415223800669,51.283698352336316,48.02154218735396,48.30805818532014,52.17635568957959,48.71422988748316,48.42627379070051,5.094422387224643,-25.8850867534517,-25.23371677267921,-16.95265243700135,-21.66055204114378,23.99431698680798,17.279182948072656,13.512614235119141,-20.825871712063588,-17.80991383873533,22.909007258732487,-13.53442223701941,-16.565539045257736
0.2,50.53625498812891,47.27525402595246,47.3438192870864,48.215510269789334,47.71994189040592,52.52571757755874,51.81886136295502,51.42238044580202,47.80780297767752,48.12527222750155,52.411474448287635,48.57532397505059,48.25625904786761,5.362549881289098,-27.247459740475474,-26.56180712913601,-17.844897302106688,-22.80058109594082,25.25717577558735,18.18861362955016,14.22380445802015,-21.921970223224832,-18.74727772498456,24.114744482876304,-14.246760249494116,-17.437409521323932
0.21,50.59122112441212,46.99596756361258,47.07156076401276,48.03260007244274,47.48623593417253,52.784603629258505,52.00529465265791,51.56817444149672,47.58310278288946,47.93311263082045,52.65865057923711,48.42929468249328,48.077525600274036,5.630677375353552,-28.609832727499246,-27.889897485592808,-18.73714216721202,-23.94061015073786,26.520034564366714,19.09804431102767,14.934994680921156,-23.01806873438607,-19.684641611233786,25.320481707020114,-14.95909826196882,-18.309279997390128
0.22,50.64886853563598,46.703057371402465,46.78602133737454,47.84076742644509,47.24112968739116,53.05611826884606,52.200822249175566,51.72108033942043,47.34744160298979,47.73157939527687,52.91788408242803,48.27614200981121,47.890073447919804,5.898804869418008,-29.97220571452302,-29.21798784204961,-19.629387032317357,-25.080639205534904,27.782893353146083,20.007474992505177,15.646184903822164,-24.114167245547314,-20.622005497483013,26.526218931163932,-15.671436274443527,-19.181150473456327
0.23,50.70919722180048,46.39652344932212,46.48720100717176,47.64001233179639,46.98462315006183,53.340261496321425,52.40544415250801,51.88109813957316,47.100819437978515,47.52067252087079,53.18917495786039,48.1158659570044,47.69390259080491,6.166932363482463,-31.334578701546796,-30.54607819850641,-20.52163189742269,-26.220668260331944,29.04575214192545,20.916905673982686,16.35737512672317,-25.210265756708555,-21.559369383732243,27.73195615530775,-16.383774286918236,-20.053020949522523
0.24,50.772207182905625,46.07636579737153,46.17509977340441,47.43033478849664,46.71671632218452,53.637033311684576,52.61916036265522,52.0482278419549,46.843236287855625,47.30039200760222,53.47252320553419,47.94846652407284,47.48901302892935,6.435059857546917,-32.696951688570564,-31.87416855496321,-21.413876762528023,-27.360697315128984,30.308610930704816,21.826336355460192,17.068565349624176,-26.306364267869796,-22.49673326998147,28.937693379451563,-17.09611229939294,-20.92489142558872
0.25,50.837898418951426,45.74258441555071,45.849717636072505,47.211734796545834,46.43740920375925,53.94643371493552,52.841970879617215,52.222469446565654,46.574692152621125,47.070737855471165,53.767928825449424,47.77394371101655,47.27540476229314,6.703187351611373,-34.05932467559434,-33.20225891142001,-22.30612162763336,-28.500726369926028,31.571469719484185,22.735767036937702,17.779755572525186,-27.402462779031037,-23.4340971562307,30.143430603595377,-17.808450311867645,-21.796761901654918
0.26,50.90627092993786,45.39517930385965,45.51105459517602,46.984212355943974,46.146701794786004,54.26846270607427,53.07387570339398,52.40382295340541,46.29518703227501,46.83171006447761,54.0753918176061,47.5922975178355,47.05307779089626,6.971314845675828,-35.421697662618115,-34.530349267876815,-23.198366492738696,-29.640755424723068,32.83432850826355,23.64519771841521,18.490945795426192,-28.49856129019228,-24.371461042479925,31.349167827739194,-18.52078832434235,-22.668632377721114
0.27,50.97732471586494,45.03415046229834,45.159110650714965,46.74776746669106,45.84459409526479,54.6031202851008,53.31487483398552,52.59228836247418,46.00472092681728,46.58330863462157,54.394912182004205,47.4035279445297,46.82203211473871,7.2394423397402825,-36.78407064964189,-35.85843962433361,-24.09061135784403,-30.78078447952011,34.09718729704292,24.55462839989272,19.202136018327202,-29.594659801353526,-25.308824928729155,32.55490505188301,-19.233126336817058,-23.540502853787313
0.28,51.05105977673267,44.65949789086681,44.793885802689346,46.502400128787095,45.531086105195605,54.95040645201512,53.564968271391834,52.787865673771954,45.70329383624794,46.32553356590303,54.726489918643765,47.207634991099155,46.582267733820515,7.507569833804738,-38.146443636665666,-37.18652998079042,-24.982856222949366,-31.920813534317155,35.36004608582229,25.46405908137023,19.913326241228212,-30.690758312514767,-26.246188814978385,33.76064227602683,-19.945464349291765,-24.41237332985351
0.29,51.12747611254103,44.27122158956503,44.415380051099156,46.24811034223207,45.20617782457845,55.310321206817235,53.82415601561292,52.990554887298735,45.39090576056698,46.058384858322,55.07012502752474,47.004618657543865,46.333784648141645,7.7756973278691905,-39.508816623689434,-38.51462033724721,-25.87510108805469,-33.06084258911419,36.622904874601645,26.37348976284773,20.62451646412921,-31.786856823676,-27.183552701227605,34.96637950017063,-20.657802361766464,-25.284243805919697
0.3,51.20657372329005,43.86932155839302,44.023593395944395,45.984898107026,44.86986925341331,55.68286454950715,54.09243806664878,53.20035600305454,45.067556699774414,45.78186251187847,55.42581750864717,46.79447894386382,46.076582857702114,8.043824821933645,-40.87118961071321,-39.84271069370401,-26.767345953160028,-34.20087164391123,37.88576366338101,27.28292044432524,21.33570668703022,-32.88295533483724,-28.120916587476835,36.17211672431445,-21.37014037424117,-26.156114281985896
0.31,51.28835260897971,43.45379779735077,43.61852583722508,45.71276342316887,44.52216039170022,56.068036480084864,54.369814424499424,53.417269021039345,44.73324665387024,45.49596652657246,55.79356736201103,46.57721585005904,45.81066236250193,8.3119523159981,-42.233562597736984,-41.17080105016081,-27.659590818265364,-35.34090069870827,39.14862245216038,28.192351125802748,22.046896909931228,-33.979053845998486,-29.058280473726064,37.37785394845827,-22.082478386715877,-27.027984758052096
0.32,51.37281276961001,43.024650306438275,43.20017737494118,45.431706290660685,44.16305123943915,56.46583699855036,54.65628508916484,53.64129394125315,44.38797562285444,45.20069690240395,56.17337458761633,46.352829376129506,45.53602316254107,8.580079810062557,-43.59593558476076,-42.498891406617616,-28.551835683370697,-36.480929753505315,40.41148124093975,29.101781807280258,22.758087132832237,-35.07515235715973,-29.99564435997529,38.583591172602084,-22.794816399190584,-27.89985523411829
0.33,51.459954205180956,42.58187908565555,42.768548009092726,45.141726709501455,43.79254179663011,56.87626610490366,54.95185006064503,53.87243076369599,44.03174360672704,44.89605363937295,56.56523918546307,46.121319522075225,45.25266525781956,8.848207304127012,-44.958308571784535,-43.826981763074414,-29.444080548476034,-37.620958808302355,41.67434002971912,30.011212488757767,23.469277355733244,-36.17125086832097,-30.93300824622452,39.7893283967459,-23.50715441166529,-28.77172571018449
0.34,51.54977691569255,42.12548413500259,42.32363773967969,44.84282467969117,43.4106320632731,57.299323799144744,55.25650933894,54.11067948836782,43.664550605488024,44.58203673747946,56.96916115555125,45.8826862878962,44.960588648337385,9.116334798191467,-46.32068155880831,-45.15507211953122,-30.33632541358137,-38.760987863099395,42.937198818498494,30.920643170235277,24.180467578634254,-37.26734937948221,-31.87037213247375,40.99506562088972,-24.219492424139997,-29.643596186250686
0.35,51.64228090114478,41.65546545447938,41.8654465667021,44.53500020122982,43.01732203936812,57.73501008127362,55.57026292404973,54.35604011526867,43.28639661913739,44.258646196723475,57.38514049788086,45.63692967359243,44.659793334094545,9.38446229225592,-47.68305454583207,-46.48316247598801,-31.2285702786867,-39.901016917896435,44.20005760727785,31.83007385171278,24.891657801535256,-38.36344789064345,-32.80773601872297,42.20080284503352,-24.9318304366147,-30.51546666231688
0.36,51.73746616153767,41.17182304408595,41.393974490159934,44.21825327411743,42.61261172491517,58.183324951290295,55.89311081597425,54.60851264439852,42.89728164767515,43.925882017105,57.81317721245192,45.3840496791639,44.35027931509104,9.652589786320375,-49.04542753285585,-47.811252832444815,-32.120815143792036,-41.041045972693475,45.46291639605722,32.73950453319029,25.602848024436266,-39.459546401804694,-33.7450999049722,43.40654006917734,-25.644168449089406,-31.387337138383078
0.37,51.83533269687119,40.67455690382227,40.9092215100532,43.89258389835399,42.19650111991425,58.644268409194765,56.22505301471354,54.86809707575739,42.4972056911013,43.58374419862403,58.25327129926441,45.12404630461064,44.03204659132688,9.920717280384832,-50.40780051987962,-49.13934318890161,-33.01306000889737,-42.181075027490515,46.725775184836586,33.6489352146678,26.314038247337272,-40.55564491296593,-34.68246379122143,44.612277293321156,-26.356506461564113,-32.259207614449274
0.38,51.93586240267044,40.16375902368616,40.41127730155173,43.55805231999836,41.769067201280826,59.117755184375895,56.56602811378995,55.13474538843788,42.086242760058,43.23229603386099,58.705341344663154,44.85696764834094,43.70515403314369,10.157686123982394,-51.611854406296715,-50.31309837227341,-33.80161858110798,-43.188623200517256,47.841879252598204,34.452682468092185,26.94258223640776,-41.52436763782179,-35.510898178115006,45.67789779853952,-26.986064857489524,-33.02975947150948
0.39,52.03743926391026,39.64764047962319,39.908146317828994,43.22003613418728,41.33718096927566,59.59617397690188,56.910554938470874,55.40417121080196,41.67099908367979,42.87718705207985,59.16212032264856,44.58710699976604,43.3748564384286,10.157686123982394,-51.611854406296715,-50.31309837227341,-33.80161858110798,-43.188623200517256,47.841879252598204,34.452682468092185,26.94258223640776,-41.52436763782179,-35.510898178115006,45.67789779853952,-26.986064857489524,-33.02975947150948
0.4,52.13901612515008,39.13152193556022,39.40501533410625,42.8820199483762,40.90529473727048,60.07459276942785,57.25508176315179,55.67359703316603,41.255755407301564,42.52207807029869,59.61889930063395,44.317246351191145,43.0445588437135,10.157686123982394,-51.611854406296715,-50.31309837227341,-33.80161858110798,-43.188623200517256,47.841879252598204,34.452682468092185,26.94258223640776,-41.52436763782179,-35.510898178115006,45.67789779853952,-26.986064857489524,-33.02975947150948
0.41,52.240592986389906,38.61540339149726,38.901884350383526,42.54400376256512,40.473408505265304,60.55301156195384,57.59960858783271,55.94302285553012,40.840511730923346,42.16696908851754,60.07567827861934,44.04738570261625,42.71426124899841,10.157686123982394,-51.611854406296715,-50.31309837227341,-33.80161858110798,-43.188623200517256,47.841879252598204,34.452682468092185,26.94258223640776,-41.52436763782179,-35.510898178115006,45.67789779853952,-26.986064857489524,-33.02975947150948
0.42,52.342169847629734,38.09928484743429,38.39875336666079,42.20598757675404,40.041522273260135,61.031430354479824,57.94413541251364,56.212448677894194,40.42526805454513,41.8118601067364,60.532457256604744,43.77752505404136,42.38396365428332,10.157686123982394,-51.611854406296715,-50.31309837227341,-33.80161858110798,-43.188623200517256,47.841879252598204,34.452682468092185,26.94258223640776,-41.52436763782179,-35.510898178115006,45.67789779853952,-26.986064857489524,-33.02975947150948
0.43,52.443746708869554,37.58316630337132,37.89562238293805,41.867971390942955,39.60963604125496,61.509849147005795,58.28866223719456,56.48187450025827,40.01002437816691,41.45675112495524,60.98923623459013,43.50766440546646,42.05366605956822,10.157686123982394,-51.611854406296715,-50.31309837227341,-33.80161858110798,-43.188623200517256,47.841879252598204,34.452682468092185,26.94258223640776,-41.52436763782179,-35.510898178115006,45.67789779853952,-26.986064857489524,-33.02975947150948
0.44,52.545323570109375,37.06704775930835,37.39249139921532,41.52995520513188,39.17774980924978,61.98826793953178,58.63318906187548,56.75130032262234,39.594780701788686,41.10164214317409,61.44601521257553,43.237803756891566,41.723368464853124,10.157686123982394,-51.611854406296715,-50.31309837227341,-33.80161858110798,-43.188623200517256,47.841879252598204,34.452682468092185,26.94258223640776,-41.52436763782179,-35.510898178115006,45.67789779853952,-26.986064857489524,-33.02975947150948
0.45,52.6469004313492,36.55092921524539,36.88936041549258,41.1919390193208,38.74586357724461,62.46668673205777,58.9777158865564,57.020726144986426,39.179537025410475,40.74653316139294,61.902794190560925,42.96794310831667,41.39307087013803,10.157686123982394,-51.611854406296715,-50.31309837227341,-33.80161858110798,-43.188623200517256,47.841879252598204,34.452682468092185,26.94258223640776,-41.52436763782179,-35.510898178115006,45.67789779853952,-26.986064857489524,-33.02975947150948
0.46,52.74847729258903,36.03481067118242,36.386229431769856,40.85392283350972,38.313977345239444,62.94510552458375,59.32224271123733,57.29015196735051,38.76429334903226,40.39142417961179,62.35957316854632,42.69808245974178,41.06277327542294,10.157686123982394,-51.611854406296715,-50.31309837227341,-33.80161858110798,-43.188623200517256,47.841879252598204,34.452682468092185,26.94258223640776,-41.52436763782179,-35.510898178115006,45.67789779853952,-26.986064857489524,-33.02975947150948
0.47,52.85005415382885,35.51869212711946,35.88309844804712,40.51590664769864,37.882091113234274,63.423524317109724,59.66676953591825,57.55957778971458,38.34904967265404,40.036315197830646,62.81635214653171,42.42822181116688,40.73247568070784,10.157686123982394,-51.611854406296715,-50.31309837227341,-33.80161858110798,-43.188623200517256,47.841879252598204,34.452682468092185,26.94258223640776,-41.52436763782179,-35.510898178115006,45.67789779853952,-26.986064857489524,-33.02975947150948
0.48,52.95163101506867,35.00257358305649,35.37996746432438,40.17789046188756,37.4502048812291,63.90194310963571,60.01129636059917,57.82900361207866,37.93380599627582,39.68120621604949,63.27313112451711,42.15836116259199,40.402178085992745,10.157686123982394,-51.611854406296715,-50.31309837227341,-33.80161858110798,-43.188623200517256,47.841879252598204,34.452682468092185,26.94258223640776,-41.52436763782179,-35.510898178115006,45.67789779853952,-26.986064857489524,-33.02975947150948
0.49,53.0532078763085,34.48645503899352,34.87683648060165,39.839874276076486,37.01831864922393,64.3803619021617,60.35582318528009,58.098429434442735,37.518562319897605,39.326097234268346,63.72991010250251,41.88850051401709,40.07188049127765,10.157686123982394,-51.611854406296715,-50.31309837227341,-33.80161858110798,-43.188623200517256,47.841879252598204,34.452682468092185,26.94258223640776,-41.52436763782179,-35.510898178115006,45.67789779853952,-26.986064857489524,-33.02975947150948
0.5,53.15478473754832,33.97033649493055,34.37370549687891,39.5018580902654,36.58643241721875,64.85878069468768,60.700350009961014,58.36785525680681,37.10331864351938,38.97098825248719,64.1866890804879,41.61863986544219,39.741582896562555,10.157686123982394,-51.611854406296715,-50.31309837227341,-33.80161858110798,-43.188623200517256,47.841879252598204,34.452682468092185,26.94258223640776,-41.52436763782179,-35.510898178115006,45.67789779853952,-26.986064857489524,-33.02975947150948
0.51,53.256361598788146,33.45421795086758,33.87057451315618,39.163841904454316,36.154546185213576,65.33719948721365,61.044876834641926,58.63728107917089,36.68807496714116,38.61587927070604,64.64346805847329,41.3487792168673,39.41128530184746,10.157686123982394,-51.611854406296715,-50.31309837227341,-33.80161858110798,-43.188623200517256,47.841879252598204,34.452682468092185,26.94258223640776,-41.52436763782179,-35.510898178115006,45.67789779853952,-26.986064857489524,-33.02975947150948
0.52,53.35793846002797,32.93809940680462,33.367443529433444,38.825825718643244,35.72265995320841,65.81561827973964,61.38940365932285,58.906706901534974,36.27283129076295,38.26077028892489,65.1002470364587,41.0789185682924,39.080987707132365,10.157686123982394,-51.611854406296715,-50.31309837227341,-33.80161858110798,-43.188623200517256,47.841879252598204,34.452682468092185,26.94258223640776,-41.52436763782179,-35.510898178115006,45.67789779853952,-26.986064857489524,-33.02975947150948
0.53,53.4595153212678,32.421980862741655,32.86431254571072,38.487809532832166,35.29077372120324,66.29403707226562,61.73393048400378,59.17613272389905,35.857587614384734,37.905661307143745,65.55702601444409,40.80905791971751,38.750690112417274,10.157686123982394,-51.611854406296715,-50.31309837227341,-33.80161858110798,-43.188623200517256,47.841879252598204,34.452682468092185,26.94258223640776,-41.52436763782179,-35.510898178115006,45.67789779853952,-26.986064857489524,-33.02975947150948
0.54,53.561092182507615,31.90586231867868,32.361181561987976,38.14979334702108,34.85888748919806,66.77245586479161,62.078457308684705,59.44555854626313,35.44234393800651,37.55055232536259,66.01380499242948,40.53919727114261,38.420392517702176,10.157686123982394,-51.611854406296715,-50.31309837227341,-33.80161858110798,-43.188623200517256,47.841879252598204,34.452682468092185,26.94258223640776,-41.52436763782179,-35.510898178115006,45.67789779853952,-26.986064857489524,-33.02975947150948
0.55,53.66266904374744,31.389743774615713,31.858050578265242,37.81177716121,34.427001257192885,67.25087465731758,62.422984133365624,59.7149843686272,35.02710026162829,37.19544334358144,66.47058397041488,40.269336622567714,38.09009492298708,10.157686123982394,-51.611854406296715,-50.31309837227341,-33.80161858110798,-43.188623200517256,47.841879252598204,34.452682468092185,26.94258223640776,-41.52436763782179,-35.510898178115006,45.67789779853952,-26.986064857489524,-33.02975947150948
0.56,53.76424590498726,30.873625230552747,31.35491959454251,37.47376097539892,33.995115025187715,67.72929344984357,62.76751095804654,59.984410190991284,34.611856585250074,36.84033436180029,66.92736294840027,39.999475973992816,37.759797328271986,10.157686123982394,-51.611854406296715,-50.31309837227341,-33.80161858110798,-43.188623200517256,47.841879252598204,34.452682468092185,26.94258223640776,-41.52436763782179,-35.510898178115006,45.67789779853952,-26.986064857489524,-33.02975947150948
0.57,53.86582276622708,30.357506686489785,30.85178861081978,37.13574478958785,33.563228793182546,68.20771224236955,63.112037782727455,60.253836013355354,34.19661290887186,36.485225380019145,67.38414192638567,39.72961532541793,37.429499733556895,10.157686123982394,-51.611854406296715,-50.31309837227341,-33.80161858110798,-43.188623200517256,47.841879252598204,34.452682468092185,26.94258223640776,-41.52436763782179,-35.510898178115006,45.67789779853952,-26.986064857489524,-33.02975947150948
0.58,53.96739962746691,29.841388142426815,30.34865762709704,36.79772860377676,33.13134256117738,68.68613103489552,63.45656460740838,60.52326183571944,33.781369232493645,36.13011639823799,67.84092090437106,39.45975467684303,37.0992021388418,10.157686123982394,-51.611854406296715,-50.31309837227341,-33.80161858110798,-43.188623200517256,47.841879252598204,34.452682468092185,26.94258223640776,-41.52436763782179,-35.510898178115006,45.67789779853952,-26.986064857489524,-33.02975947150948
0.59,54.06897648870674,29.32526959836385,29.84552664337431,36.45971241796568,32.6994563291722,69.16454982742151,63.80109143208931,60.79268765808351,33.36612555611542,35.775007416456845,68.29769988235645,39.189894028268135,36.768904544126706,10.157686123982394,-51.611854406296715,-50.31309837227341,-33.80161858110798,-43.188623200517256,47.841879252598204,34.452682468092185,26.94258223640776,-41.52436763782179,-35.510898178115006,45.67789779853952,-26.986064857489524,-33.02975947150948
0.6,54.17055334994656,28.809151054300884,29.342395659651576,36.121696232154605,32.26757009716703,69.6429686199475,64.14561825677023,61.06211348044759,32.95088187973721,35.41989843467569,68.75447886034186,38.920033379693244,36.43860694941161,10.157686123982394,-51.611854406296715,-50.31309837227341,-33.80161858110798,-43.188623200517256,47.841879252598204,34.452682468092185,26.94258223640776,-41.52436763782179,-35.510898178115006,45.67789779853952,-26.986064857489524,-33.02975947150948
0.61,54.272130211186386,28.29303251023791,28.83926467592884,35.78368004634352,31.835683865161855,70.12138741247348,64.49014508145115,61.33153930281167,32.535638203358985,35.06478945289454,69.21125783832724,38.650172731118346,36.108309354696516,10.157686123982394,-51.611854406296715,-50.31309837227341,-33.80161858110798,-43.188623200517256,47.841879252598204,34.452682468092185,26.94258223640776,-41.52436763782179,-35.510898178115006,45.67789779853952,-26.986064857489524,-33.02975947150948
0.62,54.37370707242621,27.776913966174945,28.336133692206104,35.44566386053244,31.403797633156685,70.59980620499945,64.83467190613207,61.60096512517574,32.12039452698077,34.70968047111339,69.66803681631265,38.380312082543455,35.77801175998142,10.157686123982394,-51.611854406296715,-50.31309837227341,-33.80161858110798,-43.188623200517256,47.841879252598204,34.452682468092185,26.94258223640776,-41.52436763782179,-35.510898178115006,45.67789779853952,-26.986064857489524,-33.02975947150948
0.63,54.475283933666034,27.260795422111975,27.83300270848337,35.10764767472136,30.97191140115151,71.07822499752544,65.179198730813,61.870390947539825,31.70515085060255,34.35457148933224,70.12481579429803,38.11045143396855,35.44771416526632,10.157686123982394,-51.611854406296715,-50.31309837227341,-33.80161858110798,-43.188623200517256,47.841879252598204,34.452682468092185,26.94258223640776,-41.52436763782179,-35.510898178115006,45.67789779853952,-26.986064857489524,-33.02975947150948
0.64,54.576860794905855,26.74467687804901,27.329871724760636,34.76963148891028,30.540025169146336,71.55664379005142,65.52372555549391,62.139816769903895,31.289907174224332,33.99946250755109,70.58159477228344,37.84059078539366,35.11741657055123,10.157686123982394,-51.611854406296715,-50.31309837227341,-33.80161858110798,-43.188623200517256,47.841879252598204,34.452682468092185,26.94258223640776,-41.52436763782179,-35.510898178115006,45.67789779853952,-26.986064857489524,-33.02975947150948
0.65,54.678437656145675,26.228558333986044,26.826740741037902,34.43161530309921,30.108138937141163,72.03506258257741,65.86825238017484,62.40924259226797,30.874663497846115,33.64435352576994,71.03837375026883,37.57073013681877,34.78711897583614,10.157686123982394,-51.611854406296715,-50.31309837227341,-33.80161858110798,-43.188623200517256,47.841879252598204,34.452682468092185,26.94258223640776,-41.52436763782179,-35.510898178115006,45.67789779853952,-26.986064857489524,-33.02975947150948
0.66,54.78001451738551,25.712439789923078,26.323609757315168,34.09359911728812,29.676252705135994,72.5134813751034,66.21277920485576,62.67866841463206,30.459419821467897,33.28924454398879,71.49515272825423,37.300869488243876,34.456821381121046,10.157686123982394,-51.611854406296715,-50.31309837227341,-33.80161858110798,-43.188623200517256,47.841879252598204,34.452682468092185,26.94258223640776,-41.52436763782179,-35.510898178115006,45.67789779853952,-26.986064857489524,-33.02975947150948
0.67,54.88159137862533,25.19632124586011,25.820478773592434,33.75558293147704,29.244366473130817,72.99190016762937,66.55730602953669,62.94809423699613,30.04417614508968,32.934135562207636,71.95193170623962,37.03100883966897,34.12652378640594,10.157686123982394,-51.611854406296715,-50.31309837227341,-33.80161858110798,-43.188623200517256,47.841879252598204,34.452682468092185,26.94258223640776,-41.52436763782179,-35.510898178115006,45.67789779853952,-26.986064857489524,-33.02975947150948
0.68,54.98316823986515,24.680202701797143,25.3173477898697,33.417566745665965,28.812480241125648,73.47031896015535,66.9018328542176,63.21752005936021,29.62893246871146,32.579026580426486,72.40871068422501,36.76114819109408,33.79622619169085,10.157686123982394,-51.611854406296715,-50.31309837227341,-33.80161858110798,-43.188623200517256,47.841879252598204,34.452682468092185,26.94258223640776,-41.52436763782179,-35.510898178115006,45.67789779853952,-26.986064857489524,-33.02975947150948
0.69,55.08474510110497,24.164084157734177,24.814216806146966,33.07955055985488,28.38059400912048,73.94873775268134,67.24635967889853,63.48694588172428,29.213688792333244,32.22391759864534,72.86548966221041,36.49128754251919,33.46592859697576,10.157686123982394,-51.611854406296715,-50.31309837227341,-33.80161858110798,-43.188623200517256,47.841879252598204,34.452682468092185,26.94258223640776,-41.52436763782179,-35.510898178115006,45.67789779853952,-26.986064857489524,-33.02975947150948
0.7,55.186321962344806,23.64796561367121,24.311085822424236,32.74153437404381,27.948707777115306,74.42715654520731,67.59088650357944,63.756371704088366,28.79844511595503,31.868808616864193,73.3222686401958,36.22142689394429,33.135631002260666,10.157686123982394,-51.611854406296715,-50.31309837227341,-33.80161858110798,-43.188623200517256,47.841879252598204,34.452682468092185,26.94258223640776,-41.52436763782179,-35.510898178115006,45.67789779853952,-26.986064857489524,-33.02975947150948
0.71,55.28789882358463,23.13184706960824,23.807954838701498,32.403518188232724,27.51682154511013,74.9055753377333,67.93541332826037,64.02579752645244,28.38320143957681,31.513699635083036,73.7790476181812,35.95156624536939,32.80533340754556,10.157686123982394,-51.611854406296715,-50.31309837227341,-33.80161858110798,-43.188623200517256,47.841879252598204,34.452682468092185,26.94258223640776,-41.52436763782179,-35.510898178115006,45.67789779853952,-26.986064857489524,-33.02975947150948
0.72,55.38947568482445,22.615728525545276,23.304823854978764,32.065502002421645,27.084935313104957,75.38399413025928,68.2799401529413,64.29522334881652,27.96795776319859,31.15859065330189,74.23582659616659,35.6817055967945,32.47503581283047,10.157686123982394,-51.611854406296715,-50.31309837227341,-33.80161858110798,-43.188623200517256,47.841879252598204,34.452682468092185,26.94258223640776,-41.52436763782179,-35.510898178115006,45.67789779853952,-26.986064857489524,-33.02975947150948
0.73,55.491052546064275,22.099609981482306,22.80169287125603,31.727485816610567,26.653049081099788,75.86241292278527,68.62446697762222,64.56464917118059,27.552714086820373,30.803481671520736,74.69260557415198,35.4118449482196,32.14473821811538,10.157686123982394,-51.611854406296715,-50.31309837227341,-33.80161858110798,-43.188623200517256,47.841879252598204,34.452682468092185,26.94258223640776,-41.52436763782179,-35.510898178115006,45.67789779853952,-26.986064857489524,-33.02975947150948
0.74,55.592629407304095,21.58349143741934,22.298561887533296,31.38946963079949,26.221162849094615,76.34083171531124,68.96899380230313,64.83407499354468,27.137470410442155,30.448372689739593,75.14938455213738,35.14198429964471,31.814440623400287,10.157686123982394,-51.611854406296715,-50.31309837227341,-33.80161858110798,-43.188623200517256,47.841879252598204,34.452682468092185,26.94258223640776,-41.52436763782179,-35.510898178115006,45.67789779853952,-26.986064857489524,-33.02975947150948
0.75,55.69420626854392,21.06737289335637,21.795430903810562,31.051453444988407,25.789276617089442,76.81925050783722,69.31352062698406,65.10350081590875,26.722226734063938,30.09326370795844,75.60616353012279,34.87212365106981,31.48414302868519,10.157686123982394,-51.611854406296715,-50.31309837227341,-33.80161858110798,-43.188623200517256,47.841879252598204,34.452682468092185,26.94258223640776,-41.52436763782179,-35.510898178115006,45.67789779853952,-26.986064857489524,-33.02975947150948
0.76,55.79571071188402,20.551622309284625,21.29265862076712,30.713678243412815,25.357698292746107,77.29732821791865,69.65780182575433,65.37273455464326,26.30727910025437,29.738407896498956,76.06261685348743,34.602455396128164,31.15408091533663,10.095368823048613,-51.295216205083356,-50.004428026103405,-33.59424599531853,-42.923661436976644,47.548369810562704,34.24131561198595,26.777289768746716,-41.26961606521102,-35.293039179403706,45.3976643606886,-26.820505624390933,-32.82712223349749
0.77,55.89532376264418,20.045482012168907,20.799254792288373,30.382197007785155,24.934161823650328,77.76649762208038,69.99566782846681,65.63695150121623,25.900063432158063,29.39016432413616,76.51056481097359,34.33781202994663,30.830169045381982,9.827241328984158,-49.93284321805958,-48.6763376696466,-32.7020011302132,-41.783632382179604,46.285511021783336,33.33188493050844,26.06609954584571,-40.17351755404977,-34.355675293154476,44.191927136544784,-26.108167611916226,-31.95525175743129
0.78,55.9922555384637,19.55296544492343,20.31913186737419,30.05963822080855,24.522025645102516,78.22303843835431,70.32443952436451,65.89405654556018,25.503808749173373,29.05129439063586,76.94645539621833,34.08029204388984,30.514975880188004,9.559113834919703,-48.570470231035806,-47.3482473131898,-31.80975626510786,-40.64360332738256,45.02265223300397,32.42245424903093,25.3549093229447,-39.077419042888536,-33.41831140690525,42.98618991240097,-25.39582959944152,-31.083381281365096
0.79,56.086506039342574,19.07407260754819,19.852289846024576,29.746001882482993,24.121289757102673,78.66695066674045,70.64411691344743,66.14404968767512,25.118515051300292,28.721798095998054,77.37028860922162,33.8298954379578,30.208501419754683,9.290986340855246,-47.20809724401203,-46.020156956733,-30.917511400002528,-39.50357427258552,43.7597934442246,31.51302356755342,24.64371910004369,-37.98132053172729,-32.480947520656024,41.78045268825715,-24.683491586966813,-30.211510805298897
0.8,56.17807526528081,18.608803500043187,19.398728728239526,29.441287992808498,23.731954159650805,79.09823430723881,70.95469999571557,66.38693092756105,24.744182338538828,28.40167544022274,77.78206444998347,33.5866222121505,29.91074566408202,9.022858846790792,-45.845724256988255,-44.69206660027619,-30.02526653489719,-38.36354521778848,42.49693465544523,30.603592886075912,23.932528877142683,-36.88522202056605,-31.54358363440679,40.57471546411333,-23.971153574492106,-29.339640329232697
0.81,56.26696321627839,18.157158122408426,18.95844851401905,29.14549655178505,23.354018852746904,79.51688935984936,71.25618877116895,66.62270026521797,24.38081061088897,28.090926423309917,78.18178291850388,33.350472366467955,29.62170861317003,8.754731352726337,-44.48335126996448,-43.363976243819394,-29.133021669791855,-37.22351616299143,41.23407586666586,29.694162204598403,23.221338654241674,-35.7891235094048,-30.606219748157564,39.368978239969515,-23.2588155620174,-28.4677698531665
0.82,56.35316989233534,17.719136474643904,18.531449203363145,28.858627559412664,22.98748383639098,79.92291582457212,71.54858323980754,66.85135770064588,24.028399868350732,27.789551045259593,78.56944401478286,33.12144590091016,29.341390267018696,8.486603858661885,-43.12097828294072,-42.03588588736261,-28.240776804686533,-36.083487108194404,39.97121707788651,28.784731523120904,22.510148431340674,-34.69302499824357,-29.668855861908344,38.16324101582572,-22.5464775495427,-27.595899377100313
0.83,56.43669529345163,17.294738556749614,18.1177307962718,28.580681015691326,22.63234911058302,80.3163137014071,71.83188340163137,67.07290323384478,23.686950110924105,27.497549306071754,78.94504773882039,32.899542815477105,29.069790625628023,8.21847636459743,-41.758605295916944,-40.707795530905805,-27.348531939581196,-34.943458053397364,38.70835828910714,27.875300841643394,21.798958208439668,-33.596926487082335,-28.731491975659118,36.9575037916819,-21.834139537067994,-26.724028901034117
0.84,56.51753941962728,16.883964368725564,17.717293292745026,28.31165692062104,22.288614675323032,80.69708299035425,72.1060892566404,67.28733686481468,23.356461338609087,27.214921205746407,79.30859409061648,32.684763110168795,28.80690968899801,7.950348870532975,-40.39623230889317,-39.37970517444901,-26.45628707447586,-33.80342899860032,37.44549950032777,26.965870160165885,21.087767985538658,-32.50082797592109,-27.794128089409888,35.751766567538084,-21.121801524593288,-25.852158424967918
0.85,56.59570227086229,16.48681391057175,17.330136692782823,28.05155527420181,21.956280530611014,81.06522369141364,72.37120080483467,67.49465859355556,23.03693355140568,26.94166674428356,79.66008307017115,32.47710678498524,28.552747457128667,7.68222137646852,-39.03385932186939,-38.0516148179922,-25.564042209370527,-32.66339994380328,36.1826407115484,26.056439478688375,20.376577762637652,-31.404729464759846,-26.856764203160658,34.54602934339427,-20.40946351211858,-24.980287948901722
0.86,56.67118384715665,16.10328718228817,16.956260996385183,27.80037607643363,21.635346676446964,81.42073580458522,72.62721804621418,67.69486842006744,22.728366749313885,26.677785921683196,79.99951467748437,32.27657383992643,28.307303930019977,7.414093882404065,-37.671486334845625,-36.723524461535405,-24.671797344265194,-31.52337088900624,34.91978192276904,25.14700879721087,19.665387539736646,-30.30863095359861,-25.91940031691143,33.340292119250456,-19.697125499643878,-24.108417472835526
0.87,56.74398414851037,15.733384183874838,16.595666203552113,27.558119327316504,21.32581311283089,81.76361932986902,72.87414098077889,67.88796634435029,22.430760932333712,26.423278737945328,80.32688891255617,32.08316427499236,28.070579107671954,7.14596638833961,-36.30911334782185,-35.3954341050786,-23.779552479159857,-30.383341834209197,33.65692313398967,24.23757811573336,18.954197316835636,-29.212532442437364,-24.982036430662205,32.13455489510664,-18.98478748716917,-23.23654699676933
0.88,56.814103174923446,15.377104915331739,16.24835231428361,27.32478502685043,21.027679839762783,82.09387426726502,73.11196960852885,68.07395236640414,22.144116100465144,26.178145193069952,80.64220577538651,31.896878090183044,27.842572990084594,6.877838894275155,-34.946740360798074,-34.0673437486218,-22.88730761405452,-29.243312779412154,32.3940643452103,23.328147434255854,18.24300709393463,-28.116433931276124,-24.044672544412975,30.92881767096282,-18.272449474694465,-22.36467652070313
0.89,56.88154092639587,15.034449376658877,15.914319328579678,27.100373175035415,20.740946857242648,82.41150061677322,73.34070392946401,68.25282648622898,21.86843225370819,25.942385287057068,80.94546526597541,31.71771528549847,27.623285577257892,6.609711400210699,-33.5843673737743,-32.739253392165,-21.995062748949188,-28.103283724615114,31.13120555643093,22.418716752778344,17.53181687103362,-27.02033542011488,-23.107308658163745,29.723080446819004,-17.56011146221976,-21.492806044636932
0.9,56.946297402927655,14.70541756785625,15.593567246440308,26.884883771871444,20.465614165270477,82.71649837839364,73.56034394358441,68.42458870382482,21.603709392062846,25.715999019906675,81.23666738432289,31.545675860938644,27.412716869191854,6.341583906146244,-32.221994386750524,-31.411163035708196,-21.10281788384385,-26.96325466981807,29.868346767651563,21.509286071300835,16.820626648132613,-25.924236908953638,-22.169944771914516,28.517343222675187,-16.847773449745052,-20.620935568570737
0.91,57.008372604518804,14.390009488923866,15.286096067865513,26.678316817358535,20.201681763846285,83.00886755212626,73.77088965089004,68.58923901919164,21.349947515529117,25.49898639161878,81.51581213042893,31.38075981650357,27.21086686588648,6.073456412081789,-30.859621399726745,-30.083072679251394,-20.210573018738515,-25.823225615021027,28.605487978872194,20.599855389823325,16.109436425231603,-24.828138397792394,-21.23258088566529,27.311605998531373,-16.135435437270345,-19.749065092504537
0.92,57.0677665311693,14.088225139861716,14.991905792855283,26.480672311496676,19.949149652970057,83.28860813797108,73.97234105138088,68.74677743232944,21.107146624106996,25.291347402193374,81.78289950429351,31.22296715219324,27.01773556734176,5.8053289180173335,-29.49724841270297,-28.754982322794593,-19.318328153633182,-24.683196560223987,27.342629190092826,19.690424708345816,15.398246202330595,-23.732039886631153,-20.29521699941606,26.105868774387556,-15.423097424795637,-18.87719461643834
0.93,57.12447918287914,13.800064520669807,14.710996421409622,26.29195025428587,19.708017832641804,83.55572013592811,74.16469814505695,68.89720394323825,20.87530671779649,25.093082051630454,82.03792950591668,31.072297868007656,26.83332297355771,5.537201423952879,-28.134875425679194,-27.42689196633779,-18.426083288527845,-23.543167505426943,26.079770401313457,18.780994026868306,14.687055979429587,-22.63594137546991,-19.35785311316683,24.90013155024374,-14.71075941232093,-18.005324140372142
0.94,57.17851055964835,13.525527631348135,14.443367953528528,26.11215064572612,19.47828630286152,83.81020354599735,74.34796093191825,69.04051855191804,20.6544277965976,24.904190339930036,82.28090213529839,30.928751963946823,26.65762908453432,5.269073929888427,-26.772502438655437,-26.098801609881004,-17.533838423422523,-22.403138450629914,24.816911612534103,17.871563345390808,13.975865756528588,-21.539842864308678,-18.420489226917613,23.69439432609994,-13.998421399846233,-17.133453664305957
0.95,57.22986066147691,13.2646144718967,14.189020389212004,25.941273485817423,19.259955063629207,84.05205836817879,74.52212941196477,69.17672125836881,20.44450986051032,24.724672267092107,82.51181739243867,30.792329440010736,26.490653900271592,5.0009464358239715,-25.41012945163166,-24.770711253424203,-16.641593558317187,-21.263109395832874,23.554052823754734,16.962132663913298,13.26467553362758,-20.443744353147437,-17.483125340668384,22.48865710195612,-13.286083387371526,-16.261583188239758
0.96,57.27852948836483,13.017325042315502,13.947953728460046,25.77931877455978,19.053024114944865,84.28128460247244,74.68720358519651,69.30581206259059,20.245552909534652,24.55452783311667,82.73067527733751,30.663030296199395,26.332397420769528,4.732818941759517,-24.047756464607886,-23.4426208969674,-15.74934869321185,-20.12308034103583,22.291194034975366,16.052701982435792,12.553485310726572,-19.347645841986193,-16.545761454419154,21.282919877812304,-12.57374537489682,-15.389712712173562
0.97,57.3245170403121,12.783659342604542,13.720167971272653,25.626286511953186,18.85749345680849,84.4978822488783,74.84318345161348,69.42779096458335,20.057556943670594,24.393757038003724,82.93747578999492,30.5408545325128,26.18285964602812,4.464691447695062,-22.68538347758411,-22.1145305405106,-14.857103828106515,-18.983051286238787,21.028335246195997,15.143271300958281,11.842295087825564,-18.251547330824952,-15.608397568169925,20.077182653668487,-11.861407362422113,-14.517842236107363
0.98,57.36782331731874,12.56361737276382,13.505663117649833,25.482176697997648,18.67336308922009,84.70185130739637,74.99006901121567,69.5426579643471,19.880521962918152,24.24235988175327,83.13221893041089,30.42580214895095,26.042040576047377,4.196563953630606,-21.323010490560335,-20.7864401840538,-13.96485896300118,-17.843022231441747,19.76547645741663,14.233840619480773,11.131104864924556,-17.155448819663707,-14.671033681920697,18.871445429524673,-11.149069349947407,-13.645971760041165
0.99,57.40844831938472,12.357199132793331,13.304439167591575,25.34698933269316,18.50063301217965,84.89319177802663,75.12786026400309,69.65041306188184,19.71444796727732,24.100336364365305,83.31490469858541,30.317873145513847,25.909940210827294,3.928436459566151,-19.96063750353656,-19.458349827596997,-13.072614097895844,-16.702993176644704,18.50261766863726,13.324409938003264,10.419914642023548,-16.059350308502466,-13.733669795671467,17.665708205380856,-10.4367313374727,-12.774101283974968
1.0,57.446392046510056,12.164404622693088,13.116496121097892,25.220724416039733,18.339303225687196,85.07190366076911,75.25655720997574,69.75105625718757,19.559334956748103,23.96768648583984,83.4855330945185,30.217067522201496,25.78655855036788,3.6603089655016956,-18.598264516512785,-18.130259471140192,-12.18036923279051,-15.562964121847662,17.23975887985789,12.414979256525754,9.70872441912254,-14.963251797341222,-12.796305909422239,16.45997098123704,-9.724393324997994,-11.90223080790877
1.01,57.48165449869475,11.985233842463078,12.941833978168775,25.10338194803735,18.1893737297427,85.23798695562378,75.37615984913361,69.8445875502643,19.415182931330495,23.84441024617686,83.64410411821015,30.12338527901389,25.67189559466912,3.3921814714372407,-17.235891529489013,-16.802169114683394,-11.288124367685175,-14.42293506705062,15.976900091078525,11.505548575048246,8.997534196221531,-13.867153286179981,-11.858942023173011,15.254233757093225,-9.012055312523287,-11.030360331842575
1.02,57.5142356759388,11.819686792103308,12.780452738804225,24.994961928686028,18.050844524346182,85.39144166259068,75.4866681814767,69.931006941112,19.281991891024504,23.73050764537638,83.79061776966037,30.03682641595103,25.565951343731026,3.124053977372786,-15.873518542465238,-15.474078758226591,-10.39587950257984,-13.282906012253578,14.714041302299156,10.596117893570737,8.286343973320523,-12.771054775018738,-10.921578136923783,14.048496532949407,-8.29971730004858,-10.158489855776377
1.03,57.54413557824221,11.667763471613771,12.632352403004239,24.89546435798575,17.923715609497627,85.53226778166977,75.58808220700503,70.0103144297307,19.159761835830118,23.625978683438383,83.92507404886913,29.957390933012913,25.468725797553592,2.8559264833083304,-14.511145555441463,-14.14598840176979,-9.503634637474505,-12.142876957456535,13.451182513519788,9.686687212093227,7.575153750419515,-11.674956263857496,-9.984214250674553,12.842759308805592,-7.587379287573875,-9.28661937971018
1.04,57.57135420560497,11.529463880994477,12.497532970768827,24.804889235936535,17.807986985197047,85.66046531286108,75.68040192571857,70.0825100161204,19.04849276574735,23.530823360362884,84.04747295583647,29.88507883019955,25.380218956136822,2.587798989243875,-13.148772568417687,-12.817898045312988,-8.611389772369169,-11.002847902659493,12.188323724740417,8.777256530615718,6.863963527518507,-10.578857752696253,-9.046850364425325,11.637022084661774,-6.875041275099168,-8.414748903643982
1.05,57.595891558027084,11.404788020245418,12.37599444209798,24.723236562538368,17.703658651444435,85.77603425616458,75.76362733761734,70.14759370028108,18.948184680776194,23.445041676149877,84.15781449056237,29.819890107510936,25.30043081948071,2.31967149517942,-11.786399581393912,-11.489807688856185,-7.719144907263834,-9.862818847862451,10.925464935961049,7.867825849138209,6.152773304617498,-9.48275924153501,-8.109486478176095,10.431284860517959,-6.162703262624461,-7.542878427577784
1.06,57.61774763550856,11.293735889366598,12.267736816991702,24.650506337791256,17.6107306082398,85.8789746115803,75.83775844270134,70.20556548221275,18.85883758091665,23.368633630799362,84.25609865304683,29.76182476494706,25.229361387585264,2.051544001114965,-10.424026594370137,-10.161717332399384,-6.826900042158498,-8.722789793065408,9.66260614718168,6.958395167660701,5.44158308171649,-8.386660730373768,-7.1721225919268665,9.225547636374142,-5.450365250149755,-6.671007951511586
1.07,57.63692243804938,11.196307488358014,12.172760095449993,24.5866985616952,17.52920285558313,85.96928637910821,75.90279524097055,70.2564253619154,18.78045146616872,23.301599224311342,84.34232544328985,29.71088280250794,25.16701066045048,1.78341650705051,-9.061653607346361,-8.833626975942583,-5.9346551770531635,-7.582760738268367,8.399747358402314,6.048964486183192,4.730392858815483,-7.290562219212526,-6.234758705677638,8.019810412230326,-4.738027237675049,-5.799137475445389
1.08,57.653415965649565,11.112502817219672,12.091064277472853,24.531813234250194,17.459075393474432,86.04696955874834,75.958737732425,70.30017333938906,18.7130263365324,23.24393845668581,84.41649486129145,29.66706422019356,25.11337863807636,1.5152890129860546,-7.699280620322587,-7.505536619485781,-5.042410311947829,-6.442731683471324,7.136888569622944,5.139533804705683,4.019202635914475,-6.194463708051283,-5.297394819428409,6.8140731880865095,-4.025689225200343,-4.927266999379191
1.09,57.6672282183091,11.042321875951563,12.022649363060276,24.485850355456243,17.400348221913703,86.11202415050069,76.00558591706468,70.33680941463369,18.656562192007694,23.195651327922775,84.4786069070516,29.630369018003933,25.0684653204629,1.2471615189215997,-6.336907633298813,-6.17744626302898,-4.150165446842494,-5.302702628674283,5.874029780843577,4.230103123228174,3.3080124130134667,-5.098365196890041,-4.360030933179181,5.608335963942694,-3.313351212725636,-4.055396523312995
1.1,57.678359196028,10.985764664553692,11.96751535221227,24.44880992531334,17.353021340900945,86.16445015436521,76.04333979488956,70.36633358764932,18.611059032594596,23.156737838022227,84.5286615805703,29.600797195939048,25.032270707610095,0.9790340248571444,-4.974534646275037,-4.849355906572178,-3.2579205817371584,-4.162673573877241,4.611170992064207,3.3206724417506654,2.5968221901124586,-4.002266685728798,-3.422667046929952,4.4025987397988775,-2.6010132002509296,-3.1835260472467968
1.11,57.68680889880625,10.942831183026062,11.925662244928832,24.4206919438215,17.31709475043616,86.20424757034198,76.07199936589969,70.38874585843595,18.576516858293115,23.12719798698417,84.56665888184757,29.57834875399891,25.00479479951796,0.7109065307926893,-3.612161659251263,-3.5212655501153765,-2.365675716631823,-3.022644519080199,3.348312203284839,2.4112417602731564,1.8856319672114505,-2.9061681745675556,-2.4853031606807234,3.1968615156550615,-1.8886751877762233,-2.3116555711805997
1.12,57.69257732664386,10.913521431368668,11.897090041209962,24.40149641098071,17.29256845051934,86.23141639843091,76.09156463009502,70.40404622699354,18.55293566910325,23.10703177480861,84.5925988108834,29.563023692183524,24.986037596186485,0.44277903672823415,-2.2497886722274876,-2.1931751936585746,-1.473430851526488,-1.8826154642831567,2.0854534145054706,1.5018110787956476,1.1744417443104425,-1.8100696634063131,-1.5479392744314946,1.9911242915112453,-1.1763371753015168,-1.439785095114402
1.13,57.69566447954081,10.897835409581514,11.881798741055663,24.39122332679097,17.279442441150497,86.24595663863207,76.1020355874756,70.41223469332215,18.540315465024992,23.096239201495546,84.60648136767779,29.554822010492884,24.975999097615677,0.17465154266378494,-0.8874156852037429,-0.8650848372018025,-0.5811859864211727,-0.7425864094861399,0.8225946257261302,0.5923803973181587,0.4632515214094501,-0.713971152245095,-0.6105753881822865,0.7853870673674559,-0.4639991628268261,-0.5679146190482239
1.14,57.69624117202635,10.895249964017939,11.879483996631237,24.389780188464684,17.27717988450164,86.24801949986737,76.10418577784851,70.41292188769525,18.538776936238737,23.095112517806747,84.60878034486026,29.554159772830047,24.974908817069757,0.00451732063289524,0.17483331444927847,0.2884065533889334,0.25799166671762375,0.08946828531929224,-0.3535182809047007,0.1267158116933418,-0.47131322180827484,0.45136517921422914,0.4944475873192539,-0.1485437112591143,0.4870273465870662,0.43562355437184563
1.15,57.696351132904965,10.899505766612052,11.886504405538648,24.39606023645173,17.27935772664775,86.23941413754453,76.10727030142355,70.40144915414713,18.54976409338692,23.107148389410476,84.60516448529879,29.566015020507177,24.985512790680808,0.017474855089989572,0.6763272043732685,1.1156752280930753,0.9980179306922164,0.3461001439037615,-1.3675541836649472,0.4901889033128781,-1.823233487815767,1.7460662504225535,1.9127267334267404,-0.5746282010357516,1.884022188838168,1.685171167837874
1.16,57.69659066912815,10.908776508105404,11.9017975011931,24.409740547078528,17.284101887379713,86.22066841619407,76.11398955591477,70.37645721793893,18.573698261247188,23.133367052475283,84.59728778083954,29.591840216606812,25.008612240426515,0.030432389547083903,1.1778210942972585,1.9429439027972173,1.738044194666809,0.6027320024882307,-2.3815900864251938,0.8536619949324145,-3.175153753823259,3.0407673216308777,3.331005879534227,-1.000712690812389,3.28101703108927,2.934718781303902
1.17,57.69695978069591,10.923062188497997,11.925363283594592,24.43082112034507,17.291412366697518,86.19178233581603,76.1243435413222,70.33794607907066,18.61057943981954,23.17376850700116,84.58515023148254,29.63163536112896,25.044207166306883,0.04338992400417823,1.6793149842212483,2.770212577501359,2.4780704586414015,0.8593638610726999,-3.3956259891854397,1.2171350865519506,-4.52707401983075,4.335468392839202,4.749285025641713,-1.4267971805890263,4.678011873340371,4.184266394769931
1.18,57.697458467608236,10.94236280778983,11.957201752743126,24.459301956251355,17.301289164601165,86.15275589641035,76.13833225764583,70.28591573754233,18.66040762910397,23.228352752988116,84.56875183722777,29.685400454073623,25.092297568321914,0.056347458461272565,2.1808088741452383,3.597481252205501,3.218096722615994,1.115995719657169,-4.409661891945687,1.5806081781714871,-5.8789942858382425,5.630169464047526,6.167564171749199,-1.8528816703656636,6.075006715591473,5.4338140082359585
1.19,57.69808672986514,10.966678365980902,11.997312908638703,24.49518305479739,17.31373228109066,86.1035890979771,76.15595570488563,70.2203661933539,18.72318282910049,23.297119790436145,84.54809259807523,29.753135495440795,25.152883446471606,0.06930499291836689,2.6823027640692283,4.424749926909643,3.9581229865905865,1.3726275782416384,-5.423697794705933,1.9440812697910232,-7.230914551845735,6.92487053525585,7.5858433178566855,-2.278966160142301,7.472001557842575,6.683361621701987
1.2,57.69884456746661,10.996008863071216,12.045696751281321,24.538464415983167,17.328741716166,86.04428194051626,76.17721388304165,70.14129744650542,18.798905039809092,23.38006961934525,84.52317251402494,29.834840485230476,25.225964800755957,0.08226252737546123,3.1837966539932183,5.252018601613785,4.69814925056518,1.6292594368261077,-6.43773369746618,2.30755436141056,-8.582834817853227,8.219571606464175,9.004122463964173,-2.7050506499189386,8.868996400093678,7.932909235168016
1.21,57.69973198041264,11.030354299060766,12.102353280670977,24.589146039808693,17.346317469827184,85.97483442402778,76.20210679211385,70.04870949699685,18.887574261229773,23.477202239715428,84.49399158507686,29.930515423442664,25.31154163117497,0.09522006183255556,3.685290543917208,6.079287276317926,5.438175514539772,1.8858912954105767,-7.4517696002264255,2.6710274530300957,-9.934755083860718,9.514272677672498,10.422401610071658,-3.1311351396955756,10.265991242344779,9.182456848634043
1.22,57.70074896870325,11.06971467394956,12.167282496807678,24.647227926273963,17.36645954207421,85.89524654851172,76.23063443210225,69.9426023448282,18.98919049336254,23.588517651546685,84.46054981123102,30.040160310077372,25.40961393772864,0.1081775962896499,4.186784433841199,6.906555951022069,6.1782017785143655,2.1425231539950462,-8.465805502986672,3.0345005446496325,-11.286675349868212,10.808973748880824,11.840680756179147,-3.5572196294722134,11.662986084595882,10.432004462100073
1.23,57.70189553233843,11.114089987737591,12.24048439969142,24.71271007537898,17.389167932907082,85.80551831396805,76.26279680300684,69.82297598999948,19.10375373620739,23.714015854839012,84.42284719248741,30.163775145134583,25.520181720416964,0.12113513074674423,4.688278323765188,7.733824625726211,6.918228042488957,2.3991550125795156,-9.47984140574692,3.397973636269169,-12.638595615875703,12.103674820089148,13.258959902286632,-3.9833041192488507,13.059980926846984,11.6815520755661
1.24,57.70317167131819,11.163480240424864,12.321958989322203,24.785592487123743,17.4144426423258,85.70564972039678,76.29859390482763,69.68983043251067,19.231263989764326,23.853696849592414,84.38088372884603,30.301359928614307,25.643244979239956,0.13409266520383856,5.189772213689178,8.561093300430352,7.65825430646355,2.6557868711639845,-10.493877308507166,3.761446727888705,-13.990515881883196,13.398375891297471,14.677239048394119,-4.409388609025488,14.456975769098085,12.931099689032129
1.25,57.704577385642516,11.217885432011375,12.411706265700028,24.86587516150825,17.442283670330365,85.59564076779792,76.3380257375646,69.54316567236181,19.37172125403334,24.007560635806893,84.33465942030689,30.452914660516548,25.77880371419761,0.14705019966093288,5.691266103613168,9.388361975134494,8.398280570438143,2.912418729748454,-11.507913211267411,4.124919819508241,-15.342436147890687,14.693076962505796,16.095518194501604,-4.835473098802125,15.853970611349187,14.180647302498157
1.26,57.70611267531141,11.277305562497126,12.509726228824892,24.953558098532504,17.47269101692077,85.47549145617143,76.38109230121779,69.38298170955287,19.525125529014442,24.175607213482447,84.28417426687,30.618439340841295,25.92685792528992,0.1600077341180272,6.192759993537158,10.215630649838635,9.138306834412735,3.1690505883329227,-12.521949114027658,4.488392911127778,-16.694356413898177,15.98777803371412,17.51379734060909,-5.261557588578762,17.250965453600287,15.430194915964185
1.27,57.70777754032488,11.341740631882118,12.6160188786968,25.048641298196504,17.505664682097024,85.34520178551736,76.42779359578716,69.20927854408386,19.69147681470762,24.357836582619075,84.22942826853532,30.797933969588552,26.08740761251689,0.17296526857512154,6.694253883461148,11.042899324542777,9.878333098387328,3.425682446917392,-13.535985016787905,4.851866002747314,-18.04627667990567,17.282479104922444,18.93207648671658,-5.6876420783554,18.64796029585139,16.679742529430214
1.28,57.70957198068291,11.411190640166348,12.730584215315748,25.151124760500252,17.54120466585912,85.20477175583568,76.47812962127274,69.02205617595476,19.870775111112888,24.55424874321678,84.17042142530289,30.99139854675832,26.260452775878527,0.1859228030322159,7.195747773385139,11.87016799924692,10.618359362361922,3.6823143055018615,-14.550020919548151,5.2153390943668505,-19.398196945913163,18.57718017613077,20.350355632824066,-6.113726568132037,20.044955138102495,17.929290142896242
1.29,57.71149599638552,11.48565558734982,12.853422238681738,25.261008485443746,17.57931096820706,85.05420136712638,76.5321003776745,68.82131460516558,20.06302041823024,24.76484369527556,84.10715373717267,31.198833072350602,26.445993415374822,0.1988803374893102,7.697241663309128,12.697436673951062,11.358385626336512,3.9389461640863304,-15.564056822308396,5.578812185986386,-20.750117211920653,19.87188124733909,21.76863477893155,-6.539811057908674,21.441949980353595,19.17883775636227
1.3,57.713549587432695,11.56513547343253,12.984532948794769,25.37829247302698,17.619983589140844,84.89349061938951,76.58970586499247,68.60705383171634,20.26821273605967,24.98962143879541,84.03962520414471,31.420237546365392,26.644029531005774,0.21183787194640455,8.198735553233119,13.524705348655203,12.098411890311105,4.1955780226708,-16.578092725068643,5.942285277605923,-22.102037477928146,21.166582318547416,23.186913925039036,-6.965895547685312,22.8389448226047,20.428385369828298
1.31,57.71573275382445,11.649630298414483,13.123916345654843,25.50297672324997,17.663222528660473,84.72263951262502,76.65094608322663,68.37927385560702,20.48635206460119,25.228581973776343,83.96783582621897,31.655611968802695,26.854561122771386,0.22479540640349888,8.700229443157108,14.351974023359345,12.838438154285697,4.452209881255269,-17.592128627828888,6.305758369225458,-23.453957743935636,22.46128338975574,24.60519307114652,-7.391980037461948,24.235939664855795,21.677932983294326
1.32,57.718045495560766,11.739140062295675,13.271572429261957,25.635061236112698,17.70902778676595,84.54164804683292,76.71582103237697,68.13797467683763,20.717438403854786,25.481725300218343,83.89178560339546,31.904956339662508,27.07758819067166,0.2377529408605932,9.201723333081098,15.179242698063488,13.57846441826029,4.708841739839738,-18.606164530589137,6.669231460844995,-24.805878009943132,23.755984460964065,26.02347221725401,-7.818064527238587,25.6329345071069,22.927480596760354
1.33,57.72048781264166,11.833664765076104,13.427501199616112,25.774546011615172,17.757399363457267,84.35051622201323,76.78433071244352,67.88315629540816,20.96147175382047,25.74905141812142,83.8114745356742,32.168270658944834,27.31311073470659,0.2507104753176876,9.703217223005089,16.00651137276763,14.318490682234884,4.965473598424208,-19.620200433349385,7.032704552464532,-26.157798275950626,25.05068553217239,27.441751363361497,-8.244149017015225,27.029929349358003,24.177028210226386
1.34,57.72305970506712,11.933204406755776,13.59170265671731,25.921431049757395,17.808337258734433,84.14924403816595,76.85647512342626,67.61481871131862,21.218452114498234,26.030560327485574,83.72690262305517,32.44555492664967,27.561128754876187,0.2636680097747819,10.204711112929077,16.83378004747177,15.058516946209476,5.222105457008676,-20.63423633610963,7.396177644084068,-27.509718541958115,26.345386603380714,28.86003050946898,-8.670233506791861,28.426924191609103,25.42657582369241
1.35,57.72576117283715,12.037758987334687,13.764176800565549,26.075716350539363,17.861841472597444,83.93783149529105,76.93225426532521,67.33296192456899,21.488379485888085,26.3262520283108,83.63806986553837,32.73680914277702,27.821642251180442,0.27662554423187624,10.706205002853068,17.661048722175913,15.79854321018407,5.478737315593146,-21.64827223886988,7.759650735703604,-28.86163880796561,27.64008767458904,30.27830965557647,-9.0963179965685,29.823919033860207,26.67612343715844
1.36,57.728592215951764,12.147328506812839,13.944923631160828,26.237401913961076,17.917912005046297,83.71627859338855,77.01166813814034,67.03758593515931,21.771253867990016,26.636126520597102,83.5449762631238,33.042033307326875,28.09465122361936,0.28958307868897054,11.207698892777058,18.488317396880056,16.53856947415866,5.735369174177615,-22.66230814163012,8.12312382732314,-30.213559073973098,28.934788745797363,31.696588801683955,-9.522402486345136,31.220913876111307,27.925671050624466
1.37,57.731552834410934,12.261912965190229,14.13394314850315,26.406487740022538,17.976548856080996,83.48458533245844,77.09471674187166,66.72869074308953,22.06707526080403,26.96018380434448,83.44762181581146,33.361227420299244,28.380155672192934,0.3025406131460649,11.709192782701049,19.315586071584196,17.278595738133255,5.992001032762085,-23.67634404439037,8.486596918942677,-31.56547933998059,30.229489817005685,33.114867947791446,-9.948486976121773,32.61790871836241,29.175218664090497
1.38,57.73464302821468,12.381512362466857,14.331235352592508,26.582973828723738,18.03775202570154,83.24275171250073,77.1814000765192,66.4062763483597,22.375843664330123,27.29842387955292,83.34600652360136,33.69439148169411,28.678155596901163,0.3154981476031589,12.210686672625027,20.14285474628832,18.01862200210783,6.248632891346547,-24.690379947150593,8.850070010562204,-32.91739960598805,31.52419088821398,34.5331470938989,-10.3745714658984,34.014903560613476,30.424766277556497
1.39,57.73786279736299,12.506126698642726,14.536800243428912,26.76686018006469,18.101521513907926,82.99077773351543,77.27171814208292,66.07034275096979,22.697559078568307,27.650846746222452,83.24013038649349,34.04152549151151,28.988650997744056,0.3284556820602533,12.712180562549017,20.97012342099246,18.758648266082425,6.505264749931017,-25.70441584991084,9.213543102181742,-34.26931987199555,32.81889195942231,35.951426240006384,-10.800655955675039,35.41189840286458,31.674313891022525
1.4,57.74121214185588,12.635755973717837,14.750637821012358,26.958146794045387,18.167857320700158,82.72866339550252,77.36567093856283,65.72088995091978,23.03222150351857,28.01745240435305,83.12999340448786,34.40262944975141,29.311641874721612,0.3414132165173476,13.213674452473006,21.797392095696605,19.498674530057013,6.761896608515486,-26.718451752671086,9.577016193801278,-35.62124013800304,34.11359303063063,37.369705386113864,-11.226740445451675,36.808893245115684,32.92386150448855
1.41,57.744691061693345,12.770400187692188,14.972748085342843,27.156833670665826,18.236759446078235,82.45640869846201,77.46325846595893,65.35791794820972,23.379830939180916,28.398240853944728,83.01559557758446,34.77770335641382,29.647128227833825,0.35437075097444193,13.715168342396996,22.624660770400748,20.238700794031608,7.018528467099956,-27.73248765543133,9.940489285420814,-36.97316040401053,35.408294101838955,38.78798453222136,-11.652824935228313,38.20588808736679,34.173409117954584
1.42,57.74829955687538,12.910059340565777,15.203131036420373,27.36292080992602,18.308227890042158,82.1740136423939,77.56448072427123,64.98142674283959,23.74038738555535,28.79321209499748,82.89693690578329,35.166747211498745,29.995110057080705,0.36732828543153623,14.216662232320987,23.451929445104888,20.9787270580062,7.275160325684425,-28.746523558191576,10.30396237704035,-38.32508067001802,36.70299517304728,40.20626367832884,-12.07890942500495,39.602882929617884,35.42295673142061
1.43,57.752037627401975,13.054733432338606,15.441786674244941,27.576408211825953,18.382262652591923,81.88147822729817,77.66933771349974,64.59141633480935,24.113890842641865,29.202366127511304,82.77401738908436,35.56976101500618,30.355587362462238,0.3802858198886306,14.718156122244977,24.27919811980903,21.718753321980792,7.531792184268894,-29.760559460951825,10.667435468659887,-39.677000936025514,37.9976962442556,41.624542824436325,-12.504993914781588,40.99987777186899,36.67250434488664
1.44,57.75590527327314,13.204422463010676,15.688714998816554,27.797295876365634,18.458863733727533,81.57880245317486,77.77782943364443,64.18788672411907,24.50034131044046,29.625702951486204,82.64683702748766,35.98674476693613,30.728560143978434,0.39324335434572494,15.219650012168968,25.106466794513175,22.458779585955387,7.7884240428533635,-30.774595363712073,11.030908560279423,-41.028921202033004,39.29239731546393,43.04282197054382,-12.931078404558226,42.39687261412009,37.92205195835267
1.45,57.75990249448889,13.359126432581986,15.943916010135206,28.02558380354506,18.53803113344899,81.26598632002394,77.88995588470533,63.7708379107687,24.899738788951147,30.063222566922185,82.5153958209932,36.41769846728858,31.114028401629298,0.4062008888028193,15.721143902092958,25.933735469217314,23.19880584992998,8.045055901437832,-31.788631266472322,11.39438165189896,-42.3808414680405,40.58709838667225,44.46110111665131,-13.357162894334863,43.793867456371196,39.171599571818696
1.46,57.7640292910492,13.518845341052536,16.2073897082009,28.261271993364232,18.619764851756294,80.94302982784541,78.00571706668242,63.34026989475826,25.31208327817391,30.514924973819234,82.37969376960096,36.86262211606355,31.511992135414815,0.41915842325991354,16.222637792016947,26.761004143921454,23.93883211390457,8.3016877600223,-32.80266716923256,11.757854743518495,-43.73276173404798,41.881799457880575,45.87938026275879,-13.7832473841115,45.19086229862229,40.421147185284724
1.47,57.76828566295409,13.683579188422325,16.479136093013636,28.504360445823156,18.704064888649437,80.60993297663929,78.1251129795757,62.89618267608774,25.73737477810876,30.98081017217736,82.23973087331096,37.32151571326103,31.92245134533499,0.4321159577170079,16.724131681940936,27.588272818625597,24.678858377879163,8.55831961860677,-33.81670307199281,12.12132783513803,-45.08468200005548,43.1765005290889,47.297659408866274,-14.209331873888136,46.587857140873396,41.67069479875075
1.48,57.772671610203545,13.853327974691355,16.759155164573414,28.754849160921815,18.790931244128426,80.26669576640556,78.24814362338518,62.438576254757145,26.175613288755688,31.46087816199656,82.0955071321232,37.794379258881015,32.34540603138983,0.44507349217410225,17.225625571864928,28.41554149332974,25.418884641853758,8.81495147719124,-34.83073897475306,12.484800926757568,-46.43660226606298,44.47120160029723,48.71593855497376,-14.635416363664774,47.9848519831245,42.92024241221678
1.49,57.777187132797565,14.028091699859624,17.047446922880233,29.01273813866023,18.88036391819326,79.91331819714422,78.37480899811085,61.96745063076648,26.6267988101147,31.95512894327684,81.94702254603767,38.28121275292352,32.780856193579325,0.4580310266311966,17.727119461788917,29.242810168033884,26.15891090582835,9.07158333577571,-35.8447748775133,12.848274018377104,-47.788522532070466,45.76590267150555,50.13421770108125,-15.061500853441412,49.381846825375604,44.16979002568281
1.5,57.78183223073617,14.207870363927134,17.34401136793409,29.278027379038384,18.97236291084394,79.5498002688553,78.50510910375273,61.482805804115735,27.090931342185797,32.463562516018186,81.79427711505437,38.78201619538853,33.22880183190348,0.47098856108829085,18.228613351712905,30.07007884273802,26.898937169802938,9.328215194360178,-36.85881078027355,13.21174710999664,-49.140442798077956,47.060603742713866,51.55249684718873,-15.487585343218047,50.7788416676267,45.419337639148836
1.51,57.786606779277626,14.392659139030513,17.64884053564966,29.55070975785046,19.06692575149493,79.17615174362538,78.6390404411686,60.98465478969197,27.56799842092903,32.98616522649905,81.63727494107314,39.296776137457705,33.68923091701304,0.48337752804345313,18.70810204233201,30.86104754962339,27.606491601604105,9.573586227419952,-37.82835150055823,13.559271257902699,-50.43304175330673,48.298494241182205,52.908542901513606,-15.894973545150227,52.11453735838407,46.61405598185459
1.52,57.791440554558065,14.57974015945383,17.957451011145896,29.826774673866502,19.16266161376913,78.79786822861979,78.77463315374763,60.480324372158904,28.050983363340855,33.51525065551418,81.47832520562164,39.81792151104155,34.15537147683159,0.48337752804345313,18.70810204233201,30.86104754962339,27.606491601604105,9.573586227419952,-37.82835150055823,13.559271257902699,-50.43304175330673,48.298494241182205,52.908542901513606,-15.894973545150227,52.11453735838407,46.61405598185459
1.53,57.796274329838496,14.766821179877152,18.26606148664213,30.102839589882546,19.258397476043335,78.41958471361421,78.91022586632667,59.975993954625835,28.533968305752676,34.04433608452932,81.31937547017014,40.33906688462539,34.62151203665014,0.48337752804345313,18.70810204233201,30.86104754962339,27.606491601604105,9.573586227419952,-37.82835150055823,13.559271257902699,-50.43304175330673,48.298494241182205,52.908542901513606,-15.894973545150227,52.11453735838407,46.61405598185459
1.54,57.80110810511893,14.953902200300472,18.57467196213836,30.378904505898582,19.35413333831753,78.04130119860862,79.04581857890568,59.471663537092766,29.016953248164498,34.57342151354445,81.16042573471863,40.86021225820922,35.08765259646868,0.48337752804345313,18.70810204233201,30.86104754962339,27.606491601604105,9.573586227419952,-37.82835150055823,13.559271257902699,-50.43304175330673,48.298494241182205,52.908542901513606,-15.894973545150227,52.11453735838407,46.61405598185459
1.55,57.80594188039936,15.140983220723792,18.8832824376346,30.654969421914625,19.44986920059173,77.66301768360304,79.18141129148471,58.9673331195597,29.49993819057632,35.10250694255959,81.00147599926713,41.381357631793065,35.55379315628723,0.48337752804345313,18.70810204233201,30.86104754962339,27.606491601604105,9.573586227419952,-37.82835150055823,13.559271257902699,-50.43304175330673,48.298494241182205,52.908542901513606,-15.894973545150227,52.11453735838407,46.61405598185459
1.56,57.8107756556798,15.328064241147112,19.19189291313083,30.931034337930665,19.54560506286593,77.28473416859745,79.31700400406373,58.46300270202663,29.98292313298814,35.631592371574726,80.84252626381563,41.90250300537691,36.019933716105776,0.48337752804345313,18.70810204233201,30.86104754962339,27.606491601604105,9.573586227419952,-37.82835150055823,13.559271257902699,-50.43304175330673,48.298494241182205,52.908542901513606,-15.894973545150227,52.11453735838407,46.61405598185459
1.57,57.81560943096023,15.515145261570435,19.500503388627067,31.20709925394671,19.641340925140128,76.90645065359188,79.45259671664277,57.95867228449356,30.465908075399966,36.160677800589866,80.68357652836413,42.42364837896075,36.486074275924324,0.48337752804345313,18.70810204233201,30.86104754962339,27.606491601604105,9.573586227419952,-37.82835150055823,13.559271257902699,-50.43304175330673,48.298494241182205,52.908542901513606,-15.894973545150227,52.11453735838407,46.61405598185459
1.58,57.82044320624067,15.702226281993754,19.809113864123297,31.48316416996275,19.73707678741433,76.52816713858628,79.58818942922179,57.45434186696049,30.948893017811788,36.689763229605006,80.52462679291261,42.94479375254459,36.952214835742865,0.48337752804345313,18.70810204233201,30.86104754962339,27.606491601604105,9.573586227419952,-37.82835150055823,13.559271257902699,-50.43304175330673,48.298494241182205,52.908542901513606,-15.894973545150227,52.11453735838407,46.61405598185459
1.59,57.8252769815211,15.889307302417073,20.11772433961953,31.759229085978788,19.832812649688528,76.1498836235807,79.72378214180081,56.95001144942742,31.43187796022361,37.21884865862013,80.36567705746111,43.46593912612843,37.41835539556141,0.48337752804345313,18.70810204233201,30.86104754962339,27.606491601604105,9.573586227419952,-37.82835150055823,13.559271257902699,-50.43304175330673,48.298494241182205,52.908542901513606,-15.894973545150227,52.11453735838407,46.61405598185459
1.6,57.83011075680153,16.076388322840394,20.426334815115766,32.03529400199483,19.928548511962727,75.77160010857511,79.85937485437984,56.44568103189435,31.914862902635434,37.74793408763527,80.20672732200961,43.98708449971227,37.88449595537996,0.48337752804345313,18.70810204233201,30.86104754962339,27.606491601604105,9.573586227419952,-37.82835150055823,13.559271257902699,-50.43304175330673,48.298494241182205,52.908542901513606,-15.894973545150227,52.11453735838407,46.61405598185459
1.61,57.83494453208197,16.263469343263715,20.734945290612004,32.31135891801087,20.024284374236927,75.39331659356954,79.99496756695888,55.94135061436128,32.39784784504725,38.27701951665041,80.04777758655811,44.508229873296116,38.3506365151985,0.48337752804345313,18.70810204233201,30.86104754962339,27.606491601604105,9.573586227419952,-37.82835150055823,13.559271257902699,-50.43304175330673,48.298494241182205,52.908542901513606,-15.894973545150227,52.11453735838407,46.61405598185459
1.62,57.8397783073624,16.450550363687036,21.043555766108234,32.587423834026914,20.120020236511127,75.01503307856396,80.13056027953789,55.437020196828215,32.88083278745908,38.806104945665545,79.88882785110661,45.02937524687995,38.81677707501705,0.48337752804345313,18.70810204233201,30.86104754962339,27.606491601604105,9.573586227419952,-37.82835150055823,13.559271257902699,-50.43304175330673,48.298494241182205,52.908542901513606,-15.894973545150227,52.11453735838407,46.61405598185459
1.63,57.84461208264284,16.63763138411035,21.352166241604465,32.863488750042954,20.215756098785327,74.6367495635584,80.26615299211693,54.932689779295174,33.36381772987089,39.33519037468068,79.72987811565511,45.550520620463786,39.28291763483559,0.48337752804345313,18.70810204233201,30.86104754962339,27.606491601604105,9.573586227419952,-37.82835150055823,13.559271257902699,-50.43304175330673,48.298494241182205,52.908542901513606,-15.894973545150227,52.11453735838407,46.61405598185459
1.64,57.84944585792328,16.82471240453367,21.660776717100696,33.139553666058994,20.311491961059524,74.2584660485528,80.40174570469595,54.4283593617621,33.84680267228271,39.86427580369581,79.57092838020361,46.07166599404763,39.74905819465414,0.48337752804345313,18.70810204233201,30.86104754962339,27.606491601604105,9.573586227419952,-37.82835150055823,13.559271257902699,-50.43304175330673,48.298494241182205,52.908542901513606,-15.894973545150227,52.11453735838407,46.61405598185459
1.65,57.8542796332037,17.01179342495699,21.969387192596933,33.415618582075034,20.407227823333727,73.88018253354723,80.53733841727498,53.924028944229036,34.32978761469454,40.393361232710944,79.41197864475211,46.59281136763147,40.21519875447268,0.48337752804345313,18.70810204233201,30.86104754962339,27.606491601604105,9.573586227419952,-37.82835150055823,13.559271257902699,-50.43304175330673,48.298494241182205,52.908542901513606,-15.894973545150227,52.11453735838407,46.61405598185459
1.66,57.85911340848414,17.198874445380312,22.277997668093164,33.69168349809107,20.502963685607924,73.50189901854164,80.672931129854,53.41969852669596,34.812772557106356,40.922446661726084,79.25302890930061,47.113956741215304,40.68133931429123,0.48337752804345313,18.70810204233201,30.86104754962339,27.606491601604105,9.573586227419952,-37.82835150055823,13.559271257902699,-50.43304175330673,48.298494241182205,52.908542901513606,-15.894973545150227,52.11453735838407,46.61405598185459
1.67,57.86394718376458,17.385955465803633,22.586608143589398,33.96774841410711,20.598699547882124,73.12361550353606,80.80852384243303,52.9153681091629,35.29575749951818,41.45153209074122,79.09407917384911,47.63510211479915,41.14747987410978,0.48337752804345313,18.70810204233201,30.86104754962339,27.606491601604105,9.573586227419952,-37.82835150055823,13.559271257902699,-50.43304175330673,48.298494241182205,52.908542901513606,-15.894973545150227,52.11453735838407,46.61405598185459
1.68,57.86878095904501,17.57303648622695,22.895218619085632,34.24381333012316,20.694435410156323,72.74533198853048,80.94411655501206,52.41103769162983,35.77874244193,41.98061751975636,78.93512943839761,48.15624748838299,41.61362043392832,0.48337752804345313,18.70810204233201,30.86104754962339,27.606491601604105,9.573586227419952,-37.82835150055823,13.559271257902699,-50.43304175330673,48.298494241182205,52.908542901513606,-15.894973545150227,52.11453735838407,46.61405598185459
1.69,57.87361473432544,17.76011750665027,23.203829094581867,34.5198782461392,20.790171272430523,72.36704847352489,81.07970926759108,51.90670727409676,36.261727384341825,42.50970294877149,78.77617970294611,48.67739286196684,42.079760993746866,0.48337752804345313,18.70810204233201,30.86104754962339,27.606491601604105,9.573586227419952,-37.82835150055823,13.559271257902699,-50.43304175330673,48.298494241182205,52.908542901513606,-15.894973545150227,52.11453735838407,46.61405598185459
1.7,57.878448509605875,17.947198527073592,23.5124395700781,34.79594316215524,20.885907134704723,71.98876495851931,81.21530198017011,51.40237685656369,36.74471232675365,43.03878837778663,78.6172299674946,49.19853823555067,42.545901553565415,0.48337752804345313,18.70810204233201,30.86104754962339,27.606491601604105,9.573586227419952,-37.82835150055823,13.559271257902699,-50.43304175330673,48.298494241182205,52.908542901513606,-15.894973545150227,52.11453735838407,46.61405598185459
1.71,57.88328228488631,18.134279547496913,23.82105004557434,35.07200807817128,20.98164299697892,71.61048144351372,81.35089469274914,50.89804643903062,37.22769726916547,43.56787380680177,78.45828023204308,49.71968360913452,43.01204211338396,0.48337752804345313,18.70810204233201,30.86104754962339,27.606491601604105,9.573586227419952,-37.82835150055823,13.559271257902699,-50.43304175330673,48.298494241182205,52.908542901513606,-15.894973545150227,52.11453735838407,46.61405598185459
1.72,57.88811606016675,18.321360567920234,24.12966052107057,35.34807299418732,21.077378859253123,71.23219792850814,81.48648740532818,50.39371602149755,37.710682211577286,44.0969592358169,78.2993304965916,50.240828982718355,43.478182673202504,0.48337752804345313,18.70810204233201,30.86104754962339,27.606491601604105,9.573586227419952,-37.82835150055823,13.559271257902699,-50.43304175330673,48.298494241182205,52.908542901513606,-15.894973545150227,52.11453735838407,46.61405598185459
1.73,57.89294983544718,18.50844158834355,24.438270996566803,35.62413791020336,21.17311472152732,70.85391441350257,81.62208011790719,49.88938560396449,38.19366715398911,44.62604466483204,78.14038076114008,50.7619743563022,43.94432323302105,0.48337752804345313,18.70810204233201,30.86104754962339,27.606491601604105,9.573586227419952,-37.82835150055823,13.559271257902699,-50.43304175330673,48.298494241182205,52.908542901513606,-15.894973545150227,52.11453735838407,46.61405598185459
1.74,57.897783610727615,18.695522608766872,24.746881472063038,35.9002028262194,21.268850583801523,70.47563089849697,81.75767283048623,49.38505518643142,38.676652096400936,45.15513009384717,77.98143102568858,51.28311972988604,44.4104637928396,0.48337752804345313,18.70810204233201,30.86104754962339,27.606491601604105,9.573586227419952,-37.82835150055823,13.559271257902699,-50.43304175330673,48.298494241182205,52.908542901513606,-15.894973545150227,52.11453735838407,46.61405598185459
1.75,57.90261738600805,18.882603629190193,25.055491947559272,36.176267742235446,21.36458644607572,70.0973473834914,81.89326554306524,48.880724768898354,39.159637038812754,45.68421552286231,77.82248129023708,51.80426510346988,44.87660435265815,0.48337752804345313,18.70810204233201,30.86104754962339,27.606491601604105,9.573586227419952,-37.82835150055823,13.559271257902699,-50.43304175330673,48.298494241182205,52.908542901513606,-15.894973545150227,52.11453735838407,46.61405598185459
1.76,57.90745116128849,19.069684649613514,25.364102423055506,36.452332658251485,21.46032230834992,69.71906386848582,82.02885825564428,48.376394351365285,39.64262198122458,46.21330095187744,77.66353155478558,52.32541047705372,45.34274491247669,0.48337752804345313,18.70810204233201,30.86104754962339,27.606491601604105,9.573586227419952,-37.82835150055823,13.559271257902699,-50.43304175330673,48.298494241182205,52.908542901513606,-15.894973545150227,52.11453735838407,46.61405598185459
1.77,57.91228493656892,19.256765670036835,25.67271289855174,36.728397574267525,21.55605817062412,69.34078035348023,82.1644509682233,47.872063933832216,40.125606923636404,46.74238638089258,77.50458181933408,52.846555850637564,45.80888547229524,0.48337752804345313,18.70810204233201,30.86104754962339,27.606491601604105,9.573586227419952,-37.82835150055823,13.559271257902699,-50.43304175330673,48.298494241182205,52.908542901513606,-15.894973545150227,52.11453735838407,46.61405598185459
1.78,57.917118711849355,19.443846690460155,25.981323374047975,37.00446249028357,21.65179403289832,68.96249683847465,82.30004368080233,47.367733516299154,40.60859186604823,47.27147180990772,77.34563208388258,53.367701224221406,46.275026032113786,0.48337752804345313,18.70810204233201,30.86104754962339,27.606491601604105,9.573586227419952,-37.82835150055823,13.559271257902699,-50.43304175330673,48.298494241182205,52.908542901513606,-15.894973545150227,52.11453735838407,46.61405598185459
1.79,57.92195248712979,19.630927710883476,26.28993384954421,37.28052740629961,21.74752989517252,68.58421332346907,82.43563639338136,46.863403098766085,41.091576808460054,47.80055723892286,77.18668234843108,53.88884659780525,46.74116659193233,0.48337752804345313,18.70810204233201,30.86104754962339,27.606491601604105,9.573586227419952,-37.82835150055823,13.559271257902699,-50.43304175330673,48.298494241182205,52.908542901513606,-15.894973545150227,52.11453735838407,46.61405598185459
1.8,57.92678626241022,19.818008731306794,26.598544325040443,37.55659232231565,21.84326575744672,68.20592980846348,82.57122910596038,46.359072681233016,41.57456175087187,48.32964266793799,77.02773261297958,54.40999197138908,47.20730715175088,0.48337752804345313,18.70810204233201,30.86104754962339,27.606491601604105,9.573586227419952,-37.82835150055823,13.559271257902699,-50.43304175330673,48.298494241182205,52.908542901513606,-15.894973545150227,52.11453735838407,46.61405598185459
1.81,57.93162003769066,20.005089751730115,26.907154800536677,37.83265723833169,21.93900161972092,67.8276462934579,82.70682181853941,45.85474226369995,42.05754669328369,48.85872809695313,76.86878287752808,54.931137344972925,47.67344771156942,0.48337752804345313,18.70810204233201,30.86104754962339,27.606491601604105,9.573586227419952,-37.82835150055823,13.559271257902699,-50.43304175330673,48.298494241182205,52.908542901513606,-15.894973545150227,52.11453735838407,46.61405598185459
1.82,57.936453812971095,20.192170772153432,27.21576527603291,38.10872215434773,22.034737481995116,67.44936277845233,82.84241453111844,45.35041184616688,42.540531635695515,49.38781352596826,76.70983314207656,55.452282718556766,48.13958827138797,0.48337752804345313,18.70810204233201,30.86104754962339,27.606491601604105,9.573586227419952,-37.82835150055823,13.559271257902699,-50.43304175330673,48.298494241182205,52.908542901513606,-15.894973545150227,52.11453735838407,46.61405598185459
1.83,57.94128758825153,20.379251792576753,27.524375751529146,38.38478707036377,22.130473344269316,67.07107926344673,82.97800724369748,44.84608142863381,43.02351657810733,49.9168989549834,76.55088340662508,55.97342809214061,48.60572883120651,0.48337752804345313,18.70810204233201,30.86104754962339,27.606491601604105,9.573586227419952,-37.82835150055823,13.559271257902699,-50.43304175330673,48.298494241182205,52.908542901513606,-15.894973545150227,52.11453735838407,46.61405598185459
1.84,57.94612136353196,20.566332813000074,27.83298622702538,38.66085198637981,22.226209206543516,66.69279574844116,83.11359995627649,44.34175101110074,43.50650152051916,50.44598438399854,76.39193367117356,56.49457346572444,49.07186939102506,0.48337752804345313,18.70810204233201,30.86104754962339,27.606491601604105,9.573586227419952,-37.82835150055823,13.559271257902699,-50.43304175330673,48.298494241182205,52.908542901513606,-15.894973545150227,52.11453735838407,46.61405598185459
1.85,57.950955138812404,20.753413833423394,28.141596702521614,38.93691690239586,22.321945068817715,66.31451223343556,83.24919266885553,43.83742059356768,43.989486462930984,50.975069813013675,76.23298393572206,57.01571883930829,49.53800995084361,0.48337752804345313,18.70810204233201,30.86104754962339,27.606491601604105,9.573586227419952,-37.82835150055823,13.559271257902699,-50.43304175330673,48.298494241182205,52.908542901513606,-15.894973545150227,52.11453735838407,46.61405598185459
1.86,57.955788914092835,20.940494853846715,28.45020717801785,39.212981818411905,22.417680931091915,65.93622871842999,83.38478538143454,43.3330901760346,44.4724714053428,51.50415524202881,76.07403420027056,57.53686421289213,50.00415051066216,0.48337752804345313,18.70810204233201,30.86104754962339,27.606491601604105,9.573586227419952,-37.82835150055823,13.559271257902699,-50.43304175330673,48.298494241182205,52.908542901513606,-15.894973545150227,52.11453735838407,46.61405598185459
1.87,57.96062268937327,21.127575874270036,28.758817653514082,39.48904673442794,22.51341679336612,65.5579452034244,83.52037809401358,42.82875975850153,44.955456347754634,52.03324067104395,75.91508446481905,58.058009586475976,50.4702910704807,0.48337752804345313,18.70810204233201,30.86104754962339,27.606491601604105,9.573586227419952,-37.82835150055823,13.559271257902699,-50.43304175330673,48.298494241182205,52.908542901513606,-15.894973545150227,52.11453735838407,46.61405598185459
1.88,57.965456464653705,21.314656894693353,29.06742812901031,39.76511165044398,22.60915265564031,65.17966168841883,83.65597080659259,42.32442934096848,45.43844129016644,52.562326100059074,75.75613472936755,58.5791549600598,50.93643163029924,0.48337752804345313,18.70810204233201,30.86104754962339,27.606491601604105,9.573586227419952,-37.82835150055823,13.559271257902699,-50.43304175330673,48.298494241182205,52.908542901513606,-15.894973545150227,52.11453735838407,46.61405598185459
1.89,57.97025484523352,21.50036803829674,29.373778843811344,40.03915511645728,22.704187504320142,64.80414810601997,83.7905706588938,41.82379181834801,45.91788963717437,53.08753736875944,75.59834888300344,59.096484313368194,51.39915893554883,0.4738001792153904,18.337431068247547,30.249585492670665,27.059513340000315,9.383901003105397,-37.07884351375159,13.290616090549563,-49.43379208755013,47.34153720370818,51.86024515916021,-15.580040190943809,51.08197155973262,45.69047338123992
1.9,57.97492805935338,21.681234879529597,29.672138355364535,40.30605011853741,22.796743355058272,64.43842985039625,83.9216594543412,41.33621349880255,46.3848315038554,53.599048424620506,75.4446789035429,59.60031905475426,51.8498159312939,0.46084264475829606,17.835937178323558,29.42231681796652,26.31948707602572,9.127269144520927,-36.06480761099135,12.927142998930027,-48.08187182154264,46.046836132499855,50.44196601305272,-15.15395570116717,49.68497671748152,44.44092576777389
1.91,57.97947169812868,21.857086781863213,29.962225180170677,40.5655448579778,22.886732887210563,64.08285195380013,84.04911351887239,40.86215438191715,46.83882635982437,54.096376689020495,75.29526976898009,60.09018384771783,52.287977450904314,0.4478851103012017,17.334443288399566,28.595048143262378,25.579460812051128,8.870637285936459,-35.0507717082311,12.563669907310489,-46.729951555535145,44.752135061291526,49.02368686694523,-14.727871211390534,48.287981875230415,43.191378154307856
1.92,57.983885761559414,22.027923745297592,30.24403931822978,40.817639334778434,22.974156100777,63.73741441623163,84.1729328524874,40.40161446769184,47.279874205081235,54.57952216195941,75.15012147931508,60.56607869225888,52.71364349438005,0.43492757584410746,16.83294939847558,27.76777946855824,24.839434548076536,8.61400542735199,-34.03673580547086,12.200196815690955,-45.37803128952766,43.45743399008321,47.60540772083775,-14.301786721613897,46.89098703297932,41.941830540841835
1.93,57.98817024964556,22.193745769832727,30.51758076954184,41.06233354893932,23.0590129957576,63.40211723769072,84.29311745518622,39.954593756126606,47.70797503962603,55.04848484343725,75.00923403454783,61.028003588377416,53.12681406172114,0.4219700413870131,16.33145550855159,26.9405107938541,24.099408284101944,8.357373568767521,-33.02269990271061,11.836723724071419,-44.026111023520166,42.16273291887488,46.18712857473027,-13.87570223183726,45.493992190728214,40.69228292737581
1.94,57.99232516238715,22.354552855468622,30.782849534106862,41.299627500460474,23.141303572152353,63.07696041817741,84.40966732696884,39.52109224722144,48.12312886345873,55.50326473345402,74.87260743467833,61.47595853607344,53.52748915292757,0.40901250692991875,15.829961618627598,26.113242119149955,23.35938202012735,8.100741710183051,-32.008663999950365,11.473250632451881,-42.674190757512676,40.86803184766656,44.76884942862278,-13.449617742060623,44.09699734847711,39.44273531390978
1.95,57.996350499784164,22.510345002205277,31.039845611924843,41.52952118934188,23.221027829961262,62.76194395769171,84.52258246783526,39.10110994097635,48.52533567657937,55.9438618320097,74.74024167970661,61.90994353534696,53.91566876799934,0.3960549724728244,15.328467728703608,25.285973444445812,22.619355756152757,7.844109851598581,-30.994628097190116,11.109777540832345,-41.32227049150518,39.57333077645823,43.35057028251529,-13.023533252283984,42.70000250622601,38.193187700443744
1.96,58.00024626183661,22.661122210042695,31.288569002995782,41.75201461558353,23.298185769184325,62.45706785623361,84.6318628777855,38.69464683739133,48.914595478987906,56.37027613910433,74.61213676963266,62.32995858619796,54.291352906936446,0.38309743801573004,14.826973838779617,24.45870476974167,21.87932949217816,7.587477993014112,-29.980592194429867,10.746304449212808,-39.97035022549768,38.278629705249905,41.9322911364078,-12.597448762507346,41.3030076639749,36.943640086977716
1.97,58.00401244854448,22.80688447898087,31.529019707319677,41.96710777918544,23.372777389821543,62.16233211380311,84.7375085568195,38.30170293646639,49.290908270684355,56.78250765473786,74.48829270445647,62.73600368862646,54.654541569738896,0.3701399035586358,14.325479948855628,23.63143609503753,21.139303228203573,7.330846134429644,-28.966556291669626,10.382831357593274,-38.6184299594902,36.98392863404159,40.514011990300325,-12.171364272730711,39.906012821723806,35.694092473511695
1.98,58.00764905990778,22.947631809019807,31.76119772489653,42.1748006801476,23.44480269187292,61.877736730400215,84.83951950493734,37.922278238201535,49.65427405166873,57.18055637891033,74.36870948417804,63.12807884263244,55.00523475640668,0.35718236910154144,13.823986058931638,22.804167420333386,20.39927696422898,7.074214275845174,-27.952520388909377,10.019358265973736,-37.2665096934827,35.68922756283326,39.09573284419283,-11.745279782954073,38.5090179794727,34.44454486004567
1.99,58.01115609592651,23.083364200159505,31.985103055726345,42.375093318470014,23.514261675338446,61.60328170602492,84.93789572213899,37.556372742596736,50.00469282194103,57.56442231162172,74.25338710879738,63.50618404821591,55.34343246693981,0.3442248346444471,13.322492169007647,21.976898745629246,19.659250700254386,6.817582417260705,-26.938484486149132,9.6558851743542,-35.914589427475214,34.39452649162494,37.677453698085344,-11.319195293177435,37.1120231372216,33.19499724657963
2.0,58.01453355660067,23.214081652399962,32.200735699809115,42.56798569415268,23.58115434021813,61.33896704067723,85.03263720842443,37.20398644965203,50.34216458150124,57.93410545287203,74.14232557831448,63.87031930537687,55.66913470133827,0.3312673001873528,12.820998279083659,21.149630070925102,18.919224436279794,6.560950558676236,-25.924448583388887,9.292412082734664,-34.562669161467724,33.099825420416614,36.259174551977864,-10.893110803400798,35.7150282949705,31.945449633113608
2.01,58.01778144193026,23.339784165741175,32.40809565714484,42.75347780719561,23.645480686511974,61.084792734357144,85.12374396379369,36.86511935936739,50.66668933034936,58.28960580266127,74.03552489272937,64.2204846141153,55.982341459602075,0.3183097657302587,12.319504389159679,20.32236139622098,18.179198172305217,6.3043187000917715,-24.91041268062866,8.928938991115135,-33.210748895460256,31.805124349208317,34.840895405870405,-10.467026313624169,34.318033452719426,30.695902019647605
2.02,58.02089975191527,23.460471740183156,32.60718292773353,42.9315696575988,23.70724071421997,60.84075878706466,85.21121598824674,36.53977147174282,50.9782670684854,58.63092336098945,73.93298505204201,64.55667997443126,56.28305274173123,0.3053522312731641,11.818010499235678,19.49509272151682,17.439171908330607,6.047686841507296,-23.89637677786839,8.56546589949559,-31.858828629452734,30.510423277999962,33.42261625976288,-10.040941823847522,32.921038610468294,29.44635440618155
2.03,58.02388848655572,23.57614437572589,32.79799751157518,43.10226124536223,23.76643442334212,60.60686519879979,85.2950532817836,36.227942786778335,51.27689779590935,58.95805812785653,73.83470605625241,64.87890538632467,56.57126854772571,0.29239469681607005,11.3165166093117,18.667824046812694,16.699145644356033,5.791054982922834,-22.882340875108167,8.201992807876062,-30.506908363445273,29.215722206791668,32.00433711365543,-9.614857334070896,31.524043768217226,28.19680679271555
2.04,58.0267476458516,23.68680207236939,32.98053940866979,43.265552570485916,23.82306181387842,60.38311196956249,85.37525584440426,35.92963330447391,51.562581512621236,59.271010103262554,73.74068790536059,65.1871608497956,56.846988877585545,0.2794371623589754,10.815022719387697,17.840555372108536,15.959119380381424,5.534423124338359,-21.868304972347897,7.838519716256518,-29.15498809743775,27.921021135583313,30.586057967547912,-9.188772844294249,30.127048925966093,26.947259179249492
