milky766/affetto/tests/data/rand_traj_step_sync_all.csv
t,q0,q1,q2,q3,q4,q5,q6,q7,q8,q9,q10,q11,q12,dq0,dq1,dq2,dq3,dq4,dq5,dq6,dq7,dq8,dq9,dq10,dq11,dq12
0.0,57.696233297771506,10.894945207684358,11.878981267937519,24.38933047672244,17.27702393009048,86.24863572644571,76.10396489634033,70.41374344558827,18.537990150278883,23.094250633821225,84.60903927512743,29.55331082325218,24.97414947073082,0.0,-0.0,-0.0,-0.0,-0.0,0.0,0.0,0.0,-0.0,-0.0,0.0,-0.0,-0.0
0.01,57.696233297771506,10.894945207684358,11.878981267937519,24.38933047672244,17.27702393009048,86.24863572644571,76.10396489634033,70.41374344558827,18.537990150278883,23.094250633821225,84.60903927512743,29.55331082325218,24.97414947073082,0.0,-0.0,-0.0,-0.0,-0.0,0.0,0.0,0.0,-0.0,-0.0,0.0,-0.0,-0.0
0.02,57.696233297771506,10.894945207684358,11.878981267937519,24.38933047672244,17.27702393009048,86.24863572644571,76.10396489634033,70.41374344558827,18.537990150278883,23.094250633821225,84.60903927512743,29.55331082325218,24.97414947073082,0.0,-0.0,-0.0,-0.0,-0.0,0.0,0.0,0.0,-0.0,-0.0,0.0,-0.0,-0.0
0.03,57.696233297771506,10.894945207684358,11.878981267937519,24.38933047672244,17.27702393009048,86.24863572644571,76.10396489634033,70.41374344558827,18.537990150278883,23.094250633821225,84.60903927512743,29.55331082325218,24.97414947073082,0.0,-0.0,-0.0,-0.0,-0.0,0.0,0.0,0.0,-0.0,-0.0,0.0,-0.0,-0.0
0.04,57.696233297771506,10.894945207684358,11.878981267937519,24.38933047672244,17.27702393009048,86.24863572644571,76.10396489634033,70.41374344558827,18.537990150278883,23.094250633821225,84.60903927512743,29.55331082325218,24.97414947073082,0.0,-0.0,-0.0,-0.0,-0.0,0.0,0.0,0.0,-0.0,-0.0,0.0,-0.0,-0.0
0.05,57.696233297771506,10.894945207684358,11.878981267937519,24.38933047672244,17.27702393009048,86.24863572644571,76.10396489634033,70.41374344558827,18.537990150278883,23.094250633821225,84.60903927512743,29.55331082325218,24.97414947073082,0.0,-0.0,-0.0,-0.0,-0.0,0.0,0.0,0.0,-0.0,-0.0,0.0,-0.0,-0.0
0.06,57.696233297771506,10.894945207684358,11.878981267937519,24.38933047672244,17.27702393009048,86.24863572644571,76.10396489634033,70.41374344558827,18.537990150278883,23.094250633821225,84.60903927512743,29.55331082325218,24.97414947073082,0.0,-0.0,-0.0,-0.0,-0.0,0.0,0.0,0.0,-0.0,-0.0,0.0,-0.0,-0.0
0.07,57.696233297771506,10.894945207684358,11.878981267937519,24.38933047672244,17.27702393009048,86.24863572644571,76.10396489634033,70.41374344558827,18.537990150278883,23.094250633821225,84.60903927512743,29.55331082325218,24.97414947073082,0.0,-0.0,-0.0,-0.0,-0.0,0.0,0.0,0.0,-0.0,-0.0,0.0,-0.0,-0.0
0.08,57.696233297771506,10.894945207684358,11.878981267937519,24.38933047672244,17.27702393009048,86.24863572644571,76.10396489634033,70.41374344558827,18.537990150278883,23.094250633821225,84.60903927512743,29.55331082325218,24.97414947073082,0.0,-0.0,-0.0,-0.0,-0.0,0.0,0.0,0.0,-0.0,-0.0,0.0,-0.0,-0.0
0.09,57.696233297771506,10.894945207684358,11.878981267937519,24.38933047672244,17.27702393009048,86.24863572644571,76.10396489634033,70.41374344558827,18.537990150278883,23.094250633821225,84.60903927512743,29.55331082325218,24.97414947073082,0.0,-0.0,-0.0,-0.0,-0.0,0.0,0.0,0.0,-0.0,-0.0,0.0,-0.0,-0.0
0.1,57.696233297771506,10.894945207684358,11.878981267937519,24.38933047672244,17.27702393009048,86.24863572644571,76.10396489634033,70.41374344558827,18.537990150278883,23.094250633821225,84.60903927512743,29.55331082325218,24.97414947073082,0.0,-0.0,-0.0,-0.0,-0.0,0.0,0.0,0.0,-0.0,-0.0,0.0,-0.0,-0.0
0.11,57.696233297771506,10.894945207684358,11.878981267937519,24.38933047672244,17.27702393009048,86.24863572644571,76.10396489634033,70.41374344558827,18.537990150278883,23.094250633821225,84.60903927512743,29.55331082325218,24.97414947073082,0.0,-0.0,-0.0,-0.0,-0.0,0.0,0.0,0.0,-0.0,-0.0,0.0,-0.0,-0.0
0.12,57.696233297771506,10.894945207684358,11.878981267937519,24.38933047672244,17.27702393009048,86.24863572644571,76.10396489634033,70.41374344558827,18.537990150278883,23.094250633821225,84.60903927512743,29.55331082325218,24.97414947073082,0.0,-0.0,-0.0,-0.0,-0.0,0.0,0.0,0.0,-0.0,-0.0,0.0,-0.0,-0.0
0.13,57.696233297771506,10.894945207684358,11.878981267937519,24.38933047672244,17.27702393009048,86.24863572644571,76.10396489634033,70.41374344558827,18.537990150278883,23.094250633821225,84.60903927512743,29.55331082325218,24.97414947073082,0.0,-0.0,-0.0,-0.0,-0.0,0.0,0.0,0.0,-0.0,-0.0,0.0,-0.0,-0.0
0.14,57.696233297771506,10.894945207684358,11.878981267937519,24.38933047672244,17.27702393009048,86.24863572644571,76.10396489634033,70.41374344558827,18.537990150278883,23.094250633821225,84.60903927512743,29.55331082325218,24.97414947073082,0.0,-0.0,-0.0,-0.0,-0.0,0.0,0.0,0.0,-0.0,-0.0,0.0,-0.0,-0.0
0.15,57.696233297771506,10.894945207684358,11.878981267937519,24.38933047672244,17.27702393009048,86.24863572644571,76.10396489634033,70.41374344558827,18.537990150278883,23.094250633821225,84.60903927512743,29.55331082325218,24.97414947073082,0.0,-0.0,-0.0,-0.0,-0.0,0.0,0.0,0.0,-0.0,-0.0,0.0,-0.0,-0.0
0.16,57.696233297771506,10.894945207684358,11.878981267937519,24.38933047672244,17.27702393009048,86.24863572644571,76.10396489634033,70.41374344558827,18.537990150278883,23.094250633821225,84.60903927512743,29.55331082325218,24.97414947073082,0.0,-0.0,-0.0,-0.0,-0.0,0.0,0.0,0.0,-0.0,-0.0,0.0,-0.0,-0.0
0.17,57.696233297771506,10.894945207684358,11.878981267937519,24.38933047672244,17.27702393009048,86.24863572644571,76.10396489634033,70.41374344558827,18.537990150278883,23.094250633821225,84.60903927512743,29.55331082325218,24.97414947073082,0.0,-0.0,-0.0,-0.0,-0.0,0.0,0.0,0.0,-0.0,-0.0,0.0,-0.0,-0.0
0.18,57.696233297771506,10.894945207684358,11.878981267937519,24.38933047672244,17.27702393009048,86.24863572644571,76.10396489634033,70.41374344558827,18.537990150278883,23.094250633821225,84.60903927512743,29.55331082325218,24.97414947073082,0.0,-0.0,-0.0,-0.0,-0.0,0.0,0.0,0.0,-0.0,-0.0,0.0,-0.0,-0.0
0.19,57.696233297771506,10.894945207684358,11.878981267937519,24.38933047672244,17.27702393009048,86.24863572644571,76.10396489634033,70.41374344558827,18.537990150278883,23.094250633821225,84.60903927512743,29.55331082325218,24.97414947073082,0.0,-0.0,-0.0,-0.0,-0.0,0.0,0.0,0.0,-0.0,-0.0,0.0,-0.0,-0.0
0.2,57.696233297771506,10.894945207684358,11.878981267937519,24.38933047672244,17.27702393009048,86.24863572644571,76.10396489634033,70.41374344558827,18.537990150278883,23.094250633821225,84.60903927512743,29.55331082325218,24.97414947073082,0.0,-0.0,-0.0,-0.0,-0.0,0.0,0.0,0.0,-0.0,-0.0,0.0,-0.0,-0.0
0.21,57.696233297771506,10.894945207684358,11.878981267937519,24.38933047672244,17.27702393009048,86.24863572644571,76.10396489634033,70.41374344558827,18.537990150278883,23.094250633821225,84.60903927512743,29.55331082325218,24.97414947073082,0.0,-0.0,-0.0,-0.0,-0.0,0.0,0.0,0.0,-0.0,-0.0,0.0,-0.0,-0.0
0.22,57.696233297771506,10.894945207684358,11.878981267937519,24.38933047672244,17.27702393009048,86.24863572644571,76.10396489634033,70.41374344558827,18.537990150278883,23.094250633821225,84.60903927512743,29.55331082325218,24.97414947073082,0.0,-0.0,-0.0,-0.0,-0.0,0.0,0.0,0.0,-0.0,-0.0,0.0,-0.0,-0.0
0.23,57.696233297771506,10.894945207684358,11.878981267937519,24.38933047672244,17.27702393009048,86.24863572644571,76.10396489634033,70.41374344558827,18.537990150278883,23.094250633821225,84.60903927512743,29.55331082325218,24.97414947073082,0.0,-0.0,-0.0,-0.0,-0.0,0.0,0.0,0.0,-0.0,-0.0,0.0,-0.0,-0.0
0.24,57.696233297771506,10.894945207684358,11.878981267937519,24.38933047672244,17.27702393009048,86.24863572644571,76.10396489634033,70.41374344558827,18.537990150278883,23.094250633821225,84.60903927512743,29.55331082325218,24.97414947073082,0.0,-0.0,-0.0,-0.0,-0.0,0.0,0.0,0.0,-0.0,-0.0,0.0,-0.0,-0.0
0.25,57.696233297771506,10.894945207684358,11.878981267937519,24.38933047672244,17.27702393009048,86.24863572644571,76.10396489634033,70.41374344558827,18.537990150278883,23.094250633821225,84.60903927512743,29.55331082325218,24.97414947073082,0.0,-0.0,-0.0,-0.0,-0.0,0.0,0.0,0.0,-0.0,-0.0,0.0,-0.0,-0.0
0.26,57.696233297771506,10.894945207684358,11.878981267937519,24.38933047672244,17.27702393009048,86.24863572644571,76.10396489634033,70.41374344558827,18.537990150278883,23.094250633821225,84.60903927512743,29.55331082325218,24.97414947073082,0.0,-0.0,-0.0,-0.0,-0.0,0.0,0.0,0.0,-0.0,-0.0,0.0,-0.0,-0.0
0.27,57.696233297771506,10.894945207684358,11.878981267937519,24.38933047672244,17.27702393009048,86.24863572644571,76.10396489634033,70.41374344558827,18.537990150278883,23.094250633821225,84.60903927512743,29.55331082325218,24.97414947073082,0.0,-0.0,-0.0,-0.0,-0.0,0.0,0.0,0.0,-0.0,-0.0,0.0,-0.0,-0.0
0.28,57.696233297771506,10.894945207684358,11.878981267937519,24.38933047672244,17.27702393009048,86.24863572644571,76.10396489634033,70.41374344558827,18.537990150278883,23.094250633821225,84.60903927512743,29.55331082325218,24.97414947073082,0.0,-0.0,-0.0,-0.0,-0.0,0.0,0.0,0.0,-0.0,-0.0,0.0,-0.0,-0.0
0.29,57.696233297771506,10.894945207684358,11.878981267937519,24.38933047672244,17.27702393009048,86.24863572644571,76.10396489634033,70.41374344558827,18.537990150278883,23.094250633821225,84.60903927512743,29.55331082325218,24.97414947073082,0.0,-0.0,-0.0,-0.0,-0.0,0.0,0.0,0.0,-0.0,-0.0,0.0,-0.0,-0.0
0.3,57.696233297771506,10.894945207684358,11.878981267937519,24.38933047672244,17.27702393009048,86.24863572644571,76.10396489634033,70.41374344558827,18.537990150278883,23.094250633821225,84.60903927512743,29.55331082325218,24.97414947073082,0.0,-0.0,-0.0,-0.0,-0.0,0.0,0.0,0.0,-0.0,-0.0,0.0,-0.0,-0.0
0.31,57.696233297771506,10.894945207684358,11.878981267937519,24.38933047672244,17.27702393009048,86.24863572644571,76.10396489634033,70.41374344558827,18.537990150278883,23.094250633821225,84.60903927512743,29.55331082325218,24.97414947073082,0.0,-0.0,-0.0,-0.0,-0.0,0.0,0.0,0.0,-0.0,-0.0,0.0,-0.0,-0.0
0.32,57.696233297771506,10.894945207684358,11.878981267937519,24.38933047672244,17.27702393009048,86.24863572644571,76.10396489634033,70.41374344558827,18.537990150278883,23.094250633821225,84.60903927512743,29.55331082325218,24.97414947073082,0.0,-0.0,-0.0,-0.0,-0.0,0.0,0.0,0.0,-0.0,-0.0,0.0,-0.0,-0.0
0.33,57.696233297771506,10.894945207684358,11.878981267937519,24.38933047672244,17.27702393009048,86.24863572644571,76.10396489634033,70.41374344558827,18.537990150278883,23.094250633821225,84.60903927512743,29.55331082325218,24.97414947073082,0.0,-0.0,-0.0,-0.0,-0.0,0.0,0.0,0.0,-0.0,-0.0,0.0,-0.0,-0.0
0.34,57.696233297771506,10.894945207684358,11.878981267937519,24.38933047672244,17.27702393009048,86.24863572644571,76.10396489634033,70.41374344558827,18.537990150278883,23.094250633821225,84.60903927512743,29.55331082325218,24.97414947073082,0.0,-0.0,-0.0,-0.0,-0.0,0.0,0.0,0.0,-0.0,-0.0,0.0,-0.0,-0.0
0.35,57.696233297771506,10.894945207684358,11.878981267937519,24.38933047672244,17.27702393009048,86.24863572644571,76.10396489634033,70.41374344558827,18.537990150278883,23.094250633821225,84.60903927512743,29.55331082325218,24.97414947073082,0.0,-0.0,-0.0,-0.0,-0.0,0.0,0.0,0.0,-0.0,-0.0,0.0,-0.0,-0.0
0.36,57.696233297771506,10.894945207684358,11.878981267937519,24.38933047672244,17.27702393009048,86.24863572644571,76.10396489634033,70.41374344558827,18.537990150278883,23.094250633821225,84.60903927512743,29.55331082325218,24.97414947073082,0.0,-0.0,-0.0,-0.0,-0.0,0.0,0.0,0.0,-0.0,-0.0,0.0,-0.0,-0.0
0.37,57.696233297771506,10.894945207684358,11.878981267937519,24.38933047672244,17.27702393009048,86.24863572644571,76.10396489634033,70.41374344558827,18.537990150278883,23.094250633821225,84.60903927512743,29.55331082325218,24.97414947073082,0.0,-0.0,-0.0,-0.0,-0.0,0.0,0.0,0.0,-0.0,-0.0,0.0,-0.0,-0.0
0.38,57.696233297771506,10.894945207684358,11.878981267937519,24.38933047672244,17.27702393009048,86.24863572644571,76.10396489634033,70.41374344558827,18.537990150278883,23.094250633821225,84.60903927512743,29.55331082325218,24.97414947073082,0.0,-0.0,-0.0,-0.0,-0.0,0.0,0.0,0.0,-0.0,-0.0,0.0,-0.0,-0.0
0.39,57.696233297771506,10.894945207684358,11.878981267937519,24.38933047672244,17.27702393009048,86.24863572644571,76.10396489634033,70.41374344558827,18.537990150278883,23.094250633821225,84.60903927512743,29.55331082325218,24.97414947073082,0.0,-0.0,-0.0,-0.0,-0.0,0.0,0.0,0.0,-0.0,-0.0,0.0,-0.0,-0.0
0.4,57.696233297771506,10.894945207684358,11.878981267937519,24.38933047672244,17.27702393009048,86.24863572644571,76.10396489634033,70.41374344558827,18.537990150278883,23.094250633821225,84.60903927512743,29.55331082325218,24.97414947073082,0.0,-0.0,-0.0,-0.0,-0.0,0.0,0.0,0.0,-0.0,-0.0,0.0,-0.0,-0.0
0.41,57.696233297771506,10.894945207684358,11.878981267937519,24.38933047672244,17.27702393009048,86.24863572644571,76.10396489634033,70.41374344558827,18.537990150278883,23.094250633821225,84.60903927512743,29.55331082325218,24.97414947073082,0.0,-0.0,-0.0,-0.0,-0.0,0.0,0.0,0.0,-0.0,-0.0,0.0,-0.0,-0.0
0.42,57.696233297771506,10.894945207684358,11.878981267937519,24.38933047672244,17.27702393009048,86.24863572644571,76.10396489634033,70.41374344558827,18.537990150278883,23.094250633821225,84.60903927512743,29.55331082325218,24.97414947073082,0.0,-0.0,-0.0,-0.0,-0.0,0.0,0.0,0.0,-0.0,-0.0,0.0,-0.0,-0.0
0.43,57.696233297771506,10.894945207684358,11.878981267937519,24.38933047672244,17.27702393009048,86.24863572644571,76.10396489634033,70.41374344558827,18.537990150278883,23.094250633821225,84.60903927512743,29.55331082325218,24.97414947073082,0.0,-0.0,-0.0,-0.0,-0.0,0.0,0.0,0.0,-0.0,-0.0,0.0,-0.0,-0.0
0.44,57.696233297771506,10.894945207684358,11.878981267937519,24.38933047672244,17.27702393009048,86.24863572644571,76.10396489634033,70.41374344558827,18.537990150278883,23.094250633821225,84.60903927512743,29.55331082325218,24.97414947073082,0.0,-0.0,-0.0,-0.0,-0.0,0.0,0.0,0.0,-0.0,-0.0,0.0,-0.0,-0.0
0.45,57.696233297771506,10.894945207684358,11.878981267937519,24.38933047672244,17.27702393009048,86.24863572644571,76.10396489634033,70.41374344558827,18.537990150278883,23.094250633821225,84.60903927512743,29.55331082325218,24.97414947073082,0.0,-0.0,-0.0,-0.0,-0.0,0.0,0.0,0.0,-0.0,-0.0,0.0,-0.0,-0.0
0.46,57.696233297771506,10.894945207684358,11.878981267937519,24.38933047672244,17.27702393009048,86.24863572644571,76.10396489634033,70.41374344558827,18.537990150278883,23.094250633821225,84.60903927512743,29.55331082325218,24.97414947073082,0.0,-0.0,-0.0,-0.0,-0.0,0.0,0.0,0.0,-0.0,-0.0,0.0,-0.0,-0.0
0.47,57.696233297771506,10.894945207684358,11.878981267937519,24.38933047672244,17.27702393009048,86.24863572644571,76.10396489634033,70.41374344558827,18.537990150278883,23.094250633821225,84.60903927512743,29.55331082325218,24.97414947073082,0.0,-0.0,-0.0,-0.0,-0.0,0.0,0.0,0.0,-0.0,-0.0,0.0,-0.0,-0.0
0.48,57.696233297771506,10.894945207684358,11.878981267937519,24.38933047672244,17.27702393009048,86.24863572644571,76.10396489634033,70.41374344558827,18.537990150278883,23.094250633821225,84.60903927512743,29.55331082325218,24.97414947073082,0.0,-0.0,-0.0,-0.0,-0.0,0.0,0.0,0.0,-0.0,-0.0,0.0,-0.0,-0.0
0.49,57.696233297771506,10.894945207684358,11.878981267937519,24.38933047672244,17.27702393009048,86.24863572644571,76.10396489634033,70.41374344558827,18.537990150278883,23.094250633821225,84.60903927512743,29.55331082325218,24.97414947073082,0.0,-0.0,-0.0,-0.0,-0.0,0.0,0.0,0.0,-0.0,-0.0,0.0,-0.0,-0.0
0.5,57.696233297771506,10.894945207684358,11.878981267937519,24.38933047672244,17.27702393009048,86.24863572644571,76.10396489634033,70.41374344558827,18.537990150278883,23.094250633821225,84.60903927512743,29.55331082325218,24.97414947073082,0.0,-0.0,-0.0,-0.0,-0.0,0.0,0.0,0.0,-0.0,-0.0,0.0,-0.0,-0.0
0.51,57.696233297771506,10.894945207684358,11.878981267937519,24.38933047672244,17.27702393009048,86.24863572644571,76.10396489634033,70.41374344558827,18.537990150278883,23.094250633821225,84.60903927512743,29.55331082325218,24.97414947073082,0.0,-0.0,-0.0,-0.0,-0.0,0.0,0.0,0.0,-0.0,-0.0,0.0,-0.0,-0.0
0.52,57.696233297771506,10.894945207684358,11.878981267937519,24.38933047672244,17.27702393009048,86.24863572644571,76.10396489634033,70.41374344558827,18.537990150278883,23.094250633821225,84.60903927512743,29.55331082325218,24.97414947073082,0.0,-0.0,-0.0,-0.0,-0.0,0.0,0.0,0.0,-0.0,-0.0,0.0,-0.0,-0.0
0.53,57.696233297771506,10.894945207684358,11.878981267937519,24.38933047672244,17.27702393009048,86.24863572644571,76.10396489634033,70.41374344558827,18.537990150278883,23.094250633821225,84.60903927512743,29.55331082325218,24.97414947073082,0.0,-0.0,-0.0,-0.0,-0.0,0.0,0.0,0.0,-0.0,-0.0,0.0,-0.0,-0.0
0.54,57.696233297771506,10.894945207684358,11.878981267937519,24.38933047672244,17.27702393009048,86.24863572644571,76.10396489634033,70.41374344558827,18.537990150278883,23.094250633821225,84.60903927512743,29.55331082325218,24.97414947073082,0.0,-0.0,-0.0,-0.0,-0.0,0.0,0.0,0.0,-0.0,-0.0,0.0,-0.0,-0.0
0.55,57.696233297771506,10.894945207684358,11.878981267937519,24.38933047672244,17.27702393009048,86.24863572644571,76.10396489634033,70.41374344558827,18.537990150278883,23.094250633821225,84.60903927512743,29.55331082325218,24.97414947073082,0.0,-0.0,-0.0,-0.0,-0.0,0.0,0.0,0.0,-0.0,-0.0,0.0,-0.0,-0.0
0.56,57.696233297771506,10.894945207684358,11.878981267937519,24.38933047672244,17.27702393009048,86.24863572644571,76.10396489634033,70.41374344558827,18.537990150278883,23.094250633821225,84.60903927512743,29.55331082325218,24.97414947073082,0.0,-0.0,-0.0,-0.0,-0.0,0.0,0.0,0.0,-0.0,-0.0,0.0,-0.0,-0.0
0.57,57.696233297771506,10.894945207684358,11.878981267937519,24.38933047672244,17.27702393009048,86.24863572644571,76.10396489634033,70.41374344558827,18.537990150278883,23.094250633821225,84.60903927512743,29.55331082325218,24.97414947073082,0.0,-0.0,-0.0,-0.0,-0.0,0.0,0.0,0.0,-0.0,-0.0,0.0,-0.0,-0.0
0.58,57.696233297771506,10.894945207684358,11.878981267937519,24.38933047672244,17.27702393009048,86.24863572644571,76.10396489634033,70.41374344558827,18.537990150278883,23.094250633821225,84.60903927512743,29.55331082325218,24.97414947073082,0.0,-0.0,-0.0,-0.0,-0.0,0.0,0.0,0.0,-0.0,-0.0,0.0,-0.0,-0.0
0.59,57.696233297771506,10.894945207684358,11.878981267937519,24.38933047672244,17.27702393009048,86.24863572644571,76.10396489634033,70.41374344558827,18.537990150278883,23.094250633821225,84.60903927512743,29.55331082325218,24.97414947073082,0.0,-0.0,-0.0,-0.0,-0.0,0.0,0.0,0.0,-0.0,-0.0,0.0,-0.0,-0.0
0.6,57.696233297771506,10.894945207684358,11.878981267937519,24.38933047672244,17.27702393009048,86.24863572644571,76.10396489634033,70.41374344558827,18.537990150278883,23.094250633821225,84.60903927512743,29.55331082325218,24.97414947073082,0.0,-0.0,-0.0,-0.0,-0.0,0.0,0.0,0.0,-0.0,-0.0,0.0,-0.0,-0.0
0.61,57.696233297771506,10.894945207684358,11.878981267937519,24.38933047672244,17.27702393009048,86.24863572644571,76.10396489634033,70.41374344558827,18.537990150278883,23.094250633821225,84.60903927512743,29.55331082325218,24.97414947073082,0.0,-0.0,-0.0,-0.0,-0.0,0.0,0.0,0.0,-0.0,-0.0,0.0,-0.0,-0.0
0.62,57.696233297771506,10.894945207684358,11.878981267937519,24.38933047672244,17.27702393009048,86.24863572644571,76.10396489634033,70.41374344558827,18.537990150278883,23.094250633821225,84.60903927512743,29.55331082325218,24.97414947073082,0.0,-0.0,-0.0,-0.0,-0.0,0.0,0.0,0.0,-0.0,-0.0,0.0,-0.0,-0.0
0.63,57.696233297771506,10.894945207684358,11.878981267937519,24.38933047672244,17.27702393009048,86.24863572644571,76.10396489634033,70.41374344558827,18.537990150278883,23.094250633821225,84.60903927512743,29.55331082325218,24.97414947073082,0.0,-0.0,-0.0,-0.0,-0.0,0.0,0.0,0.0,-0.0,-0.0,0.0,-0.0,-0.0
0.64,57.696233297771506,10.894945207684358,11.878981267937519,24.38933047672244,17.27702393009048,86.24863572644571,76.10396489634033,70.41374344558827,18.537990150278883,23.094250633821225,84.60903927512743,29.55331082325218,24.97414947073082,0.0,-0.0,-0.0,-0.0,-0.0,0.0,0.0,0.0,-0.0,-0.0,0.0,-0.0,-0.0
0.65,57.696233297771506,10.894945207684358,11.878981267937519,24.38933047672244,17.27702393009048,86.24863572644571,76.10396489634033,70.41374344558827,18.537990150278883,23.094250633821225,84.60903927512743,29.55331082325218,24.97414947073082,0.0,-0.0,-0.0,-0.0,-0.0,0.0,0.0,0.0,-0.0,-0.0,0.0,-0.0,-0.0
0.66,57.696233297771506,10.894945207684358,11.878981267937519,24.38933047672244,17.27702393009048,86.24863572644571,76.10396489634033,70.41374344558827,18.537990150278883,23.094250633821225,84.60903927512743,29.55331082325218,24.97414947073082,0.0,-0.0,-0.0,-0.0,-0.0,0.0,0.0,0.0,-0.0,-0.0,0.0,-0.0,-0.0
0.67,57.696233297771506,10.894945207684358,11.878981267937519,24.38933047672244,17.27702393009048,86.24863572644571,76.10396489634033,70.41374344558827,18.537990150278883,23.094250633821225,84.60903927512743,29.55331082325218,24.97414947073082,0.0,-0.0,-0.0,-0.0,-0.0,0.0,0.0,0.0,-0.0,-0.0,0.0,-0.0,-0.0
0.68,57.696233297771506,10.894945207684358,11.878981267937519,24.38933047672244,17.27702393009048,86.24863572644571,76.10396489634033,70.41374344558827,18.537990150278883,23.094250633821225,84.60903927512743,29.55331082325218,24.97414947073082,0.0,-0.0,-0.0,-0.0,-0.0,0.0,0.0,0.0,-0.0,-0.0,0.0,-0.0,-0.0
0.69,57.696233297771506,10.894945207684358,11.878981267937519,24.38933047672244,17.27702393009048,86.24863572644571,76.10396489634033,70.41374344558827,18.537990150278883,23.094250633821225,84.60903927512743,29.55331082325218,24.97414947073082,0.0,-0.0,-0.0,-0.0,-0.0,0.0,0.0,0.0,-0.0,-0.0,0.0,-0.0,-0.0
0.7,57.696233297771506,10.894945207684358,11.878981267937519,24.38933047672244,17.27702393009048,86.24863572644571,76.10396489634033,70.41374344558827,18.537990150278883,23.094250633821225,84.60903927512743,29.55331082325218,24.97414947073082,0.0,-0.0,-0.0,-0.0,-0.0,0.0,0.0,0.0,-0.0,-0.0,0.0,-0.0,-0.0
0.71,57.696233297771506,10.894945207684358,11.878981267937519,24.38933047672244,17.27702393009048,86.24863572644571,76.10396489634033,70.41374344558827,18.537990150278883,23.094250633821225,84.60903927512743,29.55331082325218,24.97414947073082,0.0,-0.0,-0.0,-0.0,-0.0,0.0,0.0,0.0,-0.0,-0.0,0.0,-0.0,-0.0
0.72,57.696233297771506,10.894945207684358,11.878981267937519,24.38933047672244,17.27702393009048,86.24863572644571,76.10396489634033,70.41374344558827,18.537990150278883,23.094250633821225,84.60903927512743,29.55331082325218,24.97414947073082,0.0,-0.0,-0.0,-0.0,-0.0,0.0,0.0,0.0,-0.0,-0.0,0.0,-0.0,-0.0
0.73,57.696233297771506,10.894945207684358,11.878981267937519,24.38933047672244,17.27702393009048,86.24863572644571,76.10396489634033,70.41374344558827,18.537990150278883,23.094250633821225,84.60903927512743,29.55331082325218,24.97414947073082,0.0,-0.0,-0.0,-0.0,-0.0,0.0,0.0,0.0,-0.0,-0.0,0.0,-0.0,-0.0
0.74,57.696233297771506,10.894945207684358,11.878981267937519,24.38933047672244,17.27702393009048,86.24863572644571,76.10396489634033,70.41374344558827,18.537990150278883,23.094250633821225,84.60903927512743,29.55331082325218,24.97414947073082,0.0,-0.0,-0.0,-0.0,-0.0,0.0,0.0,0.0,-0.0,-0.0,0.0,-0.0,-0.0
0.75,57.696233297771506,10.894945207684358,11.878981267937519,24.38933047672244,17.27702393009048,86.24863572644571,76.10396489634033,70.41374344558827,18.537990150278883,23.094250633821225,84.60903927512743,29.55331082325218,24.97414947073082,0.0,-0.0,-0.0,-0.0,-0.0,0.0,0.0,0.0,-0.0,-0.0,0.0,-0.0,-0.0
0.76,57.696233297771506,10.894945207684358,11.878981267937519,24.38933047672244,17.27702393009048,86.24863572644571,76.10396489634033,70.41374344558827,18.537990150278883,23.094250633821225,84.60903927512743,29.55331082325218,24.97414947073082,0.0,-0.0,-0.0,-0.0,-0.0,0.0,0.0,0.0,-0.0,-0.0,0.0,-0.0,-0.0
0.77,57.696233297771506,10.894945207684358,11.878981267937519,24.38933047672244,17.27702393009048,86.24863572644571,76.10396489634033,70.41374344558827,18.537990150278883,23.094250633821225,84.60903927512743,29.55331082325218,24.97414947073082,0.0,-0.0,-0.0,-0.0,-0.0,0.0,0.0,0.0,-0.0,-0.0,0.0,-0.0,-0.0
0.78,57.696233297771506,10.894945207684358,11.878981267937519,24.38933047672244,17.27702393009048,86.24863572644571,76.10396489634033,70.41374344558827,18.537990150278883,23.094250633821225,84.60903927512743,29.55331082325218,24.97414947073082,0.0,-0.0,-0.0,-0.0,-0.0,0.0,0.0,0.0,-0.0,-0.0,0.0,-0.0,-0.0
0.79,57.696233297771506,10.894945207684358,11.878981267937519,24.38933047672244,17.27702393009048,86.24863572644571,76.10396489634033,70.41374344558827,18.537990150278883,23.094250633821225,84.60903927512743,29.55331082325218,24.97414947073082,0.0,-0.0,-0.0,-0.0,-0.0,0.0,0.0,0.0,-0.0,-0.0,0.0,-0.0,-0.0
0.8,57.696233297771506,10.894945207684358,11.878981267937519,24.38933047672244,17.27702393009048,86.24863572644571,76.10396489634033,70.41374344558827,18.537990150278883,23.094250633821225,84.60903927512743,29.55331082325218,24.97414947073082,0.0,-0.0,-0.0,-0.0,-0.0,0.0,0.0,0.0,-0.0,-0.0,0.0,-0.0,-0.0
0.81,57.696233297771506,10.894945207684358,11.878981267937519,24.38933047672244,17.27702393009048,86.24863572644571,76.10396489634033,70.41374344558827,18.537990150278883,23.094250633821225,84.60903927512743,29.55331082325218,24.97414947073082,0.0,-0.0,-0.0,-0.0,-0.0,0.0,0.0,0.0,-0.0,-0.0,0.0,-0.0,-0.0
0.82,57.696233297771506,10.894945207684358,11.878981267937519,24.38933047672244,17.27702393009048,86.24863572644571,76.10396489634033,70.41374344558827,18.537990150278883,23.094250633821225,84.60903927512743,29.55331082325218,24.97414947073082,0.0,-0.0,-0.0,-0.0,-0.0,0.0,0.0,0.0,-0.0,-0.0,0.0,-0.0,-0.0
0.83,57.696233297771506,10.894945207684358,11.878981267937519,24.38933047672244,17.27702393009048,86.24863572644571,76.10396489634033,70.41374344558827,18.537990150278883,23.094250633821225,84.60903927512743,29.55331082325218,24.97414947073082,0.0,-0.0,-0.0,-0.0,-0.0,0.0,0.0,0.0,-0.0,-0.0,0.0,-0.0,-0.0
0.84,57.696233297771506,10.894945207684358,11.878981267937519,24.38933047672244,17.27702393009048,86.24863572644571,76.10396489634033,70.41374344558827,18.537990150278883,23.094250633821225,84.60903927512743,29.55331082325218,24.97414947073082,0.0,-0.0,-0.0,-0.0,-0.0,0.0,0.0,0.0,-0.0,-0.0,0.0,-0.0,-0.0
0.85,57.696233297771506,10.894945207684358,11.878981267937519,24.38933047672244,17.27702393009048,86.24863572644571,76.10396489634033,70.41374344558827,18.537990150278883,23.094250633821225,84.60903927512743,29.55331082325218,24.97414947073082,0.0,-0.0,-0.0,-0.0,-0.0,0.0,0.0,0.0,-0.0,-0.0,0.0,-0.0,-0.0
0.86,57.696233297771506,10.894945207684358,11.878981267937519,24.38933047672244,17.27702393009048,86.24863572644571,76.10396489634033,70.41374344558827,18.537990150278883,23.094250633821225,84.60903927512743,29.55331082325218,24.97414947073082,0.0,-0.0,-0.0,-0.0,-0.0,0.0,0.0,0.0,-0.0,-0.0,0.0,-0.0,-0.0
0.87,57.696233297771506,10.894945207684358,11.878981267937519,24.38933047672244,17.27702393009048,86.24863572644571,76.10396489634033,70.41374344558827,18.537990150278883,23.094250633821225,84.60903927512743,29.55331082325218,24.97414947073082,0.0,-0.0,-0.0,-0.0,-0.0,0.0,0.0,0.0,-0.0,-0.0,0.0,-0.0,-0.0
0.88,57.696233297771506,10.894945207684358,11.878981267937519,24.38933047672244,17.27702393009048,86.24863572644571,76.10396489634033,70.41374344558827,18.537990150278883,23.094250633821225,84.60903927512743,29.55331082325218,24.97414947073082,0.0,-0.0,-0.0,-0.0,-0.0,0.0,0.0,0.0,-0.0,-0.0,0.0,-0.0,-0.0
0.89,57.696233297771506,10.894945207684358,11.878981267937519,24.38933047672244,17.27702393009048,86.24863572644571,76.10396489634033,70.41374344558827,18.537990150278883,23.094250633821225,84.60903927512743,29.55331082325218,24.97414947073082,0.0,-0.0,-0.0,-0.0,-0.0,0.0,0.0,0.0,-0.0,-0.0,0.0,-0.0,-0.0
0.9,57.696233297771506,10.894945207684358,11.878981267937519,24.38933047672244,17.27702393009048,86.24863572644571,76.10396489634033,70.41374344558827,18.537990150278883,23.094250633821225,84.60903927512743,29.55331082325218,24.97414947073082,0.0,-0.0,-0.0,-0.0,-0.0,0.0,0.0,0.0,-0.0,-0.0,0.0,-0.0,-0.0
0.91,57.696233297771506,10.894945207684358,11.878981267937519,24.38933047672244,17.27702393009048,86.24863572644571,76.10396489634033,70.41374344558827,18.537990150278883,23.094250633821225,84.60903927512743,29.55331082325218,24.97414947073082,0.0,-0.0,-0.0,-0.0,-0.0,0.0,0.0,0.0,-0.0,-0.0,0.0,-0.0,-0.0
0.92,57.696233297771506,10.894945207684358,11.878981267937519,24.38933047672244,17.27702393009048,86.24863572644571,76.10396489634033,70.41374344558827,18.537990150278883,23.094250633821225,84.60903927512743,29.55331082325218,24.97414947073082,0.0,-0.0,-0.0,-0.0,-0.0,0.0,0.0,0.0,-0.0,-0.0,0.0,-0.0,-0.0
0.93,57.696233297771506,10.894945207684358,11.878981267937519,24.38933047672244,17.27702393009048,86.24863572644571,76.10396489634033,70.41374344558827,18.537990150278883,23.094250633821225,84.60903927512743,29.55331082325218,24.97414947073082,0.0,-0.0,-0.0,-0.0,-0.0,0.0,0.0,0.0,-0.0,-0.0,0.0,-0.0,-0.0
0.94,57.696233297771506,10.894945207684358,11.878981267937519,24.38933047672244,17.27702393009048,86.24863572644571,76.10396489634033,70.41374344558827,18.537990150278883,23.094250633821225,84.60903927512743,29.55331082325218,24.97414947073082,0.0,-0.0,-0.0,-0.0,-0.0,0.0,0.0,0.0,-0.0,-0.0,0.0,-0.0,-0.0
0.95,57.696233297771506,10.894945207684358,11.878981267937519,24.38933047672244,17.27702393009048,86.24863572644571,76.10396489634033,70.41374344558827,18.537990150278883,23.094250633821225,84.60903927512743,29.55331082325218,24.97414947073082,0.0,-0.0,-0.0,-0.0,-0.0,0.0,0.0,0.0,-0.0,-0.0,0.0,-0.0,-0.0
0.96,57.696233297771506,10.894945207684358,11.878981267937519,24.38933047672244,17.27702393009048,86.24863572644571,76.10396489634033,70.41374344558827,18.537990150278883,23.094250633821225,84.60903927512743,29.55331082325218,24.97414947073082,0.0,-0.0,-0.0,-0.0,-0.0,0.0,0.0,0.0,-0.0,-0.0,0.0,-0.0,-0.0
0.97,57.696233297771506,10.894945207684358,11.878981267937519,24.38933047672244,17.27702393009048,86.24863572644571,76.10396489634033,70.41374344558827,18.537990150278883,23.094250633821225,84.60903927512743,29.55331082325218,24.97414947073082,0.0,-0.0,-0.0,-0.0,-0.0,0.0,0.0,0.0,-0.0,-0.0,0.0,-0.0,-0.0
0.98,57.696233297771506,10.894945207684358,11.878981267937519,24.38933047672244,17.27702393009048,86.24863572644571,76.10396489634033,70.41374344558827,18.537990150278883,23.094250633821225,84.60903927512743,29.55331082325218,24.97414947073082,0.0,-0.0,-0.0,-0.0,-0.0,0.0,0.0,0.0,-0.0,-0.0,0.0,-0.0,-0.0
0.99,57.696233297771506,10.894945207684358,11.878981267937519,24.38933047672244,17.27702393009048,86.24863572644571,76.10396489634033,70.41374344558827,18.537990150278883,23.094250633821225,84.60903927512743,29.55331082325218,24.97414947073082,0.0,-0.0,-0.0,-0.0,-0.0,0.0,0.0,0.0,-0.0,-0.0,0.0,-0.0,-0.0
1.0,57.696233297771506,10.894945207684358,11.878981267937519,24.38933047672244,17.27702393009048,86.24863572644571,76.10396489634033,70.41374344558827,18.537990150278883,23.094250633821225,84.60903927512743,29.55331082325218,24.97414947073082,0.0,-0.0,-0.0,-0.0,-0.0,0.0,0.0,0.0,-0.0,-0.0,0.0,-0.0,-0.0
1.01,57.696233297771506,10.894945207684358,11.878981267937519,24.38933047672244,17.27702393009048,86.24863572644571,76.10396489634033,70.41374344558827,18.537990150278883,23.094250633821225,84.60903927512743,29.55331082325218,24.97414947073082,0.0,-0.0,-0.0,-0.0,-0.0,0.0,0.0,0.0,-0.0,-0.0,0.0,-0.0,-0.0
1.02,57.696233297771506,10.894945207684358,11.878981267937519,24.38933047672244,17.27702393009048,86.24863572644571,76.10396489634033,70.41374344558827,18.537990150278883,23.094250633821225,84.60903927512743,29.55331082325218,24.97414947073082,0.0,-0.0,-0.0,-0.0,-0.0,0.0,0.0,0.0,-0.0,-0.0,0.0,-0.0,-0.0
1.03,57.696233297771506,10.894945207684358,11.878981267937519,24.38933047672244,17.27702393009048,86.24863572644571,76.10396489634033,70.41374344558827,18.537990150278883,23.094250633821225,84.60903927512743,29.55331082325218,24.97414947073082,0.0,-0.0,-0.0,-0.0,-0.0,0.0,0.0,0.0,-0.0,-0.0,0.0,-0.0,-0.0
1.04,57.696233297771506,10.894945207684358,11.878981267937519,24.38933047672244,17.27702393009048,86.24863572644571,76.10396489634033,70.41374344558827,18.537990150278883,23.094250633821225,84.60903927512743,29.55331082325218,24.97414947073082,0.0,-0.0,-0.0,-0.0,-0.0,0.0,0.0,0.0,-0.0,-0.0,0.0,-0.0,-0.0
1.05,57.696233297771506,10.894945207684358,11.878981267937519,24.38933047672244,17.27702393009048,86.24863572644571,76.10396489634033,70.41374344558827,18.537990150278883,23.094250633821225,84.60903927512743,29.55331082325218,24.97414947073082,0.0,-0.0,-0.0,-0.0,-0.0,0.0,0.0,0.0,-0.0,-0.0,0.0,-0.0,-0.0
1.06,57.696233297771506,10.894945207684358,11.878981267937519,24.38933047672244,17.27702393009048,86.24863572644571,76.10396489634033,70.41374344558827,18.537990150278883,23.094250633821225,84.60903927512743,29.55331082325218,24.97414947073082,0.0,-0.0,-0.0,-0.0,-0.0,0.0,0.0,0.0,-0.0,-0.0,0.0,-0.0,-0.0
1.07,57.696233297771506,10.894945207684358,11.878981267937519,24.38933047672244,17.27702393009048,86.24863572644571,76.10396489634033,70.41374344558827,18.537990150278883,23.094250633821225,84.60903927512743,29.55331082325218,24.97414947073082,0.0,-0.0,-0.0,-0.0,-0.0,0.0,0.0,0.0,-0.0,-0.0,0.0,-0.0,-0.0
1.08,57.696233297771506,10.894945207684358,11.878981267937519,24.38933047672244,17.27702393009048,86.24863572644571,76.10396489634033,70.41374344558827,18.537990150278883,23.094250633821225,84.60903927512743,29.55331082325218,24.97414947073082,0.0,-0.0,-0.0,-0.0,-0.0,0.0,0.0,0.0,-0.0,-0.0,0.0,-0.0,-0.0
1.09,57.696233297771506,10.894945207684358,11.878981267937519,24.38933047672244,17.27702393009048,86.24863572644571,76.10396489634033,70.41374344558827,18.537990150278883,23.094250633821225,84.60903927512743,29.55331082325218,24.97414947073082,0.0,-0.0,-0.0,-0.0,-0.0,0.0,0.0,0.0,-0.0,-0.0,0.0,-0.0,-0.0
1.1,57.696233297771506,10.894945207684358,11.878981267937519,24.38933047672244,17.27702393009048,86.24863572644571,76.10396489634033,70.41374344558827,18.537990150278883,23.094250633821225,84.60903927512743,29.55331082325218,24.97414947073082,0.0,-0.0,-0.0,-0.0,-0.0,0.0,0.0,0.0,-0.0,-0.0,0.0,-0.0,-0.0
1.11,57.696233297771506,10.894945207684358,11.878981267937519,24.38933047672244,17.27702393009048,86.24863572644571,76.10396489634033,70.41374344558827,18.537990150278883,23.094250633821225,84.60903927512743,29.55331082325218,24.97414947073082,0.0,-0.0,-0.0,-0.0,-0.0,0.0,0.0,0.0,-0.0,-0.0,0.0,-0.0,-0.0
1.12,57.696233297771506,10.894945207684358,11.878981267937519,24.38933047672244,17.27702393009048,86.24863572644571,76.10396489634033,70.41374344558827,18.537990150278883,23.094250633821225,84.60903927512743,29.55331082325218,24.97414947073082,0.0,-0.0,-0.0,-0.0,-0.0,0.0,0.0,0.0,-0.0,-0.0,0.0,-0.0,-0.0
1.13,57.696233297771506,10.894945207684358,11.878981267937519,24.38933047672244,17.27702393009048,86.24863572644571,76.10396489634033,70.41374344558827,18.537990150278883,23.094250633821225,84.60903927512743,29.55331082325218,24.97414947073082,0.0,-0.0,-0.0,-0.0,-0.0,0.0,0.0,0.0,-0.0,-0.0,0.0,-0.0,-0.0
1.14,58.05687881315267,24.85296499848799,34.904251896025244,44.986393463546506,24.419827926397723,58.02509505387995,86.22046822406587,32.785907478571445,54.573251074074975,62.569045417966755,72.74988034946597,68.43570210970819,59.75265957571692,0.0,0.0,0.0,0.0,0.0,-0.0,0.0,-0.0,0.0,0.0,-0.0,0.0,0.0
1.15,58.05687881315267,24.85296499848799,34.904251896025244,44.986393463546506,24.419827926397723,58.02509505387995,86.22046822406587,32.785907478571445,54.573251074074975,62.569045417966755,72.74988034946597,68.43570210970819,59.75265957571692,0.0,0.0,0.0,0.0,0.0,-0.0,0.0,-0.0,0.0,0.0,-0.0,0.0,0.0
1.16,58.05687881315267,24.85296499848799,34.904251896025244,44.986393463546506,24.419827926397723,58.02509505387995,86.22046822406587,32.785907478571445,54.573251074074975,62.569045417966755,72.74988034946597,68.43570210970819,59.75265957571692,0.0,0.0,0.0,0.0,0.0,-0.0,0.0,-0.0,0.0,0.0,-0.0,0.0,0.0
1.17,58.05687881315267,24.85296499848799,34.904251896025244,44.986393463546506,24.419827926397723,58.02509505387995,86.22046822406587,32.785907478571445,54.573251074074975,62.569045417966755,72.74988034946597,68.43570210970819,59.75265957571692,0.0,0.0,0.0,0.0,0.0,-0.0,0.0,-0.0,0.0,0.0,-0.0,0.0,0.0
1.18,58.05687881315267,24.85296499848799,34.904251896025244,44.986393463546506,24.419827926397723,58.02509505387995,86.22046822406587,32.785907478571445,54.573251074074975,62.569045417966755,72.74988034946597,68.43570210970819,59.75265957571692,0.0,0.0,0.0,0.0,0.0,-0.0,0.0,-0.0,0.0,0.0,-0.0,0.0,0.0
1.19,58.05687881315267,24.85296499848799,34.904251896025244,44.986393463546506,24.419827926397723,58.02509505387995,86.22046822406587,32.785907478571445,54.573251074074975,62.569045417966755,72.74988034946597,68.43570210970819,59.75265957571692,0.0,0.0,0.0,0.0,0.0,-0.0,0.0,-0.0,0.0,0.0,-0.0,0.0,0.0
1.2,58.05687881315267,24.85296499848799,34.904251896025244,44.986393463546506,24.419827926397723,58.02509505387995,86.22046822406587,32.785907478571445,54.573251074074975,62.569045417966755,72.74988034946597,68.43570210970819,59.75265957571692,0.0,0.0,0.0,0.0,0.0,-0.0,0.0,-0.0,0.0,0.0,-0.0,0.0,0.0
1.21,58.05687881315267,24.85296499848799,34.904251896025244,44.986393463546506,24.419827926397723,58.02509505387995,86.22046822406587,32.785907478571445,54.573251074074975,62.569045417966755,72.74988034946597,68.43570210970819,59.75265957571692,0.0,0.0,0.0,0.0,0.0,-0.0,0.0,-0.0,0.0,0.0,-0.0,0.0,0.0
1.22,58.05687881315267,24.85296499848799,34.904251896025244,44.986393463546506,24.419827926397723,58.02509505387995,86.22046822406587,32.785907478571445,54.573251074074975,62.569045417966755,72.74988034946597,68.43570210970819,59.75265957571692,0.0,0.0,0.0,0.0,0.0,-0.0,0.0,-0.0,0.0,0.0,-0.0,0.0,0.0
1.23,58.05687881315267,24.85296499848799,34.904251896025244,44.986393463546506,24.419827926397723,58.02509505387995,86.22046822406587,32.785907478571445,54.573251074074975,62.569045417966755,72.74988034946597,68.43570210970819,59.75265957571692,0.0,0.0,0.0,0.0,0.0,-0.0,0.0,-0.0,0.0,0.0,-0.0,0.0,0.0
1.24,58.05687881315267,24.85296499848799,34.904251896025244,44.986393463546506,24.419827926397723,58.02509505387995,86.22046822406587,32.785907478571445,54.573251074074975,62.569045417966755,72.74988034946597,68.43570210970819,59.75265957571692,0.0,0.0,0.0,0.0,0.0,-0.0,0.0,-0.0,0.0,0.0,-0.0,0.0,0.0
1.25,58.05687881315267,24.85296499848799,34.904251896025244,44.986393463546506,24.419827926397723,58.02509505387995,86.22046822406587,32.785907478571445,54.573251074074975,62.569045417966755,72.74988034946597,68.43570210970819,59.75265957571692,0.0,0.0,0.0,0.0,0.0,-0.0,0.0,-0.0,0.0,0.0,-0.0,0.0,0.0
1.26,58.05687881315267,24.85296499848799,34.904251896025244,44.986393463546506,24.419827926397723,58.02509505387995,86.22046822406587,32.785907478571445,54.573251074074975,62.569045417966755,72.74988034946597,68.43570210970819,59.75265957571692,0.0,0.0,0.0,0.0,0.0,-0.0,0.0,-0.0,0.0,0.0,-0.0,0.0,0.0
1.27,58.05687881315267,24.85296499848799,34.904251896025244,44.986393463546506,24.419827926397723,58.02509505387995,86.22046822406587,32.785907478571445,54.573251074074975,62.569045417966755,72.74988034946597,68.43570210970819,59.75265957571692,0.0,0.0,0.0,0.0,0.0,-0.0,0.0,-0.0,0.0,0.0,-0.0,0.0,0.0
1.28,58.05687881315267,24.85296499848799,34.904251896025244,44.986393463546506,24.419827926397723,58.02509505387995,86.22046822406587,32.785907478571445,54.573251074074975,62.569045417966755,72.74988034946597,68.43570210970819,59.75265957571692,0.0,0.0,0.0,0.0,0.0,-0.0,0.0,-0.0,0.0,0.0,-0.0,0.0,0.0
1.29,58.05687881315267,24.85296499848799,34.904251896025244,44.986393463546506,24.419827926397723,58.02509505387995,86.22046822406587,32.785907478571445,54.573251074074975,62.569045417966755,72.74988034946597,68.43570210970819,59.75265957571692,0.0,0.0,0.0,0.0,0.0,-0.0,0.0,-0.0,0.0,0.0,-0.0,0.0,0.0
1.3,58.05687881315267,24.85296499848799,34.904251896025244,44.986393463546506,24.419827926397723,58.02509505387995,86.22046822406587,32.785907478571445,54.573251074074975,62.569045417966755,72.74988034946597,68.43570210970819,59.75265957571692,0.0,0.0,0.0,0.0,0.0,-0.0,0.0,-0.0,0.0,0.0,-0.0,0.0,0.0
1.31,58.05687881315267,24.85296499848799,34.904251896025244,44.986393463546506,24.419827926397723,58.02509505387995,86.22046822406587,32.785907478571445,54.573251074074975,62.569045417966755,72.74988034946597,68.43570210970819,59.75265957571692,0.0,0.0,0.0,0.0,0.0,-0.0,0.0,-0.0,0.0,0.0,-0.0,0.0,0.0
1.32,58.05687881315267,24.85296499848799,34.904251896025244,44.986393463546506,24.419827926397723,58.02509505387995,86.22046822406587,32.785907478571445,54.573251074074975,62.569045417966755,72.74988034946597,68.43570210970819,59.75265957571692,0.0,0.0,0.0,0.0,0.0,-0.0,0.0,-0.0,0.0,0.0,-0.0,0.0,0.0
1.33,58.05687881315267,24.85296499848799,34.904251896025244,44.986393463546506,24.419827926397723,58.02509505387995,86.22046822406587,32.785907478571445,54.573251074074975,62.569045417966755,72.74988034946597,68.43570210970819,59.75265957571692,0.0,0.0,0.0,0.0,0.0,-0.0,0.0,-0.0,0.0,0.0,-0.0,0.0,0.0
1.34,58.05687881315267,24.85296499848799,34.904251896025244,44.986393463546506,24.419827926397723,58.02509505387995,86.22046822406587,32.785907478571445,54.573251074074975,62.569045417966755,72.74988034946597,68.43570210970819,59.75265957571692,0.0,0.0,0.0,0.0,0.0,-0.0,0.0,-0.0,0.0,0.0,-0.0,0.0,0.0
1.35,58.05687881315267,24.85296499848799,34.904251896025244,44.986393463546506,24.419827926397723,58.02509505387995,86.22046822406587,32.785907478571445,54.573251074074975,62.569045417966755,72.74988034946597,68.43570210970819,59.75265957571692,0.0,0.0,0.0,0.0,0.0,-0.0,0.0,-0.0,0.0,0.0,-0.0,0.0,0.0
1.36,58.05687881315267,24.85296499848799,34.904251896025244,44.986393463546506,24.419827926397723,58.02509505387995,86.22046822406587,32.785907478571445,54.573251074074975,62.569045417966755,72.74988034946597,68.43570210970819,59.75265957571692,0.0,0.0,0.0,0.0,0.0,-0.0,0.0,-0.0,0.0,0.0,-0.0,0.0,0.0
1.37,58.05687881315267,24.85296499848799,34.904251896025244,44.986393463546506,24.419827926397723,58.02509505387995,86.22046822406587,32.785907478571445,54.573251074074975,62.569045417966755,72.74988034946597,68.43570210970819,59.75265957571692,0.0,0.0,0.0,0.0,0.0,-0.0,0.0,-0.0,0.0,0.0,-0.0,0.0,0.0
1.38,58.05687881315267,24.85296499848799,34.904251896025244,44.986393463546506,24.419827926397723,58.02509505387995,86.22046822406587,32.785907478571445,54.573251074074975,62.569045417966755,72.74988034946597,68.43570210970819,59.75265957571692,0.0,0.0,0.0,0.0,0.0,-0.0,0.0,-0.0,0.0,0.0,-0.0,0.0,0.0
1.39,58.05687881315267,24.85296499848799,34.904251896025244,44.986393463546506,24.419827926397723,58.02509505387995,86.22046822406587,32.785907478571445,54.573251074074975,62.569045417966755,72.74988034946597,68.43570210970819,59.75265957571692,0.0,0.0,0.0,0.0,0.0,-0.0,0.0,-0.0,0.0,0.0,-0.0,0.0,0.0
1.4,58.05687881315267,24.85296499848799,34.904251896025244,44.986393463546506,24.419827926397723,58.02509505387995,86.22046822406587,32.785907478571445,54.573251074074975,62.569045417966755,72.74988034946597,68.43570210970819,59.75265957571692,0.0,0.0,0.0,0.0,0.0,-0.0,0.0,-0.0,0.0,0.0,-0.0,0.0,0.0
1.41,58.05687881315267,24.85296499848799,34.904251896025244,44.986393463546506,24.419827926397723,58.02509505387995,86.22046822406587,32.785907478571445,54.573251074074975,62.569045417966755,72.74988034946597,68.43570210970819,59.75265957571692,0.0,0.0,0.0,0.0,0.0,-0.0,0.0,-0.0,0.0,0.0,-0.0,0.0,0.0
1.42,58.05687881315267,24.85296499848799,34.904251896025244,44.986393463546506,24.419827926397723,58.02509505387995,86.22046822406587,32.785907478571445,54.573251074074975,62.569045417966755,72.74988034946597,68.43570210970819,59.75265957571692,0.0,0.0,0.0,0.0,0.0,-0.0,0.0,-0.0,0.0,0.0,-0.0,0.0,0.0
1.43,58.05687881315267,24.85296499848799,34.904251896025244,44.986393463546506,24.419827926397723,58.02509505387995,86.22046822406587,32.785907478571445,54.573251074074975,62.569045417966755,72.74988034946597,68.43570210970819,59.75265957571692,0.0,0.0,0.0,0.0,0.0,-0.0,0.0,-0.0,0.0,0.0,-0.0,0.0,0.0
1.44,58.05687881315267,24.85296499848799,34.904251896025244,44.986393463546506,24.419827926397723,58.02509505387995,86.22046822406587,32.785907478571445,54.573251074074975,62.569045417966755,72.74988034946597,68.43570210970819,59.75265957571692,0.0,0.0,0.0,0.0,0.0,-0.0,0.0,-0.0,0.0,0.0,-0.0,0.0,0.0
1.45,58.05687881315267,24.85296499848799,34.904251896025244,44.986393463546506,24.419827926397723,58.02509505387995,86.22046822406587,32.785907478571445,54.573251074074975,62.569045417966755,72.74988034946597,68.43570210970819,59.75265957571692,0.0,0.0,0.0,0.0,0.0,-0.0,0.0,-0.0,0.0,0.0,-0.0,0.0,0.0
1.46,58.05687881315267,24.85296499848799,34.904251896025244,44.986393463546506,24.419827926397723,58.02509505387995,86.22046822406587,32.785907478571445,54.573251074074975,62.569045417966755,72.74988034946597,68.43570210970819,59.75265957571692,0.0,0.0,0.0,0.0,0.0,-0.0,0.0,-0.0,0.0,0.0,-0.0,0.0,0.0
1.47,58.05687881315267,24.85296499848799,34.904251896025244,44.986393463546506,24.419827926397723,58.02509505387995,86.22046822406587,32.785907478571445,54.573251074074975,62.569045417966755,72.74988034946597,68.43570210970819,59.75265957571692,0.0,0.0,0.0,0.0,0.0,-0.0,0.0,-0.0,0.0,0.0,-0.0,0.0,0.0
1.48,58.05687881315267,24.85296499848799,34.904251896025244,44.986393463546506,24.419827926397723,58.02509505387995,86.22046822406587,32.785907478571445,54.573251074074975,62.569045417966755,72.74988034946597,68.43570210970819,59.75265957571692,0.0,0.0,0.0,0.0,0.0,-0.0,0.0,-0.0,0.0,0.0,-0.0,0.0,0.0
1.49,58.05687881315267,24.85296499848799,34.904251896025244,44.986393463546506,24.419827926397723,58.02509505387995,86.22046822406587,32.785907478571445,54.573251074074975,62.569045417966755,72.74988034946597,68.43570210970819,59.75265957571692,0.0,0.0,0.0,0.0,0.0,-0.0,0.0,-0.0,0.0,0.0,-0.0,0.0,0.0
1.5,58.05687881315267,24.85296499848799,34.904251896025244,44.986393463546506,24.419827926397723,58.02509505387995,86.22046822406587,32.785907478571445,54.573251074074975,62.569045417966755,72.74988034946597,68.43570210970819,59.75265957571692,0.0,0.0,0.0,0.0,0.0,-0.0,0.0,-0.0,0.0,0.0,-0.0,0.0,0.0
1.51,58.05687881315267,24.85296499848799,34.904251896025244,44.986393463546506,24.419827926397723,58.02509505387995,86.22046822406587,32.785907478571445,54.573251074074975,62.569045417966755,72.74988034946597,68.43570210970819,59.75265957571692,0.0,0.0,0.0,0.0,0.0,-0.0,0.0,-0.0,0.0,0.0,-0.0,0.0,0.0
1.52,58.05687881315267,24.85296499848799,34.904251896025244,44.986393463546506,24.419827926397723,58.02509505387995,86.22046822406587,32.785907478571445,54.573251074074975,62.569045417966755,72.74988034946597,68.43570210970819,59.75265957571692,0.0,0.0,0.0,0.0,0.0,-0.0,0.0,-0.0,0.0,0.0,-0.0,0.0,0.0
1.53,58.05687881315267,24.85296499848799,34.904251896025244,44.986393463546506,24.419827926397723,58.02509505387995,86.22046822406587,32.785907478571445,54.573251074074975,62.569045417966755,72.74988034946597,68.43570210970819,59.75265957571692,0.0,0.0,0.0,0.0,0.0,-0.0,0.0,-0.0,0.0,0.0,-0.0,0.0,0.0
1.54,58.05687881315267,24.85296499848799,34.904251896025244,44.986393463546506,24.419827926397723,58.02509505387995,86.22046822406587,32.785907478571445,54.573251074074975,62.569045417966755,72.74988034946597,68.43570210970819,59.75265957571692,0.0,0.0,0.0,0.0,0.0,-0.0,0.0,-0.0,0.0,0.0,-0.0,0.0,0.0
1.55,58.05687881315267,24.85296499848799,34.904251896025244,44.986393463546506,24.419827926397723,58.02509505387995,86.22046822406587,32.785907478571445,54.573251074074975,62.569045417966755,72.74988034946597,68.43570210970819,59.75265957571692,0.0,0.0,0.0,0.0,0.0,-0.0,0.0,-0.0,0.0,0.0,-0.0,0.0,0.0
1.56,58.05687881315267,24.85296499848799,34.904251896025244,44.986393463546506,24.419827926397723,58.02509505387995,86.22046822406587,32.785907478571445,54.573251074074975,62.569045417966755,72.74988034946597,68.43570210970819,59.75265957571692,0.0,0.0,0.0,0.0,0.0,-0.0,0.0,-0.0,0.0,0.0,-0.0,0.0,0.0
1.57,58.05687881315267,24.85296499848799,34.904251896025244,44.986393463546506,24.419827926397723,58.02509505387995,86.22046822406587,32.785907478571445,54.573251074074975,62.569045417966755,72.74988034946597,68.43570210970819,59.75265957571692,0.0,0.0,0.0,0.0,0.0,-0.0,0.0,-0.0,0.0,0.0,-0.0,0.0,0.0
1.58,58.05687881315267,24.85296499848799,34.904251896025244,44.986393463546506,24.419827926397723,58.02509505387995,86.22046822406587,32.785907478571445,54.573251074074975,62.569045417966755,72.74988034946597,68.43570210970819,59.75265957571692,0.0,0.0,0.0,0.0,0.0,-0.0,0.0,-0.0,0.0,0.0,-0.0,0.0,0.0
1.59,58.05687881315267,24.85296499848799,34.904251896025244,44.986393463546506,24.419827926397723,58.02509505387995,86.22046822406587,32.785907478571445,54.573251074074975,62.569045417966755,72.74988034946597,68.43570210970819,59.75265957571692,0.0,0.0,0.0,0.0,0.0,-0.0,0.0,-0.0,0.0,0.0,-0.0,0.0,0.0
1.6,58.05687881315267,24.85296499848799,34.904251896025244,44.986393463546506,24.419827926397723,58.02509505387995,86.22046822406587,32.785907478571445,54.573251074074975,62.569045417966755,72.74988034946597,68.43570210970819,59.75265957571692,0.0,0.0,0.0,0.0,0.0,-0.0,0.0,-0.0,0.0,0.0,-0.0,0.0,0.0
1.61,58.05687881315267,24.85296499848799,34.904251896025244,44.986393463546506,24.419827926397723,58.02509505387995,86.22046822406587,32.785907478571445,54.573251074074975,62.569045417966755,72.74988034946597,68.43570210970819,59.75265957571692,0.0,0.0,0.0,0.0,0.0,-0.0,0.0,-0.0,0.0,0.0,-0.0,0.0,0.0
1.62,58.05687881315267,24.85296499848799,34.904251896025244,44.986393463546506,24.419827926397723,58.02509505387995,86.22046822406587,32.785907478571445,54.573251074074975,62.569045417966755,72.74988034946597,68.43570210970819,59.75265957571692,0.0,0.0,0.0,0.0,0.0,-0.0,0.0,-0.0,0.0,0.0,-0.0,0.0,0.0
1.63,58.05687881315267,24.85296499848799,34.904251896025244,44.986393463546506,24.419827926397723,58.02509505387995,86.22046822406587,32.785907478571445,54.573251074074975,62.569045417966755,72.74988034946597,68.43570210970819,59.75265957571692,0.0,0.0,0.0,0.0,0.0,-0.0,0.0,-0.0,0.0,0.0,-0.0,0.0,0.0
1.64,58.05687881315267,24.85296499848799,34.904251896025244,44.986393463546506,24.419827926397723,58.02509505387995,86.22046822406587,32.785907478571445,54.573251074074975,62.569045417966755,72.74988034946597,68.43570210970819,59.75265957571692,0.0,0.0,0.0,0.0,0.0,-0.0,0.0,-0.0,0.0,0.0,-0.0,0.0,0.0
1.65,58.05687881315267,24.85296499848799,34.904251896025244,44.986393463546506,24.419827926397723,58.02509505387995,86.22046822406587,32.785907478571445,54.573251074074975,62.569045417966755,72.74988034946597,68.43570210970819,59.75265957571692,0.0,0.0,0.0,0.0,0.0,-0.0,0.0,-0.0,0.0,0.0,-0.0,0.0,0.0
1.66,58.05687881315267,24.85296499848799,34.904251896025244,44.986393463546506,24.419827926397723,58.02509505387995,86.22046822406587,32.785907478571445,54.573251074074975,62.569045417966755,72.74988034946597,68.43570210970819,59.75265957571692,0.0,0.0,0.0,0.0,0.0,-0.0,0.0,-0.0,0.0,0.0,-0.0,0.0,0.0
1.67,58.05687881315267,24.85296499848799,34.904251896025244,44.986393463546506,24.419827926397723,58.02509505387995,86.22046822406587,32.785907478571445,54.573251074074975,62.569045417966755,72.74988034946597,68.43570210970819,59.75265957571692,0.0,0.0,0.0,0.0,0.0,-0.0,0.0,-0.0,0.0,0.0,-0.0,0.0,0.0
1.68,58.05687881315267,24.85296499848799,34.904251896025244,44.986393463546506,24.419827926397723,58.02509505387995,86.22046822406587,32.785907478571445,54.573251074074975,62.569045417966755,72.74988034946597,68.43570210970819,59.75265957571692,0.0,0.0,0.0,0.0,0.0,-0.0,0.0,-0.0,0.0,0.0,-0.0,0.0,0.0
1.69,58.05687881315267,24.85296499848799,34.904251896025244,44.986393463546506,24.419827926397723,58.02509505387995,86.22046822406587,32.785907478571445,54.573251074074975,62.569045417966755,72.74988034946597,68.43570210970819,59.75265957571692,0.0,0.0,0.0,0.0,0.0,-0.0,0.0,-0.0,0.0,0.0,-0.0,0.0,0.0
1.7,58.05687881315267,24.85296499848799,34.904251896025244,44.986393463546506,24.419827926397723,58.02509505387995,86.22046822406587,32.785907478571445,54.573251074074975,62.569045417966755,72.74988034946597,68.43570210970819,59.75265957571692,0.0,0.0,0.0,0.0,0.0,-0.0,0.0,-0.0,0.0,0.0,-0.0,0.0,0.0
1.71,58.05687881315267,24.85296499848799,34.904251896025244,44.986393463546506,24.419827926397723,58.02509505387995,86.22046822406587,32.785907478571445,54.573251074074975,62.569045417966755,72.74988034946597,68.43570210970819,59.75265957571692,0.0,0.0,0.0,0.0,0.0,-0.0,0.0,-0.0,0.0,0.0,-0.0,0.0,0.0
1.72,58.05687881315267,24.85296499848799,34.904251896025244,44.986393463546506,24.419827926397723,58.02509505387995,86.22046822406587,32.785907478571445,54.573251074074975,62.569045417966755,72.74988034946597,68.43570210970819,59.75265957571692,0.0,0.0,0.0,0.0,0.0,-0.0,0.0,-0.0,0.0,0.0,-0.0,0.0,0.0
1.73,58.05687881315267,24.85296499848799,34.904251896025244,44.986393463546506,24.419827926397723,58.02509505387995,86.22046822406587,32.785907478571445,54.573251074074975,62.569045417966755,72.74988034946597,68.43570210970819,59.75265957571692,0.0,0.0,0.0,0.0,0.0,-0.0,0.0,-0.0,0.0,0.0,-0.0,0.0,0.0
1.74,58.05687881315267,24.85296499848799,34.904251896025244,44.986393463546506,24.419827926397723,58.02509505387995,86.22046822406587,32.785907478571445,54.573251074074975,62.569045417966755,72.74988034946597,68.43570210970819,59.75265957571692,0.0,0.0,0.0,0.0,0.0,-0.0,0.0,-0.0,0.0,0.0,-0.0,0.0,0.0
1.75,58.05687881315267,24.85296499848799,34.904251896025244,44.986393463546506,24.419827926397723,58.02509505387995,86.22046822406587,32.785907478571445,54.573251074074975,62.569045417966755,72.74988034946597,68.43570210970819,59.75265957571692,0.0,0.0,0.0,0.0,0.0,-0.0,0.0,-0.0,0.0,0.0,-0.0,0.0,0.0
1.76,58.05687881315267,24.85296499848799,34.904251896025244,44.986393463546506,24.419827926397723,58.02509505387995,86.22046822406587,32.785907478571445,54.573251074074975,62.569045417966755,72.74988034946597,68.43570210970819,59.75265957571692,0.0,0.0,0.0,0.0,0.0,-0.0,0.0,-0.0,0.0,0.0,-0.0,0.0,0.0
1.77,58.05687881315267,24.85296499848799,34.904251896025244,44.986393463546506,24.419827926397723,58.02509505387995,86.22046822406587,32.785907478571445,54.573251074074975,62.569045417966755,72.74988034946597,68.43570210970819,59.75265957571692,0.0,0.0,0.0,0.0,0.0,-0.0,0.0,-0.0,0.0,0.0,-0.0,0.0,0.0
1.78,58.05687881315267,24.85296499848799,34.904251896025244,44.986393463546506,24.419827926397723,58.02509505387995,86.22046822406587,32.785907478571445,54.573251074074975,62.569045417966755,72.74988034946597,68.43570210970819,59.75265957571692,0.0,0.0,0.0,0.0,0.0,-0.0,0.0,-0.0,0.0,0.0,-0.0,0.0,0.0
1.79,58.05687881315267,24.85296499848799,34.904251896025244,44.986393463546506,24.419827926397723,58.02509505387995,86.22046822406587,32.785907478571445,54.573251074074975,62.569045417966755,72.74988034946597,68.43570210970819,59.75265957571692,0.0,0.0,0.0,0.0,0.0,-0.0,0.0,-0.0,0.0,0.0,-0.0,0.0,0.0
1.8,58.05687881315267,24.85296499848799,34.904251896025244,44.986393463546506,24.419827926397723,58.02509505387995,86.22046822406587,32.785907478571445,54.573251074074975,62.569045417966755,72.74988034946597,68.43570210970819,59.75265957571692,0.0,0.0,0.0,0.0,0.0,-0.0,0.0,-0.0,0.0,0.0,-0.0,0.0,0.0
1.81,58.05687881315267,24.85296499848799,34.904251896025244,44.986393463546506,24.419827926397723,58.02509505387995,86.22046822406587,32.785907478571445,54.573251074074975,62.569045417966755,72.74988034946597,68.43570210970819,59.75265957571692,0.0,0.0,0.0,0.0,0.0,-0.0,0.0,-0.0,0.0,0.0,-0.0,0.0,0.0
1.82,58.05687881315267,24.85296499848799,34.904251896025244,44.986393463546506,24.419827926397723,58.02509505387995,86.22046822406587,32.785907478571445,54.573251074074975,62.569045417966755,72.74988034946597,68.43570210970819,59.75265957571692,0.0,0.0,0.0,0.0,0.0,-0.0,0.0,-0.0,0.0,0.0,-0.0,0.0,0.0
1.83,58.05687881315267,24.85296499848799,34.904251896025244,44.986393463546506,24.419827926397723,58.02509505387995,86.22046822406587,32.785907478571445,54.573251074074975,62.569045417966755,72.74988034946597,68.43570210970819,59.75265957571692,0.0,0.0,0.0,0.0,0.0,-0.0,0.0,-0.0,0.0,0.0,-0.0,0.0,0.0
1.84,58.05687881315267,24.85296499848799,34.904251896025244,44.986393463546506,24.419827926397723,58.02509505387995,86.22046822406587,32.785907478571445,54.573251074074975,62.569045417966755,72.74988034946597,68.43570210970819,59.75265957571692,0.0,0.0,0.0,0.0,0.0,-0.0,0.0,-0.0,0.0,0.0,-0.0,0.0,0.0
1.85,58.05687881315267,24.85296499848799,34.904251896025244,44.986393463546506,24.419827926397723,58.02509505387995,86.22046822406587,32.785907478571445,54.573251074074975,62.569045417966755,72.74988034946597,68.43570210970819,59.75265957571692,0.0,0.0,0.0,0.0,0.0,-0.0,0.0,-0.0,0.0,0.0,-0.0,0.0,0.0
1.86,58.05687881315267,24.85296499848799,34.904251896025244,44.986393463546506,24.419827926397723,58.02509505387995,86.22046822406587,32.785907478571445,54.573251074074975,62.569045417966755,72.74988034946597,68.43570210970819,59.75265957571692,0.0,0.0,0.0,0.0,0.0,-0.0,0.0,-0.0,0.0,0.0,-0.0,0.0,0.0
1.87,58.05687881315267,24.85296499848799,34.904251896025244,44.986393463546506,24.419827926397723,58.02509505387995,86.22046822406587,32.785907478571445,54.573251074074975,62.569045417966755,72.74988034946597,68.43570210970819,59.75265957571692,0.0,0.0,0.0,0.0,0.0,-0.0,0.0,-0.0,0.0,0.0,-0.0,0.0,0.0
1.88,58.05687881315267,24.85296499848799,34.904251896025244,44.986393463546506,24.419827926397723,58.02509505387995,86.22046822406587,32.785907478571445,54.573251074074975,62.569045417966755,72.74988034946597,68.43570210970819,59.75265957571692,0.0,0.0,0.0,0.0,0.0,-0.0,0.0,-0.0,0.0,0.0,-0.0,0.0,0.0
1.89,58.05687881315267,24.85296499848799,34.904251896025244,44.986393463546506,24.419827926397723,58.02509505387995,86.22046822406587,32.785907478571445,54.573251074074975,62.569045417966755,72.74988034946597,68.43570210970819,59.75265957571692,0.0,0.0,0.0,0.0,0.0,-0.0,0.0,-0.0,0.0,0.0,-0.0,0.0,0.0
1.9,58.05687881315267,24.85296499848799,34.904251896025244,44.986393463546506,24.419827926397723,58.02509505387995,86.22046822406587,32.785907478571445,54.573251074074975,62.569045417966755,72.74988034946597,68.43570210970819,59.75265957571692,0.0,0.0,0.0,0.0,0.0,-0.0,0.0,-0.0,0.0,0.0,-0.0,0.0,0.0
1.91,58.05687881315267,24.85296499848799,34.904251896025244,44.986393463546506,24.419827926397723,58.02509505387995,86.22046822406587,32.785907478571445,54.573251074074975,62.569045417966755,72.74988034946597,68.43570210970819,59.75265957571692,0.0,0.0,0.0,0.0,0.0,-0.0,0.0,-0.0,0.0,0.0,-0.0,0.0,0.0
1.92,58.05687881315267,24.85296499848799,34.904251896025244,44.986393463546506,24.419827926397723,58.02509505387995,86.22046822406587,32.785907478571445,54.573251074074975,62.569045417966755,72.74988034946597,68.43570210970819,59.75265957571692,0.0,0.0,0.0,0.0,0.0,-0.0,0.0,-0.0,0.0,0.0,-0.0,0.0,0.0
1.93,58.05687881315267,24.85296499848799,34.904251896025244,44.986393463546506,24.419827926397723,58.02509505387995,86.22046822406587,32.785907478571445,54.573251074074975,62.569045417966755,72.74988034946597,68.43570210970819,59.75265957571692,0.0,0.0,0.0,0.0,0.0,-0.0,0.0,-0.0,0.0,0.0,-0.0,0.0,0.0
1.94,58.05687881315267,24.85296499848799,34.904251896025244,44.986393463546506,24.419827926397723,58.02509505387995,86.22046822406587,32.785907478571445,54.573251074074975,62.569045417966755,72.74988034946597,68.43570210970819,59.75265957571692,0.0,0.0,0.0,0.0,0.0,-0.0,0.0,-0.0,0.0,0.0,-0.0,0.0,0.0
1.95,58.05687881315267,24.85296499848799,34.904251896025244,44.986393463546506,24.419827926397723,58.02509505387995,86.22046822406587,32.785907478571445,54.573251074074975,62.569045417966755,72.74988034946597,68.43570210970819,59.75265957571692,0.0,0.0,0.0,0.0,0.0,-0.0,0.0,-0.0,0.0,0.0,-0.0,0.0,0.0
1.96,58.05687881315267,24.85296499848799,34.904251896025244,44.986393463546506,24.419827926397723,58.02509505387995,86.22046822406587,32.785907478571445,54.573251074074975,62.569045417966755,72.74988034946597,68.43570210970819,59.75265957571692,0.0,0.0,0.0,0.0,0.0,-0.0,0.0,-0.0,0.0,0.0,-0.0,0.0,0.0
1.97,58.05687881315267,24.85296499848799,34.904251896025244,44.986393463546506,24.419827926397723,58.02509505387995,86.22046822406587,32.785907478571445,54.573251074074975,62.569045417966755,72.74988034946597,68.43570210970819,59.75265957571692,0.0,0.0,0.0,0.0,0.0,-0.0,0.0,-0.0,0.0,0.0,-0.0,0.0,0.0
1.98,58.05687881315267,24.85296499848799,34.904251896025244,44.986393463546506,24.419827926397723,58.02509505387995,86.22046822406587,32.785907478571445,54.573251074074975,62.569045417966755,72.74988034946597,68.43570210970819,59.75265957571692,0.0,0.0,0.0,0.0,0.0,-0.0,0.0,-0.0,0.0,0.0,-0.0,0.0,0.0
1.99,58.05687881315267,24.85296499848799,34.904251896025244,44.986393463546506,24.419827926397723,58.02509505387995,86.22046822406587,32.785907478571445,54.573251074074975,62.569045417966755,72.74988034946597,68.43570210970819,59.75265957571692,0.0,0.0,0.0,0.0,0.0,-0.0,0.0,-0.0,0.0,0.0,-0.0,0.0,0.0
2.0,58.05687881315267,24.85296499848799,34.904251896025244,44.986393463546506,24.419827926397723,58.02509505387995,86.22046822406587,32.785907478571445,54.573251074074975,62.569045417966755,72.74988034946597,68.43570210970819,59.75265957571692,0.0,0.0,0.0,0.0,0.0,-0.0,0.0,-0.0,0.0,0.0,-0.0,0.0,0.0
2.01,58.05687881315267,24.85296499848799,34.904251896025244,44.986393463546506,24.419827926397723,58.02509505387995,86.22046822406587,32.785907478571445,54.573251074074975,62.569045417966755,72.74988034946597,68.43570210970819,59.75265957571692,0.0,0.0,0.0,0.0,0.0,-0.0,0.0,-0.0,0.0,0.0,-0.0,0.0,0.0
2.02,58.05687881315267,24.85296499848799,34.904251896025244,44.986393463546506,24.419827926397723,58.02509505387995,86.22046822406587,32.785907478571445,54.573251074074975,62.569045417966755,72.74988034946597,68.43570210970819,59.75265957571692,0.0,0.0,0.0,0.0,0.0,-0.0,0.0,-0.0,0.0,0.0,-0.0,0.0,0.0
2.03,58.05687881315267,24.85296499848799,34.904251896025244,44.986393463546506,24.419827926397723,58.02509505387995,86.22046822406587,32.785907478571445,54.573251074074975,62.569045417966755,72.74988034946597,68.43570210970819,59.75265957571692,0.0,0.0,0.0,0.0,0.0,-0.0,0.0,-0.0,0.0,0.0,-0.0,0.0,0.0
2.04,58.05687881315267,24.85296499848799,34.904251896025244,44.986393463546506,24.419827926397723,58.02509505387995,86.22046822406587,32.785907478571445,54.573251074074975,62.569045417966755,72.74988034946597,68.43570210970819,59.75265957571692,0.0,0.0,0.0,0.0,0.0,-0.0,0.0,-0.0,0.0,0.0,-0.0,0.0,0.0
2.05,58.05687881315267,24.85296499848799,34.904251896025244,44.986393463546506,24.419827926397723,58.02509505387995,86.22046822406587,32.785907478571445,54.573251074074975,62.569045417966755,72.74988034946597,68.43570210970819,59.75265957571692,0.0,0.0,0.0,0.0,0.0,-0.0,0.0,-0.0,0.0,0.0,-0.0,0.0,0.0
2.06,58.05687881315267,24.85296499848799,34.904251896025244,44.986393463546506,24.419827926397723,58.02509505387995,86.22046822406587,32.785907478571445,54.573251074074975,62.569045417966755,72.74988034946597,68.43570210970819,59.75265957571692,0.0,0.0,0.0,0.0,0.0,-0.0,0.0,-0.0,0.0,0.0,-0.0,0.0,0.0
2.07,58.05687881315267,24.85296499848799,34.904251896025244,44.986393463546506,24.419827926397723,58.02509505387995,86.22046822406587,32.785907478571445,54.573251074074975,62.569045417966755,72.74988034946597,68.43570210970819,59.75265957571692,0.0,0.0,0.0,0.0,0.0,-0.0,0.0,-0.0,0.0,0.0,-0.0,0.0,0.0
2.08,58.05687881315267,24.85296499848799,34.904251896025244,44.986393463546506,24.419827926397723,58.02509505387995,86.22046822406587,32.785907478571445,54.573251074074975,62.569045417966755,72.74988034946597,68.43570210970819,59.75265957571692,0.0,0.0,0.0,0.0,0.0,-0.0,0.0,-0.0,0.0,0.0,-0.0,0.0,0.0
2.09,58.05687881315267,24.85296499848799,34.904251896025244,44.986393463546506,24.419827926397723,58.02509505387995,86.22046822406587,32.785907478571445,54.573251074074975,62.569045417966755,72.74988034946597,68.43570210970819,59.75265957571692,0.0,0.0,0.0,0.0,0.0,-0.0,0.0,-0.0,0.0,0.0,-0.0,0.0,0.0
2.1,58.05687881315267,24.85296499848799,34.904251896025244,44.986393463546506,24.419827926397723,58.02509505387995,86.22046822406587,32.785907478571445,54.573251074074975,62.569045417966755,72.74988034946597,68.43570210970819,59.75265957571692,0.0,0.0,0.0,0.0,0.0,-0.0,0.0,-0.0,0.0,0.0,-0.0,0.0,0.0
2.11,58.05687881315267,24.85296499848799,34.904251896025244,44.986393463546506,24.419827926397723,58.02509505387995,86.22046822406587,32.785907478571445,54.573251074074975,62.569045417966755,72.74988034946597,68.43570210970819,59.75265957571692,0.0,0.0,0.0,0.0,0.0,-0.0,0.0,-0.0,0.0,0.0,-0.0,0.0,0.0
2.12,58.05687881315267,24.85296499848799,34.904251896025244,44.986393463546506,24.419827926397723,58.02509505387995,86.22046822406587,32.785907478571445,54.573251074074975,62.569045417966755,72.74988034946597,68.43570210970819,59.75265957571692,0.0,0.0,0.0,0.0,0.0,-0.0,0.0,-0.0,0.0,0.0,-0.0,0.0,0.0
2.13,58.05687881315267,24.85296499848799,34.904251896025244,44.986393463546506,24.419827926397723,58.02509505387995,86.22046822406587,32.785907478571445,54.573251074074975,62.569045417966755,72.74988034946597,68.43570210970819,59.75265957571692,0.0,0.0,0.0,0.0,0.0,-0.0,0.0,-0.0,0.0,0.0,-0.0,0.0,0.0
2.14,58.05687881315267,24.85296499848799,34.904251896025244,44.986393463546506,24.419827926397723,58.02509505387995,86.22046822406587,32.785907478571445,54.573251074074975,62.569045417966755,72.74988034946597,68.43570210970819,59.75265957571692,0.0,0.0,0.0,0.0,0.0,-0.0,0.0,-0.0,0.0,0.0,-0.0,0.0,0.0
2.15,58.05687881315267,24.85296499848799,34.904251896025244,44.986393463546506,24.419827926397723,58.02509505387995,86.22046822406587,32.785907478571445,54.573251074074975,62.569045417966755,72.74988034946597,68.43570210970819,59.75265957571692,0.0,0.0,0.0,0.0,0.0,-0.0,0.0,-0.0,0.0,0.0,-0.0,0.0,0.0
2.16,58.05687881315267,24.85296499848799,34.904251896025244,44.986393463546506,24.419827926397723,58.02509505387995,86.22046822406587,32.785907478571445,54.573251074074975,62.569045417966755,72.74988034946597,68.43570210970819,59.75265957571692,0.0,0.0,0.0,0.0,0.0,-0.0,0.0,-0.0,0.0,0.0,-0.0,0.0,0.0
2.17,58.05687881315267,24.85296499848799,34.904251896025244,44.986393463546506,24.419827926397723,58.02509505387995,86.22046822406587,32.785907478571445,54.573251074074975,62.569045417966755,72.74988034946597,68.43570210970819,59.75265957571692,0.0,0.0,0.0,0.0,0.0,-0.0,0.0,-0.0,0.0,0.0,-0.0,0.0,0.0
2.18,58.05687881315267,24.85296499848799,34.904251896025244,44.986393463546506,24.419827926397723,58.02509505387995,86.22046822406587,32.785907478571445,54.573251074074975,62.569045417966755,72.74988034946597,68.43570210970819,59.75265957571692,0.0,0.0,0.0,0.0,0.0,-0.0,0.0,-0.0,0.0,0.0,-0.0,0.0,0.0
2.19,58.05687881315267,24.85296499848799,34.904251896025244,44.986393463546506,24.419827926397723,58.02509505387995,86.22046822406587,32.785907478571445,54.573251074074975,62.569045417966755,72.74988034946597,68.43570210970819,59.75265957571692,0.0,0.0,0.0,0.0,0.0,-0.0,0.0,-0.0,0.0,0.0,-0.0,0.0,0.0
2.2,58.05687881315267,24.85296499848799,34.904251896025244,44.986393463546506,24.419827926397723,58.02509505387995,86.22046822406587,32.785907478571445,54.573251074074975,62.569045417966755,72.74988034946597,68.43570210970819,59.75265957571692,0.0,0.0,0.0,0.0,0.0,-0.0,0.0,-0.0,0.0,0.0,-0.0,0.0,0.0
2.21,58.05687881315267,24.85296499848799,34.904251896025244,44.986393463546506,24.419827926397723,58.02509505387995,86.22046822406587,32.785907478571445,54.573251074074975,62.569045417966755,72.74988034946597,68.43570210970819,59.75265957571692,0.0,0.0,0.0,0.0,0.0,-0.0,0.0,-0.0,0.0,0.0,-0.0,0.0,0.0
2.22,58.05687881315267,24.85296499848799,34.904251896025244,44.986393463546506,24.419827926397723,58.02509505387995,86.22046822406587,32.785907478571445,54.573251074074975,62.569045417966755,72.74988034946597,68.43570210970819,59.75265957571692,0.0,0.0,0.0,0.0,0.0,-0.0,0.0,-0.0,0.0,0.0,-0.0,0.0,0.0
2.23,58.05687881315267,24.85296499848799,34.904251896025244,44.986393463546506,24.419827926397723,58.02509505387995,86.22046822406587,32.785907478571445,54.573251074074975,62.569045417966755,72.74988034946597,68.43570210970819,59.75265957571692,0.0,0.0,0.0,0.0,0.0,-0.0,0.0,-0.0,0.0,0.0,-0.0,0.0,0.0
2.24,58.05687881315267,24.85296499848799,34.904251896025244,44.986393463546506,24.419827926397723,58.02509505387995,86.22046822406587,32.785907478571445,54.573251074074975,62.569045417966755,72.74988034946597,68.43570210970819,59.75265957571692,0.0,0.0,0.0,0.0,0.0,-0.0,0.0,-0.0,0.0,0.0,-0.0,0.0,0.0
2.25,58.05687881315267,24.85296499848799,34.904251896025244,44.986393463546506,24.419827926397723,58.02509505387995,86.22046822406587,32.785907478571445,54.573251074074975,62.569045417966755,72.74988034946597,68.43570210970819,59.75265957571692,0.0,0.0,0.0,0.0,0.0,-0.0,0.0,-0.0,0.0,0.0,-0.0,0.0,0.0
2.26,40.0,16.876965884402104,69.93514456704378,7.151781852475182,23.176265837217805,27.96084670810354,72.12923235926263,62.100758860029984,76.17770701352299,83.46229156245656,43.79775705895076,89.17360861952842,20.67088488208524,-0.0,-0.0,0.0,-0.0,-0.0,-0.0,-0.0,0.0,0.0,0.0,-0.0,0.0,-0.0
2.27,40.0,16.876965884402104,69.93514456704378,7.151781852475182,23.176265837217805,27.96084670810354,72.12923235926263,62.100758860029984,76.17770701352299,83.46229156245656,43.79775705895076,89.17360861952842,20.67088488208524,-0.0,-0.0,0.0,-0.0,-0.0,-0.0,-0.0,0.0,0.0,0.0,-0.0,0.0,-0.0
2.28,40.0,16.876965884402104,69.93514456704378,7.151781852475182,23.176265837217805,27.96084670810354,72.12923235926263,62.100758860029984,76.17770701352299,83.46229156245656,43.79775705895076,89.17360861952842,20.67088488208524,-0.0,-0.0,0.0,-0.0,-0.0,-0.0,-0.0,0.0,0.0,0.0,-0.0,0.0,-0.0
2.29,40.0,16.876965884402104,69.93514456704378,7.151781852475182,23.176265837217805,27.96084670810354,72.12923235926263,62.100758860029984,76.17770701352299,83.46229156245656,43.79775705895076,89.17360861952842,20.67088488208524,-0.0,-0.0,0.0,-0.0,-0.0,-0.0,-0.0,0.0,0.0,0.0,-0.0,0.0,-0.0
2.3,40.0,16.876965884402104,69.93514456704378,7.151781852475182,23.176265837217805,27.96084670810354,72.12923235926263,62.100758860029984,76.17770701352299,83.46229156245656,43.79775705895076,89.17360861952842,20.67088488208524,-0.0,-0.0,0.0,-0.0,-0.0,-0.0,-0.0,0.0,0.0,0.0,-0.0,0.0,-0.0
2.31,40.0,16.876965884402104,69.93514456704378,7.151781852475182,23.176265837217805,27.96084670810354,72.12923235926263,62.100758860029984,76.17770701352299,83.46229156245656,43.79775705895076,89.17360861952842,20.67088488208524,-0.0,-0.0,0.0,-0.0,-0.0,-0.0,-0.0,0.0,0.0,0.0,-0.0,0.0,-0.0
2.32,40.0,16.876965884402104,69.93514456704378,7.151781852475182,23.176265837217805,27.96084670810354,72.12923235926263,62.100758860029984,76.17770701352299,83.46229156245656,43.79775705895076,89.17360861952842,20.67088488208524,-0.0,-0.0,0.0,-0.0,-0.0,-0.0,-0.0,0.0,0.0,0.0,-0.0,0.0,-0.0
2.33,40.0,16.876965884402104,69.93514456704378,7.151781852475182,23.176265837217805,27.96084670810354,72.12923235926263,62.100758860029984,76.17770701352299,83.46229156245656,43.79775705895076,89.17360861952842,20.67088488208524,-0.0,-0.0,0.0,-0.0,-0.0,-0.0,-0.0,0.0,0.0,0.0,-0.0,0.0,-0.0
2.34,40.0,16.876965884402104,69.93514456704378,7.151781852475182,23.176265837217805,27.96084670810354,72.12923235926263,62.100758860029984,76.17770701352299,83.46229156245656,43.79775705895076,89.17360861952842,20.67088488208524,-0.0,-0.0,0.0,-0.0,-0.0,-0.0,-0.0,0.0,0.0,0.0,-0.0,0.0,-0.0
2.35,40.0,16.876965884402104,69.93514456704378,7.151781852475182,23.176265837217805,27.96084670810354,72.12923235926263,62.100758860029984,76.17770701352299,83.46229156245656,43.79775705895076,89.17360861952842,20.67088488208524,-0.0,-0.0,0.0,-0.0,-0.0,-0.0,-0.0,0.0,0.0,0.0,-0.0,0.0,-0.0
2.36,40.0,16.876965884402104,69.93514456704378,7.151781852475182,23.176265837217805,27.96084670810354,72.12923235926263,62.100758860029984,76.17770701352299,83.46229156245656,43.79775705895076,89.17360861952842,20.67088488208524,-0.0,-0.0,0.0,-0.0,-0.0,-0.0,-0.0,0.0,0.0,0.0,-0.0,0.0,-0.0
2.37,40.0,16.876965884402104,69.93514456704378,7.151781852475182,23.176265837217805,27.96084670810354,72.12923235926263,62.100758860029984,76.17770701352299,83.46229156245656,43.79775705895076,89.17360861952842,20.67088488208524,-0.0,-0.0,0.0,-0.0,-0.0,-0.0,-0.0,0.0,0.0,0.0,-0.0,0.0,-0.0
2.38,40.0,16.876965884402104,69.93514456704378,7.151781852475182,23.176265837217805,27.96084670810354,72.12923235926263,62.100758860029984,76.17770701352299,83.46229156245656,43.79775705895076,89.17360861952842,20.67088488208524,-0.0,-0.0,0.0,-0.0,-0.0,-0.0,-0.0,0.0,0.0,0.0,-0.0,0.0,-0.0
2.39,40.0,16.876965884402104,69.93514456704378,7.151781852475182,23.176265837217805,27.96084670810354,72.12923235926263,62.100758860029984,76.17770701352299,83.46229156245656,43.79775705895076,89.17360861952842,20.67088488208524,-0.0,-0.0,0.0,-0.0,-0.0,-0.0,-0.0,0.0,0.0,0.0,-0.0,0.0,-0.0
2.4,40.0,16.876965884402104,69.93514456704378,7.151781852475182,23.176265837217805,27.96084670810354,72.12923235926263,62.100758860029984,76.17770701352299,83.46229156245656,43.79775705895076,89.17360861952842,20.67088488208524,-0.0,-0.0,0.0,-0.0,-0.0,-0.0,-0.0,0.0,0.0,0.0,-0.0,0.0,-0.0
2.41,40.0,16.876965884402104,69.93514456704378,7.151781852475182,23.176265837217805,27.96084670810354,72.12923235926263,62.100758860029984,76.17770701352299,83.46229156245656,43.79775705895076,89.17360861952842,20.67088488208524,-0.0,-0.0,0.0,-0.0,-0.0,-0.0,-0.0,0.0,0.0,0.0,-0.0,0.0,-0.0
2.42,40.0,16.876965884402104,69.93514456704378,7.151781852475182,23.176265837217805,27.96084670810354,72.12923235926263,62.100758860029984,76.17770701352299,83.46229156245656,43.79775705895076,89.17360861952842,20.67088488208524,-0.0,-0.0,0.0,-0.0,-0.0,-0.0,-0.0,0.0,0.0,0.0,-0.0,0.0,-0.0
2.43,40.0,16.876965884402104,69.93514456704378,7.151781852475182,23.176265837217805,27.96084670810354,72.12923235926263,62.100758860029984,76.17770701352299,83.46229156245656,43.79775705895076,89.17360861952842,20.67088488208524,-0.0,-0.0,0.0,-0.0,-0.0,-0.0,-0.0,0.0,0.0,0.0,-0.0,0.0,-0.0
2.44,40.0,16.876965884402104,69.93514456704378,7.151781852475182,23.176265837217805,27.96084670810354,72.12923235926263,62.100758860029984,76.17770701352299,83.46229156245656,43.79775705895076,89.17360861952842,20.67088488208524,-0.0,-0.0,0.0,-0.0,-0.0,-0.0,-0.0,0.0,0.0,0.0,-0.0,0.0,-0.0
2.45,40.0,16.876965884402104,69.93514456704378,7.151781852475182,23.176265837217805,27.96084670810354,72.12923235926263,62.100758860029984,76.17770701352299,83.46229156245656,43.79775705895076,89.17360861952842,20.67088488208524,-0.0,-0.0,0.0,-0.0,-0.0,-0.0,-0.0,0.0,0.0,0.0,-0.0,0.0,-0.0
2.46,40.0,16.876965884402104,69.93514456704378,7.151781852475182,23.176265837217805,27.96084670810354,72.12923235926263,62.100758860029984,76.17770701352299,83.46229156245656,43.79775705895076,89.17360861952842,20.67088488208524,-0.0,-0.0,0.0,-0.0,-0.0,-0.0,-0.0,0.0,0.0,0.0,-0.0,0.0,-0.0
2.47,40.0,16.876965884402104,69.93514456704378,7.151781852475182,23.176265837217805,27.96084670810354,72.12923235926263,62.100758860029984,76.17770701352299,83.46229156245656,43.79775705895076,89.17360861952842,20.67088488208524,-0.0,-0.0,0.0,-0.0,-0.0,-0.0,-0.0,0.0,0.0,0.0,-0.0,0.0,-0.0
2.48,40.0,16.876965884402104,69.93514456704378,7.151781852475182,23.176265837217805,27.96084670810354,72.12923235926263,62.100758860029984,76.17770701352299,83.46229156245656,43.79775705895076,89.17360861952842,20.67088488208524,-0.0,-0.0,0.0,-0.0,-0.0,-0.0,-0.0,0.0,0.0,0.0,-0.0,0.0,-0.0
2.49,40.0,16.876965884402104,69.93514456704378,7.151781852475182,23.176265837217805,27.96084670810354,72.12923235926263,62.100758860029984,76.17770701352299,83.46229156245656,43.79775705895076,89.17360861952842,20.67088488208524,-0.0,-0.0,0.0,-0.0,-0.0,-0.0,-0.0,0.0,0.0,0.0,-0.0,0.0,-0.0
2.5,40.0,16.876965884402104,69.93514456704378,7.151781852475182,23.176265837217805,27.96084670810354,72.12923235926263,62.100758860029984,76.17770701352299,83.46229156245656,43.79775705895076,89.17360861952842,20.67088488208524,-0.0,-0.0,0.0,-0.0,-0.0,-0.0,-0.0,0.0,0.0,0.0,-0.0,0.0,-0.0
2.51,40.0,16.876965884402104,69.93514456704378,7.151781852475182,23.176265837217805,27.96084670810354,72.12923235926263,62.100758860029984,76.17770701352299,83.46229156245656,43.79775705895076,89.17360861952842,20.67088488208524,-0.0,-0.0,0.0,-0.0,-0.0,-0.0,-0.0,0.0,0.0,0.0,-0.0,0.0,-0.0
2.52,40.0,16.876965884402104,69.93514456704378,7.151781852475182,23.176265837217805,27.96084670810354,72.12923235926263,62.100758860029984,76.17770701352299,83.46229156245656,43.79775705895076,89.17360861952842,20.67088488208524,-0.0,-0.0,0.0,-0.0,-0.0,-0.0,-0.0,0.0,0.0,0.0,-0.0,0.0,-0.0
2.53,40.0,16.876965884402104,69.93514456704378,7.151781852475182,23.176265837217805,27.96084670810354,72.12923235926263,62.100758860029984,76.17770701352299,83.46229156245656,43.79775705895076,89.17360861952842,20.67088488208524,-0.0,-0.0,0.0,-0.0,-0.0,-0.0,-0.0,0.0,0.0,0.0,-0.0,0.0,-0.0
2.54,40.0,16.876965884402104,69.93514456704378,7.151781852475182,23.176265837217805,27.96084670810354,72.12923235926263,62.100758860029984,76.17770701352299,83.46229156245656,43.79775705895076,89.17360861952842,20.67088488208524,-0.0,-0.0,0.0,-0.0,-0.0,-0.0,-0.0,0.0,0.0,0.0,-0.0,0.0,-0.0
2.55,40.0,16.876965884402104,69.93514456704378,7.151781852475182,23.176265837217805,27.96084670810354,72.12923235926263,62.100758860029984,76.17770701352299,83.46229156245656,43.79775705895076,89.17360861952842,20.67088488208524,-0.0,-0.0,0.0,-0.0,-0.0,-0.0,-0.0,0.0,0.0,0.0,-0.0,0.0,-0.0
2.56,40.0,16.876965884402104,69.93514456704378,7.151781852475182,23.176265837217805,27.96084670810354,72.12923235926263,62.100758860029984,76.17770701352299,83.46229156245656,43.79775705895076,89.17360861952842,20.67088488208524,-0.0,-0.0,0.0,-0.0,-0.0,-0.0,-0.0,0.0,0.0,0.0,-0.0,0.0,-0.0
2.57,40.0,16.876965884402104,69.93514456704378,7.151781852475182,23.176265837217805,27.96084670810354,72.12923235926263,62.100758860029984,76.17770701352299,83.46229156245656,43.79775705895076,89.17360861952842,20.67088488208524,-0.0,-0.0,0.0,-0.0,-0.0,-0.0,-0.0,0.0,0.0,0.0,-0.0,0.0,-0.0
2.58,40.0,16.876965884402104,69.93514456704378,7.151781852475182,23.176265837217805,27.96084670810354,72.12923235926263,62.100758860029984,76.17770701352299,83.46229156245656,43.79775705895076,89.17360861952842,20.67088488208524,-0.0,-0.0,0.0,-0.0,-0.0,-0.0,-0.0,0.0,0.0,0.0,-0.0,0.0,-0.0
2.59,40.0,16.876965884402104,69.93514456704378,7.151781852475182,23.176265837217805,27.96084670810354,72.12923235926263,62.100758860029984,76.17770701352299,83.46229156245656,43.79775705895076,89.17360861952842,20.67088488208524,-0.0,-0.0,0.0,-0.0,-0.0,-0.0,-0.0,0.0,0.0,0.0,-0.0,0.0,-0.0
2.6,40.0,16.876965884402104,69.93514456704378,7.151781852475182,23.176265837217805,27.96084670810354,72.12923235926263,62.100758860029984,76.17770701352299,83.46229156245656,43.79775705895076,89.17360861952842,20.67088488208524,-0.0,-0.0,0.0,-0.0,-0.0,-0.0,-0.0,0.0,0.0,0.0,-0.0,0.0,-0.0
2.61,40.0,16.876965884402104,69.93514456704378,7.151781852475182,23.176265837217805,27.96084670810354,72.12923235926263,62.100758860029984,76.17770701352299,83.46229156245656,43.79775705895076,89.17360861952842,20.67088488208524,-0.0,-0.0,0.0,-0.0,-0.0,-0.0,-0.0,0.0,0.0,0.0,-0.0,0.0,-0.0
2.62,40.0,16.876965884402104,69.93514456704378,7.151781852475182,23.176265837217805,27.96084670810354,72.12923235926263,62.100758860029984,76.17770701352299,83.46229156245656,43.79775705895076,89.17360861952842,20.67088488208524,-0.0,-0.0,0.0,-0.0,-0.0,-0.0,-0.0,0.0,0.0,0.0,-0.0,0.0,-0.0
2.63,40.0,16.876965884402104,69.93514456704378,7.151781852475182,23.176265837217805,27.96084670810354,72.12923235926263,62.100758860029984,76.17770701352299,83.46229156245656,43.79775705895076,89.17360861952842,20.67088488208524,-0.0,-0.0,0.0,-0.0,-0.0,-0.0,-0.0,0.0,0.0,0.0,-0.0,0.0,-0.0
2.64,40.0,16.876965884402104,69.93514456704378,7.151781852475182,23.176265837217805,27.96084670810354,72.12923235926263,62.100758860029984,76.17770701352299,83.46229156245656,43.79775705895076,89.17360861952842,20.67088488208524,-0.0,-0.0,0.0,-0.0,-0.0,-0.0,-0.0,0.0,0.0,0.0,-0.0,0.0,-0.0
2.65,40.0,16.876965884402104,69.93514456704378,7.151781852475182,23.176265837217805,27.96084670810354,72.12923235926263,62.100758860029984,76.17770701352299,83.46229156245656,43.79775705895076,89.17360861952842,20.67088488208524,-0.0,-0.0,0.0,-0.0,-0.0,-0.0,-0.0,0.0,0.0,0.0,-0.0,0.0,-0.0
2.66,40.0,16.876965884402104,69.93514456704378,7.151781852475182,23.176265837217805,27.96084670810354,72.12923235926263,62.100758860029984,76.17770701352299,83.46229156245656,43.79775705895076,89.17360861952842,20.67088488208524,-0.0,-0.0,0.0,-0.0,-0.0,-0.0,-0.0,0.0,0.0,0.0,-0.0,0.0,-0.0
2.67,40.0,16.876965884402104,69.93514456704378,7.151781852475182,23.176265837217805,27.96084670810354,72.12923235926263,62.100758860029984,76.17770701352299,83.46229156245656,43.79775705895076,89.17360861952842,20.67088488208524,-0.0,-0.0,0.0,-0.0,-0.0,-0.0,-0.0,0.0,0.0,0.0,-0.0,0.0,-0.0
2.68,40.0,16.876965884402104,69.93514456704378,7.151781852475182,23.176265837217805,27.96084670810354,72.12923235926263,62.100758860029984,76.17770701352299,83.46229156245656,43.79775705895076,89.17360861952842,20.67088488208524,-0.0,-0.0,0.0,-0.0,-0.0,-0.0,-0.0,0.0,0.0,0.0,-0.0,0.0,-0.0
2.69,40.0,16.876965884402104,69.93514456704378,7.151781852475182,23.176265837217805,27.96084670810354,72.12923235926263,62.100758860029984,76.17770701352299,83.46229156245656,43.79775705895076,89.17360861952842,20.67088488208524,-0.0,-0.0,0.0,-0.0,-0.0,-0.0,-0.0,0.0,0.0,0.0,-0.0,0.0,-0.0
2.7,40.0,16.876965884402104,69.93514456704378,7.151781852475182,23.176265837217805,27.96084670810354,72.12923235926263,62.100758860029984,76.17770701352299,83.46229156245656,43.79775705895076,89.17360861952842,20.67088488208524,-0.0,-0.0,0.0,-0.0,-0.0,-0.0,-0.0,0.0,0.0,0.0,-0.0,0.0,-0.0
2.71,40.0,16.876965884402104,69.93514456704378,7.151781852475182,23.176265837217805,27.96084670810354,72.12923235926263,62.100758860029984,76.17770701352299,83.46229156245656,43.79775705895076,89.17360861952842,20.67088488208524,-0.0,-0.0,0.0,-0.0,-0.0,-0.0,-0.0,0.0,0.0,0.0,-0.0,0.0,-0.0
2.72,40.0,16.876965884402104,69.93514456704378,7.151781852475182,23.176265837217805,27.96084670810354,72.12923235926263,62.100758860029984,76.17770701352299,83.46229156245656,43.79775705895076,89.17360861952842,20.67088488208524,-0.0,-0.0,0.0,-0.0,-0.0,-0.0,-0.0,0.0,0.0,0.0,-0.0,0.0,-0.0
2.73,40.0,16.876965884402104,69.93514456704378,7.151781852475182,23.176265837217805,27.96084670810354,72.12923235926263,62.100758860029984,76.17770701352299,83.46229156245656,43.79775705895076,89.17360861952842,20.67088488208524,-0.0,-0.0,0.0,-0.0,-0.0,-0.0,-0.0,0.0,0.0,0.0,-0.0,0.0,-0.0
2.74,40.0,16.876965884402104,69.93514456704378,7.151781852475182,23.176265837217805,27.96084670810354,72.12923235926263,62.100758860029984,76.17770701352299,83.46229156245656,43.79775705895076,89.17360861952842,20.67088488208524,-0.0,-0.0,0.0,-0.0,-0.0,-0.0,-0.0,0.0,0.0,0.0,-0.0,0.0,-0.0
2.75,40.0,16.876965884402104,69.93514456704378,7.151781852475182,23.176265837217805,27.96084670810354,72.12923235926263,62.100758860029984,76.17770701352299,83.46229156245656,43.79775705895076,89.17360861952842,20.67088488208524,-0.0,-0.0,0.0,-0.0,-0.0,-0.0,-0.0,0.0,0.0,0.0,-0.0,0.0,-0.0
2.76,40.0,16.876965884402104,69.93514456704378,7.151781852475182,23.176265837217805,27.96084670810354,72.12923235926263,62.100758860029984,76.17770701352299,83.46229156245656,43.79775705895076,89.17360861952842,20.67088488208524,-0.0,-0.0,0.0,-0.0,-0.0,-0.0,-0.0,0.0,0.0,0.0,-0.0,0.0,-0.0
2.77,40.0,16.876965884402104,69.93514456704378,7.151781852475182,23.176265837217805,27.96084670810354,72.12923235926263,62.100758860029984,76.17770701352299,83.46229156245656,43.79775705895076,89.17360861952842,20.67088488208524,-0.0,-0.0,0.0,-0.0,-0.0,-0.0,-0.0,0.0,0.0,0.0,-0.0,0.0,-0.0
2.78,40.0,16.876965884402104,69.93514456704378,7.151781852475182,23.176265837217805,27.96084670810354,72.12923235926263,62.100758860029984,76.17770701352299,83.46229156245656,43.79775705895076,89.17360861952842,20.67088488208524,-0.0,-0.0,0.0,-0.0,-0.0,-0.0,-0.0,0.0,0.0,0.0,-0.0,0.0,-0.0
2.79,40.0,16.876965884402104,69.93514456704378,7.151781852475182,23.176265837217805,27.96084670810354,72.12923235926263,62.100758860029984,76.17770701352299,83.46229156245656,43.79775705895076,89.17360861952842,20.67088488208524,-0.0,-0.0,0.0,-0.0,-0.0,-0.0,-0.0,0.0,0.0,0.0,-0.0,0.0,-0.0
2.8,40.0,16.876965884402104,69.93514456704378,7.151781852475182,23.176265837217805,27.96084670810354,72.12923235926263,62.100758860029984,76.17770701352299,83.46229156245656,43.79775705895076,89.17360861952842,20.67088488208524,-0.0,-0.0,0.0,-0.0,-0.0,-0.0,-0.0,0.0,0.0,0.0,-0.0,0.0,-0.0
2.81,40.0,16.876965884402104,69.93514456704378,7.151781852475182,23.176265837217805,27.96084670810354,72.12923235926263,62.100758860029984,76.17770701352299,83.46229156245656,43.79775705895076,89.17360861952842,20.67088488208524,-0.0,-0.0,0.0,-0.0,-0.0,-0.0,-0.0,0.0,0.0,0.0,-0.0,0.0,-0.0
2.82,40.0,16.876965884402104,69.93514456704378,7.151781852475182,23.176265837217805,27.96084670810354,72.12923235926263,62.100758860029984,76.17770701352299,83.46229156245656,43.79775705895076,89.17360861952842,20.67088488208524,-0.0,-0.0,0.0,-0.0,-0.0,-0.0,-0.0,0.0,0.0,0.0,-0.0,0.0,-0.0
2.83,40.0,16.876965884402104,69.93514456704378,7.151781852475182,23.176265837217805,27.96084670810354,72.12923235926263,62.100758860029984,76.17770701352299,83.46229156245656,43.79775705895076,89.17360861952842,20.67088488208524,-0.0,-0.0,0.0,-0.0,-0.0,-0.0,-0.0,0.0,0.0,0.0,-0.0,0.0,-0.0
2.84,40.0,16.876965884402104,69.93514456704378,7.151781852475182,23.176265837217805,27.96084670810354,72.12923235926263,62.100758860029984,76.17770701352299,83.46229156245656,43.79775705895076,89.17360861952842,20.67088488208524,-0.0,-0.0,0.0,-0.0,-0.0,-0.0,-0.0,0.0,0.0,0.0,-0.0,0.0,-0.0
2.85,40.0,16.876965884402104,69.93514456704378,7.151781852475182,23.176265837217805,27.96084670810354,72.12923235926263,62.100758860029984,76.17770701352299,83.46229156245656,43.79775705895076,89.17360861952842,20.67088488208524,-0.0,-0.0,0.0,-0.0,-0.0,-0.0,-0.0,0.0,0.0,0.0,-0.0,0.0,-0.0
2.86,40.0,16.876965884402104,69.93514456704378,7.151781852475182,23.176265837217805,27.96084670810354,72.12923235926263,62.100758860029984,76.17770701352299,83.46229156245656,43.79775705895076,89.17360861952842,20.67088488208524,-0.0,-0.0,0.0,-0.0,-0.0,-0.0,-0.0,0.0,0.0,0.0,-0.0,0.0,-0.0
2.87,40.0,16.876965884402104,69.93514456704378,7.151781852475182,23.176265837217805,27.96084670810354,72.12923235926263,62.100758860029984,76.17770701352299,83.46229156245656,43.79775705895076,89.17360861952842,20.67088488208524,-0.0,-0.0,0.0,-0.0,-0.0,-0.0,-0.0,0.0,0.0,0.0,-0.0,0.0,-0.0
2.88,40.0,16.876965884402104,69.93514456704378,7.151781852475182,23.176265837217805,27.96084670810354,72.12923235926263,62.100758860029984,76.17770701352299,83.46229156245656,43.79775705895076,89.17360861952842,20.67088488208524,-0.0,-0.0,0.0,-0.0,-0.0,-0.0,-0.0,0.0,0.0,0.0,-0.0,0.0,-0.0
2.89,40.0,16.876965884402104,69.93514456704378,7.151781852475182,23.176265837217805,27.96084670810354,72.12923235926263,62.100758860029984,76.17770701352299,83.46229156245656,43.79775705895076,89.17360861952842,20.67088488208524,-0.0,-0.0,0.0,-0.0,-0.0,-0.0,-0.0,0.0,0.0,0.0,-0.0,0.0,-0.0
2.9,40.0,16.876965884402104,69.93514456704378,7.151781852475182,23.176265837217805,27.96084670810354,72.12923235926263,62.100758860029984,76.17770701352299,83.46229156245656,43.79775705895076,89.17360861952842,20.67088488208524,-0.0,-0.0,0.0,-0.0,-0.0,-0.0,-0.0,0.0,0.0,0.0,-0.0,0.0,-0.0
2.91,40.0,16.876965884402104,69.93514456704378,7.151781852475182,23.176265837217805,27.96084670810354,72.12923235926263,62.100758860029984,76.17770701352299,83.46229156245656,43.79775705895076,89.17360861952842,20.67088488208524,-0.0,-0.0,0.0,-0.0,-0.0,-0.0,-0.0,0.0,0.0,0.0,-0.0,0.0,-0.0
2.92,40.0,16.876965884402104,69.93514456704378,7.151781852475182,23.176265837217805,27.96084670810354,72.12923235926263,62.100758860029984,76.17770701352299,83.46229156245656,43.79775705895076,89.17360861952842,20.67088488208524,-0.0,-0.0,0.0,-0.0,-0.0,-0.0,-0.0,0.0,0.0,0.0,-0.0,0.0,-0.0
2.93,40.0,16.876965884402104,69.93514456704378,7.151781852475182,23.176265837217805,27.96084670810354,72.12923235926263,62.100758860029984,76.17770701352299,83.46229156245656,43.79775705895076,89.17360861952842,20.67088488208524,-0.0,-0.0,0.0,-0.0,-0.0,-0.0,-0.0,0.0,0.0,0.0,-0.0,0.0,-0.0
2.94,40.0,16.876965884402104,69.93514456704378,7.151781852475182,23.176265837217805,27.96084670810354,72.12923235926263,62.100758860029984,76.17770701352299,83.46229156245656,43.79775705895076,89.17360861952842,20.67088488208524,-0.0,-0.0,0.0,-0.0,-0.0,-0.0,-0.0,0.0,0.0,0.0,-0.0,0.0,-0.0
2.95,40.0,16.876965884402104,69.93514456704378,7.151781852475182,23.176265837217805,27.96084670810354,72.12923235926263,62.100758860029984,76.17770701352299,83.46229156245656,43.79775705895076,89.17360861952842,20.67088488208524,-0.0,-0.0,0.0,-0.0,-0.0,-0.0,-0.0,0.0,0.0,0.0,-0.0,0.0,-0.0
2.96,40.0,16.876965884402104,69.93514456704378,7.151781852475182,23.176265837217805,27.96084670810354,72.12923235926263,62.100758860029984,76.17770701352299,83.46229156245656,43.79775705895076,89.17360861952842,20.67088488208524,-0.0,-0.0,0.0,-0.0,-0.0,-0.0,-0.0,0.0,0.0,0.0,-0.0,0.0,-0.0
2.97,40.0,16.876965884402104,69.93514456704378,7.151781852475182,23.176265837217805,27.96084670810354,72.12923235926263,62.100758860029984,76.17770701352299,83.46229156245656,43.79775705895076,89.17360861952842,20.67088488208524,-0.0,-0.0,0.0,-0.0,-0.0,-0.0,-0.0,0.0,0.0,0.0,-0.0,0.0,-0.0
2.98,40.0,16.876965884402104,69.93514456704378,7.151781852475182,23.176265837217805,27.96084670810354,72.12923235926263,62.100758860029984,76.17770701352299,83.46229156245656,43.79775705895076,89.17360861952842,20.67088488208524,-0.0,-0.0,0.0,-0.0,-0.0,-0.0,-0.0,0.0,0.0,0.0,-0.0,0.0,-0.0
2.99,40.0,16.876965884402104,69.93514456704378,7.151781852475182,23.176265837217805,27.96084670810354,72.12923235926263,62.100758860029984,76.17770701352299,83.46229156245656,43.79775705895076,89.17360861952842,20.67088488208524,-0.0,-0.0,0.0,-0.0,-0.0,-0.0,-0.0,0.0,0.0,0.0,-0.0,0.0,-0.0
3.0,40.0,16.876965884402104,69.93514456704378,7.151781852475182,23.176265837217805,27.96084670810354,72.12923235926263,62.100758860029984,76.17770701352299,83.46229156245656,43.79775705895076,89.17360861952842,20.67088488208524,-0.0,-0.0,0.0,-0.0,-0.0,-0.0,-0.0,0.0,0.0,0.0,-0.0,0.0,-0.0
3.01,40.0,16.876965884402104,69.93514456704378,7.151781852475182,23.176265837217805,27.96084670810354,72.12923235926263,62.100758860029984,76.17770701352299,83.46229156245656,43.79775705895076,89.17360861952842,20.67088488208524,-0.0,-0.0,0.0,-0.0,-0.0,-0.0,-0.0,0.0,0.0,0.0,-0.0,0.0,-0.0
3.02,40.0,16.876965884402104,69.93514456704378,7.151781852475182,23.176265837217805,27.96084670810354,72.12923235926263,62.100758860029984,76.17770701352299,83.46229156245656,43.79775705895076,89.17360861952842,20.67088488208524,-0.0,-0.0,0.0,-0.0,-0.0,-0.0,-0.0,0.0,0.0,0.0,-0.0,0.0,-0.0
3.03,40.0,16.876965884402104,69.93514456704378,7.151781852475182,23.176265837217805,27.96084670810354,72.12923235926263,62.100758860029984,76.17770701352299,83.46229156245656,43.79775705895076,89.17360861952842,20.67088488208524,-0.0,-0.0,0.0,-0.0,-0.0,-0.0,-0.0,0.0,0.0,0.0,-0.0,0.0,-0.0
3.04,40.0,16.876965884402104,69.93514456704378,7.151781852475182,23.176265837217805,27.96084670810354,72.12923235926263,62.100758860029984,76.17770701352299,83.46229156245656,43.79775705895076,89.17360861952842,20.67088488208524,-0.0,-0.0,0.0,-0.0,-0.0,-0.0,-0.0,0.0,0.0,0.0,-0.0,0.0,-0.0
3.05,40.0,16.876965884402104,69.93514456704378,7.151781852475182,23.176265837217805,27.96084670810354,72.12923235926263,62.100758860029984,76.17770701352299,83.46229156245656,43.79775705895076,89.17360861952842,20.67088488208524,-0.0,-0.0,0.0,-0.0,-0.0,-0.0,-0.0,0.0,0.0,0.0,-0.0,0.0,-0.0
3.06,40.0,16.876965884402104,69.93514456704378,7.151781852475182,23.176265837217805,27.96084670810354,72.12923235926263,62.100758860029984,76.17770701352299,83.46229156245656,43.79775705895076,89.17360861952842,20.67088488208524,-0.0,-0.0,0.0,-0.0,-0.0,-0.0,-0.0,0.0,0.0,0.0,-0.0,0.0,-0.0
3.07,40.0,16.876965884402104,69.93514456704378,7.151781852475182,23.176265837217805,27.96084670810354,72.12923235926263,62.100758860029984,76.17770701352299,83.46229156245656,43.79775705895076,89.17360861952842,20.67088488208524,-0.0,-0.0,0.0,-0.0,-0.0,-0.0,-0.0,0.0,0.0,0.0,-0.0,0.0,-0.0
3.08,40.0,16.876965884402104,69.93514456704378,7.151781852475182,23.176265837217805,27.96084670810354,72.12923235926263,62.100758860029984,76.17770701352299,83.46229156245656,43.79775705895076,89.17360861952842,20.67088488208524,-0.0,-0.0,0.0,-0.0,-0.0,-0.0,-0.0,0.0,0.0,0.0,-0.0,0.0,-0.0
3.09,40.0,16.876965884402104,69.93514456704378,7.151781852475182,23.176265837217805,27.96084670810354,72.12923235926263,62.100758860029984,76.17770701352299,83.46229156245656,43.79775705895076,89.17360861952842,20.67088488208524,-0.0,-0.0,0.0,-0.0,-0.0,-0.0,-0.0,0.0,0.0,0.0,-0.0,0.0,-0.0
3.1,40.0,16.876965884402104,69.93514456704378,7.151781852475182,23.176265837217805,27.96084670810354,72.12923235926263,62.100758860029984,76.17770701352299,83.46229156245656,43.79775705895076,89.17360861952842,20.67088488208524,-0.0,-0.0,0.0,-0.0,-0.0,-0.0,-0.0,0.0,0.0,0.0,-0.0,0.0,-0.0
3.11,40.0,16.876965884402104,69.93514456704378,7.151781852475182,23.176265837217805,27.96084670810354,72.12923235926263,62.100758860029984,76.17770701352299,83.46229156245656,43.79775705895076,89.17360861952842,20.67088488208524,-0.0,-0.0,0.0,-0.0,-0.0,-0.0,-0.0,0.0,0.0,0.0,-0.0,0.0,-0.0
3.12,40.0,16.876965884402104,69.93514456704378,7.151781852475182,23.176265837217805,27.96084670810354,72.12923235926263,62.100758860029984,76.17770701352299,83.46229156245656,43.79775705895076,89.17360861952842,20.67088488208524,-0.0,-0.0,0.0,-0.0,-0.0,-0.0,-0.0,0.0,0.0,0.0,-0.0,0.0,-0.0
3.13,40.0,16.876965884402104,69.93514456704378,7.151781852475182,23.176265837217805,27.96084670810354,72.12923235926263,62.100758860029984,76.17770701352299,83.46229156245656,43.79775705895076,89.17360861952842,20.67088488208524,-0.0,-0.0,0.0,-0.0,-0.0,-0.0,-0.0,0.0,0.0,0.0,-0.0,0.0,-0.0
3.14,40.0,16.876965884402104,69.93514456704378,7.151781852475182,23.176265837217805,27.96084670810354,72.12923235926263,62.100758860029984,76.17770701352299,83.46229156245656,43.79775705895076,89.17360861952842,20.67088488208524,-0.0,-0.0,0.0,-0.0,-0.0,-0.0,-0.0,0.0,0.0,0.0,-0.0,0.0,-0.0
3.15,40.0,16.876965884402104,69.93514456704378,7.151781852475182,23.176265837217805,27.96084670810354,72.12923235926263,62.100758860029984,76.17770701352299,83.46229156245656,43.79775705895076,89.17360861952842,20.67088488208524,-0.0,-0.0,0.0,-0.0,-0.0,-0.0,-0.0,0.0,0.0,0.0,-0.0,0.0,-0.0
3.16,40.0,16.876965884402104,69.93514456704378,7.151781852475182,23.176265837217805,27.96084670810354,72.12923235926263,62.100758860029984,76.17770701352299,83.46229156245656,43.79775705895076,89.17360861952842,20.67088488208524,-0.0,-0.0,0.0,-0.0,-0.0,-0.0,-0.0,0.0,0.0,0.0,-0.0,0.0,-0.0
3.17,40.0,16.876965884402104,69.93514456704378,7.151781852475182,23.176265837217805,27.96084670810354,72.12923235926263,62.100758860029984,76.17770701352299,83.46229156245656,43.79775705895076,89.17360861952842,20.67088488208524,-0.0,-0.0,0.0,-0.0,-0.0,-0.0,-0.0,0.0,0.0,0.0,-0.0,0.0,-0.0
3.18,40.0,16.876965884402104,69.93514456704378,7.151781852475182,23.176265837217805,27.96084670810354,72.12923235926263,62.100758860029984,76.17770701352299,83.46229156245656,43.79775705895076,89.17360861952842,20.67088488208524,-0.0,-0.0,0.0,-0.0,-0.0,-0.0,-0.0,0.0,0.0,0.0,-0.0,0.0,-0.0
3.19,40.0,16.876965884402104,69.93514456704378,7.151781852475182,23.176265837217805,27.96084670810354,72.12923235926263,62.100758860029984,76.17770701352299,83.46229156245656,43.79775705895076,89.17360861952842,20.67088488208524,-0.0,-0.0,0.0,-0.0,-0.0,-0.0,-0.0,0.0,0.0,0.0,-0.0,0.0,-0.0
3.2,40.0,16.876965884402104,69.93514456704378,7.151781852475182,23.176265837217805,27.96084670810354,72.12923235926263,62.100758860029984,76.17770701352299,83.46229156245656,43.79775705895076,89.17360861952842,20.67088488208524,-0.0,-0.0,0.0,-0.0,-0.0,-0.0,-0.0,0.0,0.0,0.0,-0.0,0.0,-0.0
3.21,40.0,16.876965884402104,69.93514456704378,7.151781852475182,23.176265837217805,27.96084670810354,72.12923235926263,62.100758860029984,76.17770701352299,83.46229156245656,43.79775705895076,89.17360861952842,20.67088488208524,-0.0,-0.0,0.0,-0.0,-0.0,-0.0,-0.0,0.0,0.0,0.0,-0.0,0.0,-0.0
3.22,40.0,16.876965884402104,69.93514456704378,7.151781852475182,23.176265837217805,27.96084670810354,72.12923235926263,62.100758860029984,76.17770701352299,83.46229156245656,43.79775705895076,89.17360861952842,20.67088488208524,-0.0,-0.0,0.0,-0.0,-0.0,-0.0,-0.0,0.0,0.0,0.0,-0.0,0.0,-0.0
3.23,40.0,16.876965884402104,69.93514456704378,7.151781852475182,23.176265837217805,27.96084670810354,72.12923235926263,62.100758860029984,76.17770701352299,83.46229156245656,43.79775705895076,89.17360861952842,20.67088488208524,-0.0,-0.0,0.0,-0.0,-0.0,-0.0,-0.0,0.0,0.0,0.0,-0.0,0.0,-0.0
3.24,40.0,16.876965884402104,69.93514456704378,7.151781852475182,23.176265837217805,27.96084670810354,72.12923235926263,62.100758860029984,76.17770701352299,83.46229156245656,43.79775705895076,89.17360861952842,20.67088488208524,-0.0,-0.0,0.0,-0.0,-0.0,-0.0,-0.0,0.0,0.0,0.0,-0.0,0.0,-0.0
3.25,40.0,16.876965884402104,69.93514456704378,7.151781852475182,23.176265837217805,27.96084670810354,72.12923235926263,62.100758860029984,76.17770701352299,83.46229156245656,43.79775705895076,89.17360861952842,20.67088488208524,-0.0,-0.0,0.0,-0.0,-0.0,-0.0,-0.0,0.0,0.0,0.0,-0.0,0.0,-0.0
3.26,40.0,16.876965884402104,69.93514456704378,7.151781852475182,23.176265837217805,27.96084670810354,72.12923235926263,62.100758860029984,76.17770701352299,83.46229156245656,43.79775705895076,89.17360861952842,20.67088488208524,-0.0,-0.0,0.0,-0.0,-0.0,-0.0,-0.0,0.0,0.0,0.0,-0.0,0.0,-0.0
3.27,40.0,16.876965884402104,69.93514456704378,7.151781852475182,23.176265837217805,27.96084670810354,72.12923235926263,62.100758860029984,76.17770701352299,83.46229156245656,43.79775705895076,89.17360861952842,20.67088488208524,-0.0,-0.0,0.0,-0.0,-0.0,-0.0,-0.0,0.0,0.0,0.0,-0.0,0.0,-0.0
3.28,40.0,16.876965884402104,69.93514456704378,7.151781852475182,23.176265837217805,27.96084670810354,72.12923235926263,62.100758860029984,76.17770701352299,83.46229156245656,43.79775705895076,89.17360861952842,20.67088488208524,-0.0,-0.0,0.0,-0.0,-0.0,-0.0,-0.0,0.0,0.0,0.0,-0.0,0.0,-0.0
3.29,40.0,16.876965884402104,69.93514456704378,7.151781852475182,23.176265837217805,27.96084670810354,72.12923235926263,62.100758860029984,76.17770701352299,83.46229156245656,43.79775705895076,89.17360861952842,20.67088488208524,-0.0,-0.0,0.0,-0.0,-0.0,-0.0,-0.0,0.0,0.0,0.0,-0.0,0.0,-0.0
3.3,40.0,16.876965884402104,69.93514456704378,7.151781852475182,23.176265837217805,27.96084670810354,72.12923235926263,62.100758860029984,76.17770701352299,83.46229156245656,43.79775705895076,89.17360861952842,20.67088488208524,-0.0,-0.0,0.0,-0.0,-0.0,-0.0,-0.0,0.0,0.0,0.0,-0.0,0.0,-0.0
3.31,40.0,16.876965884402104,69.93514456704378,7.151781852475182,23.176265837217805,27.96084670810354,72.12923235926263,62.100758860029984,76.17770701352299,83.46229156245656,43.79775705895076,89.17360861952842,20.67088488208524,-0.0,-0.0,0.0,-0.0,-0.0,-0.0,-0.0,0.0,0.0,0.0,-0.0,0.0,-0.0
3.32,40.0,16.876965884402104,69.93514456704378,7.151781852475182,23.176265837217805,27.96084670810354,72.12923235926263,62.100758860029984,76.17770701352299,83.46229156245656,43.79775705895076,89.17360861952842,20.67088488208524,-0.0,-0.0,0.0,-0.0,-0.0,-0.0,-0.0,0.0,0.0,0.0,-0.0,0.0,-0.0
3.33,40.0,16.876965884402104,69.93514456704378,7.151781852475182,23.176265837217805,27.96084670810354,72.12923235926263,62.100758860029984,76.17770701352299,83.46229156245656,43.79775705895076,89.17360861952842,20.67088488208524,-0.0,-0.0,0.0,-0.0,-0.0,-0.0,-0.0,0.0,0.0,0.0,-0.0,0.0,-0.0
3.34,40.0,16.876965884402104,69.93514456704378,7.151781852475182,23.176265837217805,27.96084670810354,72.12923235926263,62.100758860029984,76.17770701352299,83.46229156245656,43.79775705895076,89.17360861952842,20.67088488208524,-0.0,-0.0,0.0,-0.0,-0.0,-0.0,-0.0,0.0,0.0,0.0,-0.0,0.0,-0.0
