milky766/affetto/tests/data/rand_traj_trapez_async_all.csv
t,q0,q1,q2,q3,q4,q5,q6,q7,q8,q9,q10,q11,q12,dq0,dq1,dq2,dq3,dq4,dq5,dq6,dq7,dq8,dq9,dq10,dq11,dq12
0.0,50.0,50.0,50.0,50.0,50.0,50.0,50.0,50.0,50.0,50.0,50.0,50.0,50.0,0.0,-0.0,-0.0,0.0,-0.0,-0.0,0.0,-0.0,-0.0,0.0,0.0,-0.0,0.0
0.01,50.00134063747032,49.99594985879269,49.99370773206063,50.00371992137562,49.989116816094466,49.99448144632183,50.01089841147621,49.97936169580591,49.9866651855138,50.00979068420593,50.00258417429551,49.994604141434046,50.00510591757692,0.2681274940644549,-0.8100282414620574,-1.2584535878737675,0.74398427512389,-2.1766367811078435,-1.1037107356351192,2.179682295241872,-4.127660838816523,-2.666962897240216,1.958136841185113,0.5168348591013857,-1.079171713192152,1.0211835153844513
0.02,50.00536254988128,49.98379943517076,49.974830928242525,50.01487968550248,49.95646726437784,49.9779257852873,50.043593645904835,49.917446783223674,49.946660742055194,50.0391627368237,50.010336697182034,49.97841656573616,50.020423670307686,0.5362549881289098,-1.6200564829241149,-2.516907175747535,1.48796855024778,-4.353273562215687,-2.2074214712702385,4.359364590483744,-8.255321677633045,-5.333925794480432,3.916273682370226,1.0336697182027714,-2.158343426384304,2.0423670307689026
0.03,50.0120657372329,49.9635487291342,49.94336958854568,50.03347929238058,49.90205134485014,49.95033301689642,50.09808570328588,49.814255262253255,49.879986669624195,50.08811615785333,50.02325756865956,49.951437272906354,50.0459532581923,0.8043824821933646,-2.4300847243861723,-3.7753607636213022,2.23195282537167,-6.529910343323531,-3.3111322069053575,6.539046885725616,-12.382982516449566,-8.000888691720649,5.874410523555339,1.550504577304157,-3.237515139576456,3.063550546153354
0.04,50.02145019952516,49.93519774068304,49.8993237129701,50.059518742009914,49.82586905751137,49.91170314114919,50.174374583619354,49.669787132894676,49.78664296822078,50.15665094729481,50.04134678872811,49.91366626294463,50.08169468123076,1.0725099762578196,-3.2401129658482297,-5.03381435149507,2.97593710049556,-8.706547124431374,-4.414842942540477,8.718729180967488,-16.51064335526609,-10.667851588960865,7.832547364740452,2.067339436405543,-4.316686852768608,4.084734061537805
0.05,50.03351593675806,49.89874646981725,49.84269330151577,50.09299803439049,49.72792040236152,49.86203615804561,50.27246028690523,49.48404239514794,49.66662963784497,50.244767105148135,50.064604357387665,49.865103535850984,50.127647939423056,1.3406374703222745,-4.050141207310287,-6.292267939368837,3.71992137561945,-10.883183905539218,-5.518553678175596,10.898411476209361,-20.638304194082615,-13.334814486201081,9.790684205925565,2.5841742955069287,-5.3958585659607605,5.1059175769222565
0.06,50.0482629489316,49.85419491653683,49.77347835418272,50.1339171695223,49.60820537940059,49.801332067585676,50.39234281314354,49.25702104901303,49.519946678496765,50.35246463141332,50.09303027463825,49.80574909162541,50.1838130327692,1.6087649643867292,-4.860169448772345,-7.5507215272426045,4.46390565074334,-13.059820686647061,-6.622264413810715,13.078093771451233,-24.765965032899132,-16.001777383441297,11.748821047110678,3.101009154608314,-6.475030279152912,6.127101092306708
0.07,50.065691236045794,49.8015430808418,49.69167887097093,50.182276147405354,49.46672398862858,49.729590869769396,50.53402216233426,48.98872309448995,49.34659409017615,50.47974352609035,50.12662454047984,49.735602930267916,50.250189961269186,1.8768924584511846,-5.670197690234403,-8.809175115116373,5.20788992586723,-15.236457467754907,-7.725975149445835,15.257776066693104,-28.893625871715663,-18.668740280681515,13.706957888295792,3.6178440137097003,-7.554201992345065,7.148284607691159
0.08,50.08580079810062,49.74079096273214,49.59729485188039,50.23807496803965,49.30347623004548,49.64681256459676,50.6974983344774,48.67914853157872,49.14657187288313,50.626603789179235,50.165387154912445,49.654665051778515,50.326778724923024,2.1450199525156393,-6.480225931696459,-10.06762870299014,5.95187420099112,-17.41309424886275,-8.829685885080954,17.437458361934976,-33.02128671053218,-21.33570317792173,15.665094729480904,4.134678872811086,-8.633373705537217,8.16946812307561
0.09,50.108591635096104,49.67193856220786,49.49032629691113,50.30131363142518,49.11846210365132,49.55299715206778,50.88277132957296,48.32829736027931,48.91988002661771,50.793045420679974,50.20931811793606,49.56293545615718,50.4135793237307,2.4131474465800937,-7.290254173158517,-11.326082290863907,6.69585847611501,-19.58973102997059,-9.933396620716072,19.617140657176847,-37.1489475493487,-24.002666075161944,17.623231570666015,4.6515137319124715,-9.712545418729368,9.19065163846006
0.1,50.13406374703223,49.59498587926897,49.37077320606312,50.371992137561946,48.91168160944608,49.448144632182434,51.08984114762094,47.93616958059174,48.66651855137989,50.97906842059256,50.2584174295507,49.46041414340392,50.510591757692225,2.681274940644549,-8.100282414620574,-12.584535878737674,7.4398427512389,-21.766367811078435,-11.037107356351193,21.796822952418722,-41.27660838816523,-26.669628972402162,19.58136841185113,5.168348591013857,-10.791717131921521,10.211835153844513
0.11,50.162217133908996,49.509932913915456,49.23863557933637,50.45011048644996,48.683134747429754,49.332255004940755,51.31870778862133,47.502765192516,48.386487447169664,51.184672788917,50.312685089756336,49.34710111351875,50.61781602680759,2.949402434709004,-8.910310656082633,-13.84298946661144,8.18382702636279,-23.94300459218628,-12.140818091986311,23.97650524766059,-45.40426922698175,-29.33659186964238,21.539505253036243,5.685183450115243,-11.870888845113672,11.233018669228963
0.12,50.19305179572641,49.41677966614732,49.093913416730885,50.5356686780892,48.432821517602356,49.20532827034271,51.56937125257414,47.028084196052106,48.07978671398704,51.40985852565328,50.372121098552995,49.22299636650165,50.735252131076805,3.2175299287734584,-9.72033889754469,-15.101443054485209,8.92781130148668,-26.119641373294122,-13.24452882762143,26.156187542902465,-49.531930065798264,-32.003554766882594,23.497642094221355,6.202018309216628,-12.950060558305823,12.254202184613415
0.13,50.22656773248446,49.31552613596456,48.936606718246665,50.62866671247969,48.160741919963876,49.06736442838832,51.84183153947938,46.51212659120004,47.74641635183202,51.65462563080142,50.43672545594067,49.08809990235263,50.86290007049986,3.485657422837914,-10.530367139006747,-16.359896642358976,9.67179557661057,-28.296278154401968,-14.34823956325655,28.335869838144337,-53.659590904614795,-34.67051766412281,25.455778935406467,6.718853168318015,-14.029232271497976,13.275385699997866
0.14,50.26276494418316,49.20617232336718,48.76671548388371,50.729104589621414,47.86689595451432,48.918363479077584,52.13608864933703,45.9548923779598,47.38637636070459,51.91897410436141,50.50649816191936,48.942411721071686,51.000759845076765,3.753784916902369,-11.340395380468806,-17.618350230232746,10.41577985173446,-30.472914935509813,-15.45195029889167,30.51555213338621,-57.78725174343133,-37.33748056136303,27.413915776591583,7.235688027419401,-15.10840398469013,14.296569215382318
0.15,50.30164343082251,49.088718228355184,48.584239713642006,50.83698230951438,47.551283621253674,48.75832542241049,52.452142582147104,45.356381556331414,46.99966674060476,52.20290394633325,50.58143921648906,48.785931822658824,51.14883145480751,4.021912410966823,-12.15042362193086,-18.87680381810651,11.15976412685835,-32.64955171661765,-16.55566103452679,32.69523442862808,-61.91491258224784,-40.00444345860324,29.372052617776696,7.752522886520786,-16.18757569788228,15.317752730766768
0.16,50.343203192402505,48.96316385092857,48.389179407521574,50.95229987215858,47.21390492018196,48.58725025838705,52.7899933379096,44.716594126314845,46.58628749153253,52.50641515671694,50.66154861964977,48.61866020711405,51.307114899692095,4.2900399050312785,-12.960451863392919,-20.13525740598028,11.90374840198224,-34.8261884977255,-17.659371770161908,34.87491672386995,-66.04257342106436,-42.67140635584346,31.330189458961808,8.269357745622171,-17.266747411074434,16.33893624615122
0.17,50.38744422892314,48.82950919108733,48.181534565522405,51.07505727755402,46.854759851299164,48.40513798700725,53.149640916624506,44.035530087910125,46.14623861348789,52.829507735512486,50.7468263714015,48.44059687443734,51.47561017973053,4.558167399095733,-13.770480104854979,-21.393710993854047,12.64773267710613,-37.00282527883334,-18.763082505797026,37.054599019111826,-70.1702342598809,-45.33836925308368,33.28832630014692,8.786192604723558,-18.345919124266583,17.36011976153567
0.18,50.43436654038441,48.68775424883147,47.9613051876445,51.2052545257007,46.47384841460529,48.211988608271106,53.53108531829184,43.32034568927217,45.67952010647085,53.17218168271988,50.83727247174424,48.251741824628716,51.65431729492281,4.8262948931601874,-14.580508346317034,-22.652164581727813,13.39171695223002,-39.17946205994118,-19.866793241432145,39.234281314353694,-71.86731635025068,-48.00533215032389,35.24646314133203,9.303027463824943,-19.425090837458736,18.38130327692012
0.19,50.48397012678634,48.537899024160986,47.72849127388785,51.34289161659862,46.07117061010034,48.00780212217861,53.934326542911585,42.60167252576967,45.18613197048141,53.53443699833913,50.932886920677994,48.05209505768817,51.84323624526893,5.094422387224643,-15.390536587779092,-23.91061816960158,14.13570122735391,-41.356098841049025,-20.970503977067267,41.41396360959557,-71.86731635025068,-50.672295047564106,37.20459998251715,9.819862322926328,-20.504262550650886,19.402486792304575
0.2,50.53625498812891,48.37994351707589,47.483092824252466,51.48796855024778,45.64672643778431,47.79257852872976,54.35936459048374,41.88299936226716,44.66607420551957,53.916273682370225,51.03366971820277,47.841656573615694,52.0423670307689,5.362549881289098,-16.20056482924115,-25.169071757475347,14.8796855024778,-43.53273562215687,-22.074214712702386,43.593645904837445,-71.86731635025068,-53.339257944804324,39.16273682370226,10.336697182027715,-21.583434263843042,20.423670307689026
0.21,50.59122112441212,48.213887727576164,47.22510983873835,51.640485326648175,45.200515897657205,47.566317827924564,54.806199461008326,41.164326198764655,44.119346811585324,54.31769173481318,51.13962086431855,47.6204263724113,52.251709651422715,5.630677375353552,-17.010593070703205,-26.427525345349114,15.62366977760169,-45.709372403264716,-23.177925448337504,45.77332820007931,-71.86731635025068,-56.00622084204454,41.12087366488737,10.8535320411291,-22.66260597703519,21.444853823073476
0.22,50.64886853563598,48.03973165566182,46.954542317345485,51.80044194579981,44.73253898971901,47.32902001976301,55.27483115448533,40.445653035262154,43.545949788678676,54.73869115566797,51.25074035902536,47.388404454074994,52.47126410723037,5.898804869418008,-17.820621312165265,-27.68597893322288,16.36765405272558,-47.88600918437256,-24.281636183972623,47.95301049532118,-71.86731635025068,-58.67318373928476,43.079010506072485,11.370366900230486,-23.741777690227345,22.466037338457927
0.23,50.70919722180048,47.85747530133286,46.671390260073885,51.967838407702686,44.242795713969755,47.08068510424511,55.765259670914745,39.72697987175964,42.94588313679963,55.17927194493462,51.36702820232317,47.145590818606756,52.70103039819187,6.166932363482463,-18.630649553627322,-28.94443252109665,17.11163832784947,-50.06264596548041,-25.38534691960774,50.13269279056306,-71.86731635025068,-61.34014663652498,45.037147347257594,11.887201759331871,-24.820949403419498,23.48722085384238
0.24,50.772207182905625,47.667118664589275,46.37565366692355,52.14267471235681,43.73128607040941,46.82131308137085,56.277485010296594,39.00830670825714,42.31914685594818,55.63943410261312,51.48848439421199,46.8919854660066,52.941008524307215,6.435059857546917,-19.44067779508938,-30.202886108970418,17.85562260297336,-52.239282746588245,-26.48905765524286,52.31237508580493,-71.86731635025068,-64.00710953376519,46.99528418844271,12.404036618433256,-25.900121116611647,24.50840436922683
0.25,50.837898418951426,47.46866174543107,46.06733253789447,52.324950859762154,43.19801005903798,46.550903951140256,56.811507172630854,38.28963354475463,41.66747277402581,56.11917762870348,51.615108934691825,46.627588396274525,53.19119848557641,6.703187351611373,-20.250706036551435,-31.461339696844185,18.59960687809725,-54.41591952769609,-27.592768390877982,54.4920573810468,-71.86731635025068,-65.71295633420252,48.953421029627826,12.920871477534643,-26.9792928298038,25.52958788461128
0.26,50.90627092993786,47.26210454385824,45.74642687298666,52.51466684991875,42.64296767985549,46.269457713553294,57.367326157917525,37.570960381252114,41.01034321068379,56.618502523205684,51.746901823762684,46.352399609410526,53.45160028199944,6.971314845675828,-21.060734278013495,-32.71979328471795,19.34359115322114,-56.592556308803935,-28.6964791265131,56.671739676288674,-71.86731635025068,-65.71295633420252,50.911557870812935,13.43770633663603,-28.058464542995953,26.55077139999573
0.27,50.97732471586494,47.0474470598708,45.41293667220012,52.71182268282658,42.06643774616159,45.97697436860999,57.94494196615663,36.85228721774961,40.35321364734176,57.131850256202426,51.883863061424556,46.0664191054146,53.72221391357632,7.2394423397402825,-21.870762519475555,-33.97824687259172,20.08757542834503,-58.42080385840657,-29.800189862148223,58.85142197153055,-71.86731635025068,-65.71295633420252,51.39427191063521,13.954541195737416,-29.137636256188102,27.571954915380186
0.28,51.05105977673267,46.82468929346874,45.06686193553483,52.91641835848565,41.482229707577524,45.673453916310336,58.54435459734814,36.133614054247104,39.696084083999736,57.64579297530879,52.025992647677434,45.76964688428677,54.003039380307044,7.507569833804738,-22.68079076093761,-35.23670046046549,20.83155970346892,-58.42080385840657,-30.90390059778334,61.03110426677242,-71.86731635025068,-65.71295633420252,51.39427191063521,14.471376054838801,-30.21680796938026,28.593138430764636
0.29,51.12747611254103,46.593831244652044,44.708202662990814,53.128453876895954,40.89802166899346,45.35889635665432,59.15816876215872,35.4149408907446,39.03895452065771,58.15973569441513,52.173290582521325,45.462082946027,54.294076682191616,7.7756973278691905,-23.490819002399665,-36.49515404833925,21.575543978592812,-58.42080385840657,-32.00761133341846,61.415270968760645,-71.86731635025068,-65.71295633420252,51.39427191063521,14.988210913940184,-31.295979682572405,29.614321946149087
0.3,51.20657372329005,46.35487291342074,44.33695885456805,53.3479292380575,40.313813630409385,45.03330168964196,59.77232147184633,34.696267727242095,38.381824957315686,58.67367841352149,52.32575686595624,45.14372729063532,54.59532581923003,8.043824821933645,-24.30084724386172,-37.75360763621302,22.3195282537167,-58.42080385840657,-33.11132206905358,61.415270968760645,-71.86731635025068,-65.71295633420252,51.39427191063521,15.505045773041571,-32.37515139576456,30.635505461533537
0.31,51.28835260897971,46.107814299774816,43.95313051026655,53.57484444197029,39.72960559182532,44.696669915273255,60.38647418153394,33.977594563739586,37.72469539397366,59.18762113262784,52.48339149798216,44.814579918111704,54.906786791422284,8.3119523159981,-25.11087548532378,-39.012061224086786,23.06351252884059,-58.42080385840657,-34.2150328046887,61.415270968760645,-71.86731635025068,-65.71295633420252,51.39427191063521,16.021880632142956,-33.45432310895671,31.656688976917987
0.32,51.37281276961001,45.852655403714266,43.55678183637288,53.80919948863432,39.14539755324125,44.34900103354819,61.00062689122154,33.25892140023708,37.06756583063164,59.70156385173419,52.64619447859909,44.47464082845618,55.22845959876839,8.580079810062557,-25.920903726785838,-40.14339232639538,23.80749680396448,-58.42080385840657,-35.318743540323815,61.415270968760645,-71.86731635025068,-65.71295633420252,51.39427191063521,16.538715491244343,-34.53349482214887,32.67787249230244
0.33,51.459954205180956,45.5893962252391,43.15534791310891,54.05099437804958,38.561189514657194,43.99029504446678,61.61477960090916,32.54024823673457,36.410436267289604,60.215506570840546,52.81416580780704,44.123910021668735,55.56034424126834,8.848207304127012,-26.730931968247898,-40.14339232639538,24.55148107908837,-58.42080385840657,-36.422454275958934,61.415270968760645,-71.86731635025068,-65.71295633420252,51.39427191063521,17.05555035034573,-35.61266653534102,33.69905600768689
0.34,51.54977691569255,45.31803676434931,42.75391398984496,54.30022911021609,37.97698147607313,43.62055194802901,62.22893231059676,31.82157507323206,35.75330670394759,60.7294492899469,52.98730548560601,43.76238749774936,55.90244071892213,9.116334798191467,-27.540960209709958,-40.14339232639538,25.29546535421226,-58.42080385840657,-37.52616501159405,61.415270968760645,-71.86731635025068,-65.71295633420252,51.39427191063521,17.572385209447116,-36.691838248533166,34.72023952307134
0.35,51.64228090114478,45.038577021044894,42.35248006658101,54.556903685133825,37.39277343748906,43.2397717442349,62.84308502028436,31.103553631574474,35.09617714060556,61.243392009053245,53.165613511995986,43.39007325669807,56.25474903172976,9.38446229225592,-28.35098845117201,-40.14339232639538,26.03944962933615,-58.42080385840657,-38.62987574722917,61.415270968760645,-71.1338196921737,-65.71295633420252,51.39427191063521,18.0892200685485,-37.77100996172532,35.74142303845579
0.36,51.73746616153767,44.75101699532587,41.95104614331706,54.82101810280281,36.808565398904996,42.84824632290239,63.45723772997198,30.41285373884682,34.43904757726354,61.75733472815959,53.34908988697698,43.00696729851485,56.61726917969124,9.652589786320375,-29.161016692634067,-40.14339232639538,26.78343390446004,-58.42080385840657,-39.479751132406456,61.415270968760645,-67.00615885335719,-65.71295633420252,51.39427191063521,18.606054927649886,-38.85018167491747,36.76260655384024
0.37,51.83533269687119,44.455356687192214,41.5496122200531,55.09257236322303,36.22435736032093,42.453448811578326,64.07139043965958,29.76343045450733,33.78191801392151,62.27127744726595,53.53773461054898,42.61686408168844,56.98981938752238,9.920717280384832,-29.971044934096124,-40.14339232639538,27.52741817958393,-58.42080385840657,-39.479751132406456,61.415270968760645,-62.87849801454066,-65.71295633420252,51.39427191063521,19.12288978675127,-39.02438131473782,37.591111101137386
0.38,51.93586240267044,44.15159609664395,41.14817829678914,55.37156646639448,35.640149321736864,42.058651300254255,64.68554314934718,29.155283778556004,33.12478845057949,62.78522016637231,53.731547682712005,42.22662026854107,57.36573049853376,10.157686123982394,-30.781073175558184,-40.14339232639538,28.27140245470782,-58.42080385840657,-39.479751132406456,61.415270968760645,-58.75083717572413,-65.71295633420252,51.39427191063521,19.639724645852656,-39.02438131473782,37.591111101137386
0.39,52.03743926391026,43.83973522368105,40.74674437352519,55.658000412317186,35.055941283152805,41.6638537889302,65.29969585903478,28.588413710992842,32.467658887237455,63.29916288547865,53.93052910346604,41.83637645539368,57.741641609545134,10.157686123982394,-31.59110141702024,-40.14339232639538,29.01538672983171,-58.42080385840657,-39.479751132406456,61.415270968760645,-54.6231763369076,-65.71295633420252,51.39427191063521,20.156559504954043,-39.02438131473782,37.591111101137386
0.4,52.13901612515008,43.51977406830353,40.34531045026124,55.95187420099113,34.47173324456874,41.26905627760613,65.91384856872239,28.06282025181785,31.81052932389543,63.81310560458501,54.13467887281108,41.44613264224631,58.1175527205565,10.157686123982394,-32.4011296584823,-40.14339232639538,29.7593710049556,-58.42080385840657,-39.479751132406456,61.415270968760645,-50.49551549809108,-65.71295633420252,51.39427191063521,20.67339436405543,-39.02438131473782,37.591111101137386
0.41,52.240592986389906,43.19171263051141,39.943876526997286,56.253187832416295,33.88752520598467,40.874258766282075,66.52800127841,27.578503401031025,31.153399760553413,64.32704832369136,54.343996990747144,41.05588882909893,58.49346383156788,10.157686123982394,-33.211157899944354,-40.14339232639538,30.50335528007949,-58.42080385840657,-39.479751132406456,61.415270968760645,-46.36785465927457,-65.71295633420252,51.39427191063521,21.190229223156816,-39.02438131473782,37.591111101137386
0.42,52.342169847629734,42.85555091030465,39.54244260373333,56.56194130659271,33.30331716740061,40.47946125495801,67.1421539880976,27.135463158632362,30.496270197211384,64.84099104279771,54.55848345727422,40.665645015951554,58.869374942579256,10.157686123982394,-34.02118614140641,-40.14339232639538,31.24733955520338,-58.42080385840657,-39.479751132406456,61.415270968760645,-42.24019382045805,-65.71295633420252,51.39427191063521,21.7070640822582,-39.02438131473782,37.591111101137386
0.43,52.443746708869554,42.51128890768329,39.141008680469376,56.87813462352036,32.71910912881654,40.08466374363394,67.75630669778522,26.733699524621862,29.839140633869363,65.35493376190406,54.77813827239231,40.27540120280418,59.24528605359062,10.157686123982394,-34.83121438286847,-40.14339232639538,31.99132383032727,-58.42080385840657,-39.479751132406456,61.415270968760645,-38.11253298164153,-65.71295633420252,51.39427191063521,22.223898941359586,-39.02438131473782,37.591111101137386
0.44,52.545323570109375,42.158926622647286,38.739574757205425,57.20176778319926,32.134901090232475,39.689866232309875,68.37045940747282,26.373212498999532,29.18201107052733,65.86887648101042,55.002961436101415,39.8851573896568,59.621197164601995,10.157686123982394,-35.64124262433053,-40.14339232639538,32.73530810545116,-58.42080385840657,-39.479751132406456,61.415270968760645,-33.984872142825,-65.71295633420252,51.39427191063521,22.740733800460973,-39.02438131473782,37.591111101137386
0.45,52.6469004313492,41.79846405519667,38.338140833941466,57.53284078562939,31.550693051648405,39.29506872098581,68.98461211716042,26.054002081765365,28.524881507185306,66.38281920011677,55.23261565722618,39.49491357650942,59.99710827561337,10.157686123982394,-36.45127086579259,-40.14339232639538,33.47929238057505,-58.42080385840657,-39.479751132406456,61.415270968760645,-29.857211304008473,-65.71295633420252,51.39427191063521,23.07084756429376,-39.02438131473782,37.591111101137386
0.46,52.74847729258903,41.42990120533143,37.936706910677515,57.87135363081076,30.96648501306434,38.900271209661746,69.59876482684803,25.77606827291936,27.86775194384328,66.89676191922312,55.46332413286912,39.10466976336204,60.37301938662475,10.157686123982394,-37.261299107254644,-40.14339232639538,34.22327665569894,-58.42080385840657,-39.479751132406456,61.415270968760645,-25.72955046519194,-65.71295633420252,51.39427191063521,23.07084756429376,-39.02438131473782,37.591111101137386
0.47,52.85005415382885,41.053238073051574,37.53527298741356,58.21730631874337,30.382276974480277,38.50547369833768,70.21291753653564,25.539411072461526,27.210622380501256,67.41070463832948,55.69403260851205,38.71442595021466,60.748930497636124,10.157686123982394,-38.0713273487167,-40.14339232639538,34.96726093082283,-58.42080385840657,-39.479751132406456,61.415270968760645,-21.601889626375442,-65.71295633420252,51.39427191063521,23.07084756429376,-39.02438131473782,37.591111101137386
0.48,52.95163101506867,40.6684746583571,37.133839064149605,58.57069884942722,29.79806893589621,38.11067618701362,70.82707024622324,25.34403048039185,26.553492817159235,67.92464735743582,55.92474108415499,38.32418213706728,61.1248416086475,10.157686123982394,-38.88135559017876,-40.14339232639538,35.71124520594672,-58.42080385840657,-39.479751132406456,61.415270968760645,-17.474228787558914,-65.71295633420252,51.39427191063521,23.07084756429376,-39.02438131473782,37.591111101137386
0.49,53.0532078763085,40.276589662970004,36.73240514088565,58.931531222862304,29.213860897312145,37.71587867568955,71.44122295591086,25.189926496710346,25.896363253817206,68.43859007654218,56.15544955979793,37.93393832391991,61.50075271965887,10.157686123982394,-39.29319391846044,-40.14339232639538,36.45522948107061,-58.42080385840657,-39.479751132406456,61.415270968760645,-13.34656794874239,-65.71295633420252,51.39427191063521,23.07084756429376,-39.02438131473782,37.591111101137386
0.5,53.15478473754832,39.883657723785404,36.3309712176217,59.29826555121632,28.62965285872808,37.32108116436549,72.05537566559846,25.077099121417003,25.246161002081124,68.95253279564852,56.386158035440864,37.54369451077253,61.87666383067024,10.157686123982394,-39.29319391846044,-40.14339232639538,36.7208489656555,-58.42080385840657,-39.479751132406456,61.415270968760645,-9.218907109925862,-63.790724140596744,51.39427191063521,23.07084756429376,-39.02438131473782,37.591111101137386
0.51,53.256361598788146,39.490725784600805,35.92953729435774,59.66547404087288,28.045444820144013,36.92628365304142,72.66952837528606,25.005548354511827,24.621588575161358,69.46647551475488,56.6168665110838,37.153450697625146,62.252574941681615,10.157686123982394,-39.29319391846044,-40.14339232639538,36.7208489656555,-58.42080385840657,-39.479751132406456,61.415270968760645,-5.091246271109337,-61.123761243356526,51.39427191063521,23.07084756429376,-39.02438131473782,37.591111101137386
0.52,53.35793846002797,39.0977938454162,35.52810337109379,60.03268253052944,27.461236781559947,36.53148614171736,73.28368108497368,24.975274195994814,24.02368577721399,69.98041823386124,56.84757498672674,36.76320688447777,62.628486052692985,10.157686123982394,-39.29319391846044,-40.14339232639538,36.7208489656555,-58.42080385840657,-39.479751132406456,61.415270968760645,-0.9635854322928099,-58.45679834611631,51.39427191063521,23.07084756429376,-39.02438131473782,37.591111101137386
0.53,53.4595153212678,38.704861906231585,35.12666944782983,60.39989102018599,26.87702874297588,36.136688630393294,73.89783379466128,24.97734374818328,23.452452608239028,70.4918446051197,57.07828346236968,36.37296307133039,63.00439716370436,10.157686123982394,-39.29319391846044,-40.14339232639538,36.7208489656555,-58.42080385840657,-39.479751132406456,61.415270968760645,0.8334121191702736,-55.78983544887609,50.40156314909463,23.07084756429376,-39.02438131473782,37.591111101137386
0.54,53.561092182507615,38.311929967046986,34.72523552456588,60.76709950984254,26.293935957590527,35.74189111906923,74.5119865043489,24.991113963849532,22.907889068236468,70.98606955240471,57.30899193801262,35.98271925818302,63.38030827471574,10.157686123982394,-39.29319391846044,-40.14339232639538,36.7208489656555,-57.72402539539613,-39.479751132406456,61.415270968760645,1.9206310140807812,-53.122872551635865,48.44342630790951,23.07084756429376,-39.02438131473782,37.591111101137386
0.55,53.66266904374744,37.918998027862386,34.32380160130193,61.1343079994991,25.7275788875421,35.347093607745165,75.1261392140365,25.01575636846489,22.38999515720631,71.46071313127788,57.53970041365555,35.59247544503563,63.75621938572711,10.157686123982394,-39.29319391846044,-40.14339232639538,36.7208489656555,-55.54738861428829,-39.479751132406456,61.415270968760645,3.007849908991289,-50.45590965439565,46.485289466724396,23.07084756429376,-39.02438131473782,37.591111101137386
0.56,53.76424590498726,37.52606608867777,33.92236767803798,61.501516489155655,25.182988185304758,34.9522960964211,75.7402919237241,25.051270962029356,21.898770875148557,71.9157753417392,57.770408889298494,35.20223163188825,64.13213049673848,10.157686123982394,-39.29319391846044,-40.14339232639538,36.7208489656555,-53.37075183318044,-39.479751132406456,61.415270968760645,4.095068803901796,-47.78894675715543,44.52715262553928,23.07084756429376,-39.02438131473782,37.591111101137386
0.57,53.86582276622708,37.13313414949317,33.52093375477403,61.8687249788122,24.6601638508785,34.557498585097036,76.34987537646718,25.09765774454293,21.434216222063206,72.35125618378866,58.00111736494142,34.81198781874088,64.50804160774986,10.157686123982394,-39.29319391846044,-40.14339232639538,36.7208489656555,-51.194115052072625,-39.479751132406456,60.00392207749518,5.182287698812292,-45.12198385991524,42.56901578435419,23.07084756429376,-39.02438131473782,37.591111101137386
0.58,53.96739962746691,36.740202210308574,33.11949983151007,62.235933468468765,24.15910588426331,34.16270107377297,76.93901618576594,25.1549167160056,20.996331197950255,72.76715565742629,58.231825840584364,34.4217440055935,64.88395271876124,10.157686123982394,-39.29319391846044,-40.14339232639538,36.7208489656555,-49.01747827096478,-39.479751132406456,57.824239782253315,6.2695065937228,-42.45502096267502,40.61087894316907,23.07084756429376,-39.02438131473782,37.591111101137386
0.59,54.06897648870674,36.34727027112396,32.71806590824612,62.60314195812532,23.6798142854592,33.76790356244891,77.50636017211225,25.223047876417386,20.585115802809703,73.16347376265205,58.462534316227305,34.031500192446124,65.2598638297726,10.157686123982394,-39.29319391846044,-40.14339232639538,36.7208489656555,-46.84084148985693,-39.479751132406456,55.64455748701143,7.356725488633307,-39.788058065434804,38.65274210198396,23.07084756429376,-39.02438131473782,37.591111101137386
0.6,54.17055334994656,35.954338331939354,32.316631984982166,62.97035044778187,23.222289054466174,33.37310605112484,78.05190733550616,25.30205122577827,20.200570036641558,73.54021049946596,58.69324279187023,33.641256379298746,65.63577494078399,10.157686123982394,-39.29319391846044,-40.14339232639538,36.7208489656555,-44.66420470874908,-39.479751132406456,53.464875191769565,8.443944383543815,-37.121095168194586,36.694605260798845,23.07084756429376,-39.02438131473782,37.591111101137386
0.61,54.272130211186386,35.561406392754755,31.915198061718208,63.33755893743842,22.78653019128422,32.97830853980078,78.57565767594764,25.391926764088257,19.842693899445813,73.89736586786803,58.923951267513175,33.25101256615137,66.01168605179535,10.157686123982394,-39.29319391846044,-40.14339232639538,36.7208489656555,-42.48756792764124,-39.479751132406456,51.28519289652769,9.531163278454322,-34.454132270954375,34.73646841961373,23.07084756429376,-39.02438131473782,37.591111101137386
0.62,54.37370707242621,35.168474453570155,31.513764138454253,63.70476742709498,22.372537695913348,32.583511028476714,79.07761119343671,25.49267449134736,19.51148739122247,74.23493986785824,59.15465974315612,32.86076875300399,66.38759716280673,10.157686123982394,-39.29319391846044,-40.14339232639538,36.7208489656555,-40.31093114653339,-39.479751132406456,49.105510601285815,10.618382173364832,-31.78716937371415,32.77833157842862,23.07084756429376,-39.02438131473782,37.591111101137386
0.63,54.475283933666034,34.77554251438555,31.112330215190305,64.07197591675154,21.98031156835355,32.18871351715265,79.55776788797337,25.604294407555557,19.20695051197153,74.5529324994366,59.38536821879905,32.47052493985661,66.7635082738181,10.157686123982394,-39.29319391846044,-40.14339232639538,36.7208489656555,-38.134294365425546,-39.479751132406456,46.92582830604394,11.705601068275339,-29.120206476473932,30.820194737243497,23.07084756429376,-39.02438131473782,37.591111101137386
0.64,54.576860794905855,34.38261057520094,30.711153117072577,64.43918440640809,21.609851808604837,31.793916005828585,80.01612775955759,25.726786512712863,18.92908326169299,74.85134376260311,59.616076694441986,32.08028112670923,67.13941938482948,10.157686123982394,-39.29319391846044,-39.889147355265045,36.7208489656555,-35.9576575843177,-39.479751132406456,44.74614601080207,12.792819963185845,-26.453243579233714,28.862057896058385,23.07084756429376,-39.02438131473782,37.591111101137386
0.65,54.678437656145675,33.989678636016336,30.318553911459293,64.80639289606465,21.2611584166672,31.399118494504517,80.4526908081894,25.860150806819277,18.677885640386855,75.13017365735776,59.84678517008493,31.690037313561852,67.51533049584086,10.157686123982394,-39.29319391846044,-38.63069376739128,36.7208489656555,-33.781020803209856,-39.479751132406456,42.56646371556019,13.880038858096354,-23.786280681993492,26.903921054873273,23.07084756429376,-39.02438131473782,37.591111101137386
0.66,54.78001451738551,33.59674669683173,29.938539241724747,65.1736013857212,20.93423139254064,31.004320983180456,80.86745703386879,26.004387289874792,18.45335764805312,75.38942218370057,60.07749364572787,31.29979350041448,67.89124160685222,10.157686123982394,-39.29319391846044,-37.372240179517505,36.7208489656555,-31.60438402210201,-39.479751132406456,40.38678142031832,14.96725775300686,-21.119317784753278,24.945784213688157,23.07084756429376,-39.02438131473782,37.591111101137386
0.67,54.88159137862533,33.20381475764713,29.571109107868942,65.54080987537776,20.62907073622516,30.609523471856388,81.26042643659576,26.159495961879408,18.255499284691787,75.62908934163154,60.3082021213708,30.9095496872671,68.2671527178636,10.157686123982394,-39.29319391846044,-36.11378659164374,36.7208489656555,-29.42774724099417,-39.479751132406456,38.20709912507644,16.05447664791737,-18.45235488751306,22.98764737250304,23.07084756429376,-39.02438131473782,37.591111101137386
0.68,54.98316823986515,32.810882818462524,29.216263509891874,65.90801836503431,20.345676447720756,30.214725960532327,81.63159901637033,26.32547682283314,18.084310550302856,75.84917513115063,60.53891059701374,30.519305874119716,68.64306382887497,10.157686123982394,-39.29319391846044,-34.85533300376997,36.7208489656555,-27.251110459886323,-39.479751132406456,36.02741682983457,17.141695542827875,-15.785391990272839,21.02951053131793,23.07084756429376,-39.02438131473782,37.591111101137386
0.69,55.08474510110497,32.417950879277925,28.874002447793547,66.27522685469087,20.084048527027434,29.819928449208263,81.98097477319246,26.502329872735967,17.939791444886332,76.0496795522579,60.76961907265668,30.129062060972345,69.01897493988633,10.157686123982394,-39.29319391846044,-33.59687941589622,36.7208489656555,-25.0744736787785,-39.479751132406456,33.847734534592725,18.22891443773837,-13.11842909303265,19.071373690132837,23.07084756429376,-39.02438131473782,37.591111101137386
0.7,55.186321962344806,32.02501894009332,28.54432592157395,66.64243534434742,19.84418697414519,29.425130937884195,82.30855370706217,26.690055111587906,17.821941968442207,76.2306026049533,61.00032754829961,29.738818247824966,69.39488605089771,10.157686123982394,-39.29319391846044,-32.338425828022444,36.7208489656555,-22.897836897670654,-39.479751132406456,31.668052239350846,19.31613333264888,-10.451466195792433,17.113236848947718,23.07084756429376,-39.02438131473782,37.591111101137386
0.71,55.28789882358463,31.632087000908715,28.227233931233094,67.00964383400398,19.626091789074017,29.030333426560134,82.61433581797948,26.888652539388946,17.730762120970486,76.39194428923685,61.23103602394255,29.348574434677587,69.77079716190909,10.157686123982394,-39.29319391846044,-31.079972240148678,36.7208489656555,-20.72120011656281,-39.479751132406456,29.488369944108975,20.403352227559385,-7.784503298552213,15.155100007762606,23.07084756429376,-39.02438131473782,37.591111101137386
0.72,55.38947568482445,31.239155061724105,27.922726476770976,67.37685232366053,19.42976297181393,28.636703474507925,82.89832110594436,27.098122156139095,17.666251902471164,76.53370460510855,61.46174449958549,28.958330621530212,70.14670827292046,10.157686123982394,-39.29319391846044,-29.82151865227491,36.7208489656555,-18.544563335454963,-38.97208043149077,27.3086876488671,21.490571122469895,-5.117540401311995,13.196963166577492,23.07084756429376,-39.02438131473782,37.591111101137386
0.73,55.491052546064275,30.846223122539502,27.630803558187594,67.74406081331709,19.25520052236492,28.252501223871192,83.16050957095682,27.318463961838344,17.62841131294424,76.6558835525684,61.69245297522843,28.570561059436255,70.52261938393184,10.157686123982394,-39.29319391846044,-28.563065064401144,36.7208489656555,-16.367926554347118,-37.86836969585564,25.129005353625224,22.5777900173804,-2.4505775040717763,11.238826325392376,23.07084756429376,-38.29360888118639,37.591111101137386
0.74,55.592629407304095,30.4532911833549,27.351465175482957,68.11126930297364,19.102404440726993,27.87933608059081,83.40090121301687,27.549677956486704,17.617174873181064,76.75848113161639,61.92316145087137,28.193020829190353,70.89780339380647,10.157686123982394,-39.29319391846044,-27.304611476527374,36.7208489656555,-14.191289773239271,-36.76465896022052,22.94932305838335,23.66500891229091,0.05497836148519355,9.280689484207262,23.07084756429376,-37.214437167994234,37.205753164962765
0.75,55.69420626854392,30.060359244170293,27.08471132865705,68.4784777926302,18.971374726900137,27.51720804466678,83.61949603212449,27.79176414008416,17.621112714743937,76.84149734225254,62.153869926514304,27.82627231607637,71.26475500787917,10.157686123982394,-39.29319391846044,-26.046157888653607,36.7208489656555,-12.014652992131428,-35.660948224585404,20.769640763141478,24.752227807201418,0.7325899510897357,7.322552643022147,23.07084756429376,-36.13526545480208,36.184569649578314
0.76,55.79571071188402,29.667427304985694,26.83054201770988,68.84568628228675,18.86211138088436,27.166117116099105,83.81629402827969,28.04472251263073,17.631826672202855,76.90493218447685,62.38457840215724,27.47031552009431,71.62149478679804,10.095368823048613,-39.29319391846044,-24.787704300779836,36.7208489656555,-9.838016211023582,-34.55723748895028,18.589958467899603,25.839446702111925,1.410201540694278,5.364415801837032,23.07084756429376,-35.05609374160993,35.163386134193864
0.77,55.89532376264418,29.274495365801087,26.58895724264145,69.21289477194331,18.774614402679664,26.826063294887778,83.99129520148247,28.3085530741264,17.649316745557822,76.94878565828928,62.61528687780017,27.125150441244173,71.96802273056305,9.827241328984158,-39.29319391846044,-23.52925071290607,36.7208489656555,-7.661379429915735,-33.45352675331517,16.410276172657728,26.926665597022435,2.08781313029882,3.406278960651917,23.07084756429376,-33.976922028417775,34.14220261880941
0.78,55.9922555384637,28.88156342661648,26.35995700345176,69.58010326159986,18.70888379228604,26.4970465810328,84.14449955173285,28.58325582457118,17.67358293480883,76.97305776368987,62.845995353443115,26.790777079525952,72.30433883917422,9.559113834919703,-39.29319391846044,-22.2707971250323,36.7208489656555,-5.48474264880789,-32.34981601768005,14.230593877415854,28.01388449193294,2.7654247199033626,1.4481421194668023,23.07084756429376,-32.89775031522562,33.121019103424956
0.79,56.086506039342574,28.488631487431878,26.143541300140807,69.94731175125642,18.664919549703505,26.179066974534177,84.2759070790308,28.86883076396506,17.70462523995589,76.97838771030435,63.07670382908606,26.46719543493966,72.63044311263155,9.290986340855246,-39.29319391846044,-21.012343537158532,36.7208489656555,-3.3081058677000446,-31.246105282044926,12.050911582173981,29.101103386843448,3.4430363095079044,-0.01914261519598562,23.07084756429376,-31.81857860203347,32.099835588040506
0.8,56.17807526528081,28.095699548247268,25.939710132708587,70.31452024091297,18.64272167493204,25.8721244753919,84.38551778337633,29.165277892308048,17.74244366099899,76.97782879152494,63.307412304728985,26.154405507485283,72.94633555093503,9.022858846790792,-39.29319391846044,-19.753889949284765,36.7208489656555,-1.131469086592199,-30.142394546409804,9.871229286932106,30.188322281753955,4.1206478991124476,-0.09264114068188872,23.07084756429376,-30.739406888841312,31.078652072656052
0.81,56.26696321627839,27.70276760906267,25.74846350115511,70.68172873056953,18.63997343026474,25.576219083605977,84.47333166476945,29.47259720960014,17.787038197938138,76.9765348874907,63.538120780371926,25.852407297162834,73.25201615408467,8.754731352726337,-39.29319391846044,-18.495436361410995,36.7208489656555,0.08021316491732894,-29.038683810774685,7.691546991690232,31.275541176664465,4.7982594887169885,-0.16613966616779183,23.07084756429376,-29.660235175649166,30.057468557271594
0.82,56.35316989233534,27.309835669878062,25.56980140548037,71.04893722022608,18.641610810295607,25.291350799176406,84.53934872321013,29.790788715841334,17.83840885077333,76.97450599820158,63.76882925601487,25.5612008039723,73.54748492208046,8.486603858661885,-39.29319391846044,-17.23698277353724,36.7208489656555,0.24726284125566703,-27.934973075139578,5.511864696448383,32.36276007157496,5.475871078321524,-0.2396381916536941,23.07084756429376,-28.581063462457024,29.036285041887158
0.83,56.43669529345163,26.91690373069346,25.403723845684368,71.41614570988263,18.644918687089852,25.017519622103187,84.58356895869841,30.119852411031637,17.896555619504568,76.97174212365762,63.9995377316578,25.280786027913695,73.8327418549224,8.21847636459743,-39.29319391846044,-15.978529185663472,36.7208489656555,0.4143125175940069,-26.831262339504455,3.332182401206508,33.44997896648547,6.153482667926066,-0.31313671713959723,23.07084756429376,-27.501891749264868,28.015101526502708
0.84,56.51753941962728,26.523971791508853,25.2502308217671,71.78335419953919,18.649897060647486,24.754725552386322,84.60599237123425,30.459788295171045,17.96147850413185,76.9682432638588,64.23024620730074,25.01116296898701,74.10778695261052,7.950348870532975,-39.29319391846044,-14.720075597789704,36.7208489656555,0.5813621939323469,-25.727551603869333,1.1525001059646343,34.537197861395974,6.831094257530609,-0.3866352426255003,23.07084756429376,-26.422720036072718,26.993918011118254
0.85,56.59570227086229,26.13103985232425,25.109322333728574,72.15056268919574,18.656545930968502,24.5029685900258,84.60275625195597,30.81059636825956,18.03317750465518,76.9640094188051,64.46095468294368,24.75233162719224,74.37262021514478,7.68222137646852,-39.29319391846044,-13.461622009915933,36.7208489656555,0.7484118702706868,-24.623840868234215,-2.6665171009366304,35.62441675630648,7.5087058471351495,-0.46013376811140344,23.07084756429376,-25.343548322880565,25.9727344957338
0.86,56.67118384715665,25.738107913139643,24.98099838156878,72.5177711788523,18.6648652980529,24.262248735021636,84.54779931257512,31.172276630297176,18.111652621074555,76.95904058849656,64.69166315858662,24.504292002529393,74.62724164252519,7.414093882404065,-39.29319391846044,-12.203168422042166,36.7208489656555,0.9154615466090267,-23.520130132599093,-8.324870775235535,36.711635651216994,8.186317436739692,-0.5336322935973066,23.07084756429376,-24.264376609688412,24.95155098034935
0.87,56.74398414851037,25.34517597395504,24.865258965287726,72.88497966850886,18.67485516190068,24.03256598737382,84.43625883645126,31.5448290812839,18.196903853389976,76.95333677293317,64.92237163422956,24.26704409499847,74.87165123475177,7.14596638833961,-39.29319391846044,-10.944714834168398,36.7208489656555,1.0825112229473666,-22.416419396963974,-13.983224449534438,37.7988545461275,8.863929026344234,-0.6071308190832096,23.07084756429376,-23.18520489649626,23.930367464964895
0.88,56.814103174923446,24.952244034770438,24.762104084885415,73.25218815816541,18.686515522511847,23.813920347082355,84.26813482358442,31.928253721219725,18.28893120160144,76.9468979721149,65.15308010987249,24.04058790459947,75.1058489918245,6.877838894275155,-39.29319391846044,-9.68626124629463,36.7208489656555,1.2495608992857066,-21.312708661328855,-19.641578123833344,38.886073441038,9.541540615948778,-0.6806293445691127,23.07084756429376,-22.106033183304103,22.909183949580445
0.89,56.88154092639587,24.559312095585828,24.671533740361838,73.61939664782196,18.699846379886395,23.606311814147244,84.0434272739746,32.32255055010466,18.387734665708948,76.93972418604179,65.38378858551543,23.824923431332387,75.32983491374337,6.609711400210699,-39.29319391846044,-8.42780765842086,36.7208489656555,1.4166105756240464,-20.208997925693733,-25.299931798132246,39.973292335948514,10.219152205553318,-0.7541278700550158,23.07084756429376,-21.026861470111953,21.88800043419599
0.9,56.946297402927655,24.16638015640123,24.593547931716994,73.98660513747852,18.714847734024325,23.40974038856848,83.76213618762178,32.7277195679387,18.493314245712508,76.9318154147138,65.61314789645695,23.62005067519723,75.54360900050841,6.341583906146244,-39.29319391846044,-7.169354070547091,36.7208489656555,1.5836602519623861,-19.105287190058615,-30.95828547243115,41.06051123085902,10.896763795157861,-0.827626395540919,22.69740537375656,-19.947689756919797,20.86681691881154
0.91,57.008372604518804,23.773448217216618,24.528146658950895,74.35381362713507,18.731519584925643,23.22420607034607,83.42426156452596,33.14376077472184,18.605669941612106,76.92317165813095,65.837537775899,23.425969636193994,75.7471712521196,6.073456412081789,-39.29319391846044,-5.910900482673323,36.7208489656555,1.7507099283007261,-18.001576454423493,-36.61663914673005,42.14773012576953,11.574375384762403,-0.901124921026822,22.18057051465517,-18.868518043727647,19.845633403427087
0.92,57.0677665311693,23.380516278032015,24.47532992206353,74.72102211679163,18.749861932590342,23.04970885948001,83.02980340468717,33.57067417045409,18.724801753407757,76.91379291629326,66.05675930675004,23.242680314322676,75.94052166857696,5.8053289180173335,-39.29319391846044,-4.652446894799555,36.7208489656555,1.9177596046390664,-16.89786571878837,-42.27499282102896,43.23494902068004,12.251986974366947,-0.9746234465127251,21.663735655553786,-17.789346330535494,18.824449888042636
0.93,57.12447918287914,22.987584338847412,24.435097721054905,75.08823060644819,18.769874777018423,22.886248755970307,82.5787617081054,34.00844174278845,18.850709681099445,76.9036791892007,66.27081248901008,23.070182709583285,76.12366024988046,5.537201423952879,-39.29319391846044,-3.3939933069257866,36.7208489656555,2.084809280977406,-15.794154983153254,-47.93334649532786,44.25958458875397,12.929598563971489,-1.0481219719986283,21.146900796452396,-16.71017461734334,17.803266372658182
0.94,57.17851055964835,22.594652399662813,24.40745005592501,75.45543909610474,18.79155811820989,22.733825759816945,82.07113647478063,34.45103758867599,18.983393724687183,76.89283047685329,66.47969732267909,22.90847682197581,76.29658699603011,5.269073929888427,-39.29319391846044,-2.1355397190520318,36.7208489656555,2.251858957315744,-14.690444247518146,-53.591700169626705,44.25958458875397,13.607210153576021,-1.1216204974845305,20.63006593735102,-15.6310029041512,16.782082857273743
0.95,57.22986066147691,22.201720460478214,24.392386926673865,75.8226475857613,18.81491195616474,22.59243987101994,81.50692770471285,34.893633434563526,19.122853884170965,76.88124677925103,66.68341380775709,22.75756265150026,76.45930190702593,5.0009464358239715,-39.29319391846044,-0.8770861311782632,36.7208489656555,2.418908633654084,-13.586733511883025,-59.250053843925606,44.25958458875397,14.284821743180565,-1.1951190229704336,20.113231078249633,-14.551831190959046,15.76089934188929
0.96,57.27852948836483,21.808788521293607,24.38916225497258,76.18985607541785,18.83993629088297,22.462091089579285,80.88613539790211,35.336229280451064,19.269090159550796,76.86892809639389,66.88196194424408,22.61744019815663,76.6118049828679,4.732818941759517,-39.29319391846044,-0.11102114821469554,36.7208489656555,2.585958309992424,-12.483022776247905,-64.90840751822451,44.25958458875397,14.962433332785107,-1.268617548456337,19.596396219148247,-13.472659477766893,14.73971582650484
0.97,57.3245170403121,21.415856582109,24.386220280451294,76.5570645650744,18.866631122364588,22.34277941549498,80.20875955434836,35.77882512633861,19.42210255082667,76.8558744282819,67.07534173214006,22.488109461944923,76.75409622355603,4.464691447695062,-39.29319391846044,-0.4773737560414337,36.7208489656555,2.753007986330764,-11.379312040612783,-70.56676119252342,44.25958458875397,15.640044922389649,-1.34211607394224,19.07956136004686,-12.393487764574742,13.718532311120386
0.98,57.36782331731874,21.02683944981242,24.37961477985175,76.92427305473096,18.894996450609586,22.234504848767028,79.47480017405164,36.22142097222615,19.581891057998586,76.84208577491505,67.26355317144503,22.369570442865136,76.88617562909032,4.196563953630606,-38.496814092099676,-0.8437263638681718,36.7208489656555,2.920057662669104,-10.275601304977664,-76.22511486682231,44.25958458875397,16.31765651199419,-1.415614599428143,18.562726500945473,-11.314316051382589,12.697348795735934
0.99,57.40844831938472,20.64592145009874,24.369345753173935,77.29117736749348,18.92503227561797,22.13726738939543,78.68425725701192,36.66401681811369,19.748455681066552,76.82756213629332,67.44659626215898,22.261823140917272,77.00804319947075,3.928436459566151,-37.68678585063762,-1.21007897169491,36.508103659701405,3.087107339007444,-9.171890569342544,-81.88346854112122,44.25958458875397,16.995268101598732,-1.4891131249140461,18.04589164184409,-10.235144338190436,11.676165280351482
1.0,57.446392046510056,20.27310373279967,24.35541320041785,77.65253848271486,18.956738597389734,22.05106703738018,77.83713080322921,37.10661266400123,19.921796420030564,76.81230351241675,67.6244710042819,22.164867556101328,77.11969893469734,3.6603089655016956,-36.87675760917556,-1.5764315795216481,35.76411938457752,3.254157015345784,-8.068179833707424,-87.54182221542013,44.25958458875397,17.672879691203274,-1.5626116503999492,17.529056782742703,-9.155972624998281,10.65498176496703
1.01,57.48165449869475,19.90838629791522,24.337817121583498,78.00645975518502,18.990115415924883,21.97590379272128,76.93342081270352,37.54920850988877,20.10191327489062,76.79630990328533,67.79717739781383,22.078703688417306,77.22114283477009,3.3921814714372407,-36.0667293677135,-1.9427841873483862,35.020135109453626,3.421206691684123,-6.964469098072304,-93.20017588971903,44.25958458875397,18.35049128080782,-1.6361101758858523,17.012221923641317,-8.076800911806128,9.633798249582577
1.02,57.5142356759388,19.551769145445398,24.316557516670883,78.35294118490394,19.02516273122342,21.911777655418735,75.98806644893564,37.99180435577631,20.288806245646718,76.77958130889905,67.96471544275474,22.0033315378652,77.31237489968899,3.124053977372786,-35.25670112625144,-2.3091367951751245,34.27615083432974,3.588256368022463,-5.860758362437183,-94.74681287422054,44.25958458875397,19.02810287041236,-1.7096087013717554,16.49538706453993,-6.997629198613976,8.612614734198125
1.03,57.54413557824221,19.20325227539019,24.29163438568,78.69198277187161,19.061880543285337,21.858688625472535,75.04059832019344,38.43440020166385,20.482475332298865,76.7621177292579,68.12708513910462,21.938751104445025,77.39339512945405,2.8559264833083304,-34.446672884789386,-2.6754894030018628,33.53216655920585,3.755306044360803,-4.757047626802064,-94.74681287422054,44.25958458875397,19.705714460016903,-1.7831072268576587,15.978552205438543,-5.918457485421823,7.591431218813673
1.04,57.57135420560497,18.86283568774961,24.263047728610847,79.02358451608805,19.100268852110634,21.81663670288269,74.09313019145122,38.87699604755139,20.682920534847057,76.74391916436188,68.28428648686351,21.88496238815677,77.46420352406527,2.587798989243875,-33.63664464332733,-3.0418420108286006,32.788182284081955,3.922355720699143,-3.6533368911669437,-94.74681287422054,44.25958458875397,20.383326049621445,-1.8566057523435617,15.461717346337156,-4.83928577222967,6.570247703429222
1.05,57.595891558027084,18.530519382523643,24.230797545463425,79.34774641755325,19.140327657699316,21.785621887649196,73.14566206270904,39.319591893438925,20.890141853291293,76.72498561421102,68.43631948603137,21.84196538900043,77.52480008352263,2.31967149517942,-32.826616401865266,-3.4081946186553393,32.04419800895806,4.089405397037483,-2.549626155531823,-94.74681287422054,44.25958458875397,21.060937639225987,-1.9301042778294648,14.94488248723577,-3.7601140590375173,5.5490641880447695
1.06,57.61774763550856,18.2063033597123,24.19488383623774,79.66446847626722,19.182056960051387,21.765644179772057,72.19819393396682,39.76218773932647,21.104139287631575,76.7053170788053,68.58318413660822,21.809760106976015,77.57518480782616,2.051544001114965,-32.01658816040321,-3.774547226482077,31.300213733834173,4.2564550733758235,-1.4459154198967028,-94.74681287422054,44.25958458875397,21.73854922883053,-2.003602803315368,14.428047628134383,-2.6809423458453643,4.527880672660317
1.07,57.63692243804938,17.890187619315583,24.155306600933784,79.97375069222994,19.225456759166835,21.756703579251262,71.25072580522462,40.20478358521401,21.324912837867906,76.68491355814471,68.72488043859406,21.788346542083524,77.61535769697583,1.78341650705051,-31.206559918941156,-4.140899834308815,30.556229458710284,4.423504749714163,-0.34220468426158257,-94.74681287422054,44.25958458875397,22.41616081843507,-2.077101328801271,13.911212769033,-1.6017706326532113,3.5066971572758656
1.08,57.653415965649565,17.582172161333478,24.112065839551562,80.27559306544143,19.270527055045665,21.757427898348766,70.3032576764824,40.64737943110155,21.552462504000278,76.66377505222928,68.86140839198887,21.777724694322952,77.64531875097168,1.5152890129860546,-30.396531677479093,-4.507252442135553,29.812245183586395,4.590554426052503,0.36374208480475545,-94.74681287422054,44.25958458875397,23.093772408039612,-2.150599854287174,13.394377909931613,-0.5225989194610583,2.485513641891413
1.09,57.6672282183091,17.282256985765997,24.065161552091073,80.56999559590166,19.317267847687884,21.763701319549515,69.3557895477402,41.08997527698909,21.7867882860287,76.64190156105897,68.9927679967927,21.778341404416327,77.66506796981366,1.2471615189215997,-29.586503436017036,-4.873605049962292,29.068260908462506,4.757604102390843,0.8909421553454686,-94.74681287422054,44.25958458875397,23.771383997644154,-2.224098379773077,12.877543050830226,0.7298539432747495,1.464330126506961
1.1,57.678359196028,16.99044209261314,24.014593738552318,80.85695828361068,19.365679137093483,21.775246741455675,68.408321418998,41.532571122876625,22.02789018395316,76.6192930846338,69.11895925300549,21.79271572745919,77.67460535350182,0.9790340248571444,-28.77647519455498,-5.23995765778903,28.324276633338613,4.924653778729183,1.4181422258861816,-94.74681287422054,44.25958458875397,24.448995587248696,-2.2975969052589806,12.36070819172884,2.145010665298074,0.4431466111225089
1.11,57.68680889880625,16.7067274818749,23.960362398935295,81.13648112856845,19.415760923262468,21.79206416406724,67.46085329025578,41.97516696876417,22.275768197773672,76.5959496229538,69.23998216062726,21.82124161772229,77.67657517493473,0.7109065307926893,-27.96644695309292,-5.606310265615768,27.580292358214724,5.091703455067523,1.945342296426895,-94.74681287422054,44.25958458875397,25.12660717685324,-2.3710954307448833,11.843873332627453,3.560167387321398,0.35625911536174515
1.12,57.69257732664386,16.43111315355128,23.90246753324,81.40856413077498,19.467513206194837,21.814153587384208,66.51338516151358,42.41776281465171,22.53042232749023,76.57187117601892,69.35583671965803,21.86391907520562,77.68328467533523,0.44277903672823415,-27.156418711630863,-5.9726628734425065,26.83630808309083,5.258753131405863,2.4725423669676077,-94.74681287422054,44.25958458875397,25.804218766457783,-2.4445939562307863,11.327038473526066,4.975324109344723,0.9856409647393062
1.13,57.69566447954081,16.163599107642288,23.840909141466444,81.67320729023025,19.520935985890585,21.841515011406592,65.5659170327714,42.86035866053924,22.791852573102823,76.54705774382917,69.46652293009778,21.920748099909183,77.69628799422952,0.17465154266378494,-26.34639047016882,-6.339015481269237,26.092323807966956,5.425802807744199,2.9997424375083095,-94.74681287422054,44.25958458875397,26.48183035606231,-2.518092481716688,10.810203614424692,6.3904808313680155,1.6150228141168534
1.14,57.69604751968983,15.904185344147908,23.775687223614618,81.9304106069343,19.576029262349717,21.874148436134377,64.6184489040292,43.30295450642678,23.06005893461147,76.52150932638457,69.57204079194653,21.99172869183298,77.71558513161757,-0.10657759722411991,-25.536362228706764,-6.705368089095974,25.348339532843067,5.592852484082538,3.5269425080490224,-94.74681287422054,44.25958458875397,27.159441945666853,-2.5915910072025907,10.293368755323307,7.805637553391341,2.2444046634944144
1.15,57.69345320168946,15.65287186306815,23.706801779684525,82.18017408088711,19.632793035572234,21.91205386156757,63.67098077528698,43.74555035231432,23.33504141201616,76.49522592368513,69.67239030520425,22.07686085097701,77.74117608749941,-0.4122860028505666,-24.726333987244704,-7.071720696922712,24.604355257719178,5.759902160420879,4.054142578589735,-94.74681287422054,44.25958458875397,27.83705353527139,-2.6650895326884942,9.77653389622192,9.220794275414665,2.8737865128719755
1.16,57.68780179963282,15.409658664403015,23.634252809676163,82.42249771208868,19.691227305558137,21.95523128770617,62.723512646544776,44.18814619820186,23.616800005316897,76.46820753573081,69.76757146987096,22.17614457734127,77.77306086187501,-0.7179944084770132,-23.916305745782648,-7.438073304749452,23.860370982595285,5.926951836759218,4.581342649130448,-94.74681287422054,44.25958458875397,28.514665124875933,-2.7385880581743973,9.259699037120534,10.63595099743799,3.5031683622495366
1.17,57.679093313519914,15.174545748152498,23.558040313589537,82.65738150053902,19.75133207230742,22.003680714550182,61.776044517802575,44.630742044089395,23.90533471451368,76.44045416252165,69.85758428594666,22.28957987092577,77.8112394547444,-1.02370281410346,-23.10627750432059,-7.804425912576188,23.116386707471396,6.094001513097559,5.108542719671162,-94.74681287422054,44.25958458875397,29.192276714480478,-2.8120865836603004,8.742864178019149,12.051107719461312,4.132550211627097
1.18,57.66732774335075,14.947533114316599,23.47816429142464,82.8848254462381,19.81310733582009,22.057402142099598,60.828576389060366,45.07333788997694,24.200645539606505,76.4119658040576,69.94242875343134,22.417166731730504,77.85571186610757,-1.3294112197299066,-22.296249262858534,-8.170778520402928,22.372402432347503,6.261051189435898,5.635742790211875,-94.74681287422054,44.25958458875397,29.86988830408502,-2.8855851091462035,8.226029318917762,13.466264441484638,4.761932061004659
1.19,57.65250508912531,14.728620762895329,23.394624743181478,83.10482954918596,19.87655309609614,22.116395570354417,59.90839474708221,45.51593373586448,24.50273248059538,76.38274246033872,70.02210487232502,22.55890515975546,77.90647809596449,-1.6351196253563534,-21.48622102139647,-8.537131128229664,21.628418157223614,6.428100865774239,6.162942860752588,-89.18989659556247,44.25958458875397,30.54749989368956,-2.9590836346321066,7.709194459816375,14.881421163507962,5.39131391038222
1.2,57.63462535084361,14.517808693888675,23.307421668860048,83.31739380938258,19.94166935313557,22.180660999314647,59.04478754949808,45.95852958175202,24.8115955374803,76.35278413136497,70.09661264262766,22.714795155000658,77.9635381443152,-1.9408280309827999,-20.676192779934414,-8.903483736056403,20.88443388209972,6.595150542112578,6.690142931293301,-83.53154292126358,44.25958458875397,31.225111483294103,-3.0325821601180096,7.1923596007149895,16.296577885531285,6.020695759759781
1.21,57.61368852850566,14.315096907296637,23.216555068460348,83.52251822682796,20.00845610693839,22.250198428980283,58.23776388865694,46.40112542763956,25.127234710261263,76.32209081713636,70.16595206433931,22.88483671746609,78.02689201115969,-2.246536436609247,-19.866164538472358,-9.269836343883142,20.14044960697583,6.762200218450919,7.2173430018340134,-77.87318924696467,44.25958458875397,31.90272307289865,-3.106080685603913,6.675524741613604,17.71173460755461,6.650077609137342
1.22,57.58969462211144,14.120485403119224,23.12202494198238,83.72020280152209,20.076885490117085,22.325007859351327,57.48732376455879,46.843721273527095,25.44964999893827,76.29066251765289,70.23012313745994,23.06902984715175,78.09653969649796,-2.552244842235693,-19.056136297010298,-9.63618895170988,19.396465331851942,6.898736821973682,7.744543072374727,-72.21483557266576,44.25958458875397,32.58033466250319,-3.1795792110898162,6.158689882512217,19.126891329577933,7.2794594585149035
1.23,57.56264363166094,13.933974181356433,23.02383128942615,83.910447533465,20.145872858336823,22.405089290427778,56.79346717720362,47.28631711941464,25.77884140351133,76.25849923291456,70.28912586198956,23.267374544057645,78.17248120032998,-2.85795324786214,-18.24610805554824,-10.002541559536619,18.652481056728053,6.898736821973682,8.27174314291544,-66.55648189836685,44.25958458875397,33.25794625210773,-3.253077736575719,5.641855023410831,20.54204805160126,7.908841307892465
1.24,57.5325355571542,13.755563242008257,22.921974110791652,84.09325242265666,20.214860226556556,22.49044272220964,56.156194126591444,47.72891296530217,26.11170936161794,76.22560096292136,70.34296023792817,23.479870808183776,78.2547165226558,-3.1636616534885866,-17.436079814086185,-10.368894167363356,17.90849678160416,6.898736821973682,8.798943213456154,-60.89812822406795,44.25958458875397,33.28743757825417,-3.326576262061622,5.125020164309444,21.957204773624582,8.538223157270027
1.25,57.499370398591175,13.585252585074706,22.81645340607888,84.2686174690971,20.283847594776297,22.581068154696904,55.57550461272227,48.17150881118972,26.444583737400478,76.19196770767331,70.39162626527575,23.706518639530138,78.34324566347539,-3.4693700591150334,-16.626051572624124,-10.735246775190094,17.16451250648027,6.898736821973682,9.326143283996867,-55.239774549769045,44.25958458875397,33.28743757825417,-3.4000747875475255,4.608185305208059,23.372361495647908,9.167605006647586
1.26,57.46314815597189,13.423042210555776,22.70726917528785,84.43654267278626,20.352834962996035,22.676965587889576,55.051398635596065,48.61410465707726,26.777458113183023,76.15759946717041,70.43512394403233,23.947318038096732,78.43806862278875,-3.77507846474148,-15.816023331162066,-11.101599383016833,16.42052823135638,6.898736821973682,9.853343354537579,-49.581420875470144,44.25958458875397,33.28743757825417,-3.4735733130334285,4.091350446106672,24.787518217671234,9.796986856025146
1.27,57.42386882929634,13.268932118451463,22.594421418418545,84.59702803372421,20.42182233121577,22.778135021787655,54.58387619521286,49.0567005029648,27.110332488965565,76.12250181298157,70.47345327419788,24.202269003883565,78.5391854005959,-4.080786870367926,-15.005995089700008,-11.46795199084357,15.676543956232488,6.898736821973682,10.380543425078292,-43.92306720117124,44.25958458875397,33.28743757825417,-3.5380219534356843,3.574515587005286,26.202674939694557,10.426368705402709
1.28,57.38153241856454,13.122922308761774,22.477910135470974,84.75007355191092,20.490809699435506,22.884576456391144,54.17293729157264,49.49929634885234,27.443206864748106,76.08712159344721,70.50661425577242,24.471371536890626,78.6465959968968,-4.386495275994374,-14.19596684823795,-11.83430459867031,14.932559681108598,6.898736821973682,10.907743495619007,-38.264713526872335,44.25958458875397,33.28743757825417,-3.5380219534356843,3.0576807279038998,27.617831661717883,11.05575055478027
1.29,57.33613892377646,12.985012781486708,22.35773532644514,84.89567922734638,20.559797067655243,22.996289891700034,53.818581924675414,49.94189219473988,27.776081240530647,76.05174137391286,70.53460688875596,24.754625637117922,78.76030041169149,-4.69220368162082,-13.385938606775891,-12.200657206497047,14.188575405984706,6.898736821973682,11.434943566159719,-32.60635985257343,44.25958458875397,33.28743757825417,-3.5380219534356843,2.540845868802514,29.032988383741205,11.68513240415783
1.3,57.287688344932114,12.855203536626258,22.233896991341034,85.03384506003061,20.628784435874977,23.113275327714334,53.52081009452117,50.38448804062742,28.10895561631319,76.0163611543785,70.55743117314847,25.052031304565453,78.88029864497996,-4.997912087247267,-12.575910365313833,-12.567009814323786,13.444591130860816,6.898736821973682,11.962143636700432,-26.948006178274525,44.25958458875397,33.28743757825417,-3.5380219534356843,2.0240110097011277,30.44814510576453,12.314514253535393
1.31,57.23618068203151,12.73349457418043,22.106395130158663,85.1645710499636,20.697771804094717,23.235532764434044,53.27962180110992,50.827083886514956,28.441829992095734,75.98098093484415,70.57508710894999,25.363588539233213,79.0065906967622,-5.303620492873714,-11.765882123851776,-12.933362422150523,12.700606855736925,6.898736821973682,12.489343707241146,-21.289652503975624,44.25958458875397,33.28743757825417,-3.5380219534356843,1.5071761505997416,31.863301827787858,12.943896102912953
1.32,57.18161593507464,12.619885894149224,21.975229742898026,85.28785719714534,20.76675917231445,23.363062201859158,53.09501704444166,51.269679732402494,28.774704367878275,75.9456007153098,70.58757469616047,25.68929734112121,79.1391765670382,-5.60932889850016,-10.955853882389716,-13.299715029977262,11.956622580613034,6.898736821973682,13.016543777781857,-15.631298829676718,44.25958458875397,33.28743757825417,-3.5380219534356843,0.9903412914983554,33.27845854981118,13.573277952290514
1.33,57.12399410406151,12.514377496532637,21.84040082955912,85.40370350157586,20.83574654053419,23.495863639989683,52.96699582451638,51.71227557829004,29.107578743660817,75.91022049577543,70.59489393477995,26.029157710229438,79.27805625580801,-5.915037304126607,-10.14582564092766,-13.666067637804,11.212638305489143,6.898736821973682,13.543743848322572,-9.972945155377813,44.25958458875397,33.28743757825417,-3.5380219534356843,0.47350643239696916,34.6936152718345,14.202659801668075
1.34,57.063315188992114,12.416969381330667,21.701908390141945,85.51210996325513,20.90473390875393,23.63393707882561,52.8955581413341,52.154210927653494,29.440453119443358,75.87484027624109,70.59704663860272,26.383169646557903,79.42322976307157,-6.220745709753054,-9.335797399465601,-14.032420245630737,10.468654030365254,6.898736821973682,14.070943918863284,-4.314591481078909,43.88061115934057,33.28743757825417,-3.5380219534356843,-0.03900132695418414,36.10877199385783,14.832041651045637
1.35,56.999579189866445,12.327661548543324,21.559752424646504,85.61307658218317,20.973721276973663,23.77728251836695,52.87933573240445,52.587580944772355,29.7733274952259,75.83946005670671,70.59433052595058,26.751333150106596,79.57469708882893,-6.526454115379501,-8.525769158003543,-14.398772853457475,9.724669755241361,6.898736821973682,14.598143989403997,0.19145814287521337,42.79339226443006,33.28743757825417,-3.5380219534356843,-0.5042212034718325,37.523928715881155,15.461423500423198
1.36,56.93278610668452,12.246453998170598,21.413932933072797,85.70660335835997,21.0427086451934,23.92589995861369,52.8852813019488,53.010078772942094,30.106201871008444,75.80407983717237,70.58696221453327,27.13364822087552,79.73245823308004,-6.832162521005947,-7.715740916541485,-14.765125461284216,8.980685480117472,6.898736821973682,15.125344059944709,0.997655765995124,41.70617336951955,33.28743757825417,-3.5380219534356843,-0.9694410799894808,38.939085437904474,16.090805349800757
1.37,56.862935939446324,12.173346730212495,21.26444991542082,85.79269029178552,21.111696013413138,24.07978939956584,52.89928884772436,53.42170441216274,30.439076246790982,75.768699617638,70.57494170435079,27.530114858864685,79.89651319582494,-7.137870926632393,-6.9057126750794255,-15.131478069110953,8.236701204993581,6.898736821973682,15.652544130485424,1.8038533891150343,40.61895447460904,33.28743757825417,-3.5380219534356843,-1.434660956507129,40.35424215992781,16.72018719917832
1.38,56.79002868815188,12.10833974466901,21.111930011205715,85.87133738245983,21.18068338163287,24.238950841223392,52.9213583697311,53.82245786243427,30.77195062257352,75.73331939810365,70.55826899540314,27.940733064074074,80.0668619770636,-7.4435793322588335,-6.095684433617386,-15.283554677098037,7.492716929869707,6.898736821973682,16.179744201026125,2.610051012234927,39.53173557969856,33.28743757825417,-3.5380219534356843,-1.8998808330247672,41.76939888195109,17.349569048555868
1.39,56.71406435280115,12.051433041540147,20.959094464434735,85.94254463038291,21.249670749852612,24.40338428358636,52.95148986796905,54.212339123756706,31.104824998356058,75.6979391785693,70.53694408769029,28.365502836503698,80.24350457679604,-7.74928773788528,-5.285656192155328,-15.283554677098037,6.748732654745816,6.898736821973682,16.70694427156684,3.4162486353548376,38.444516684788056,33.28743757825417,-3.5380219534356843,-2.3651007095424155,43.184555603974424,17.978950897933426
1.4,56.63504293339416,12.002626620825906,20.806258917663754,86.00631203555474,21.31865811807235,24.573089726654736,52.9896833424382,54.59134819613003,31.437699374138603,75.66255895903494,70.51096698121229,28.80442417615356,80.42644099502228,-8.054996143511726,-4.475627950693269,-15.283554677098037,6.004748379621926,6.898736821973682,17.23414434210755,4.222446258474748,37.35729778987754,33.28743757825417,-3.5380219534356843,-2.830320586060064,44.59971232599774,18.60833274731099
1.41,56.55296442993092,11.961920482526283,20.653423370892774,86.06263959797533,21.387645486292083,24.74806717042851,53.03593879313854,54.959485079554256,31.770573749921144,75.62717873950058,70.4803376759691,29.257497083023654,80.61567123174227,-8.360704549138173,-3.665599709231211,-15.283554677098037,5.260764104498035,6.898736821973682,17.761344412648263,5.028643881594659,36.270078894967035,33.28743757825417,-3.5380219534356843,-3.295540462577712,46.01486904802106,19.23771459668855
1.42,56.46782884241141,11.92931462664128,20.50058782412179,86.1115273176447,21.456632854511824,24.928316614907697,53.09025622007009,55.316749774029375,32.10344812570369,75.59179851996622,70.44505617196073,29.724681408212128,80.81119528695605,-8.666412954764619,-2.855571467769153,-15.283554677098037,4.516779829374144,6.898736821973682,18.288544483188975,5.83484150471457,35.18286000005653,33.28743757825417,-3.5380219534356843,-3.76076033909536,47.32342653145138,19.86709644606611
1.43,56.37963617083563,11.904809053170899,20.34775227735081,86.15297519456284,21.525620222731558,25.11383806009229,53.15263562323283,55.66314227955539,32.43632250148623,75.55641830043187,70.40512246918719,30.197915673526637,81.01257150624913,-8.972121360391068,-2.045543226307095,-15.283554677098037,3.772795554250254,6.898736821973682,18.81574455372969,6.64103912783448,34.09564110514602,33.28743757825417,-3.5380219534356843,-4.225980215613008,47.32342653145138,20.260694804858517
1.44,56.28838641520358,11.888403762115137,20.19491673057983,86.18698322872972,21.594607590951295,25.304631505982293,53.22307700262678,55.9986625961323,32.76919687726877,75.5210380808975,70.36053656764847,30.671149938841154,81.21517845429771,-9.277829766017515,-1.2355149848450369,-15.283554677098037,3.028811279126363,6.898736821973682,19.3429446242704,7.447236750954391,33.008422210235516,33.28743757825417,-3.5380219534356843,-4.691200092130657,47.32342653145138,20.260694804858517
1.45,56.194079575515275,11.880098753474,20.04208118380885,86.21355142014535,21.66359495917103,25.500696952577698,53.30158035825192,56.3233107237601,33.102071253051314,75.48565786136315,70.31129846734457,31.14438420415567,81.4177854023463,-9.58353817164396,-0.42548674338297865,-15.283554677098037,2.2848270040024725,6.898736821973682,19.870144694811117,8.2534343740743,31.921203315325005,33.28743757825417,-3.5380219534356843,-5.156419968648305,47.32342653145138,20.260694804858517
1.46,56.09671565177071,11.880595202790854,19.889245637037867,86.23267976880976,21.732582327390766,25.702034399878514,53.38814569010826,56.6370866624388,33.43494562883386,75.45027764182879,70.2574081682755,31.617618469470184,81.6203923503949,-9.889246577270407,0.679943682339921,-15.283554677098037,1.5408427288785818,6.898736821973682,20.397344765351832,9.059631997194213,30.8339844204145,33.28743757825417,-3.5380219534356843,-5.621639845165954,47.32342653145138,20.260694804858517
1.47,55.99629464396987,11.894556071970063,19.736410090266887,86.24436827472293,21.801569695610503,25.908643847884733,53.48277299819581,56.939990412168385,33.7678200046164,75.41489742229443,70.19886567044126,32.0908527347847,81.82299929844348,-10.194954982896853,2.112230153501944,-15.283554677098037,0.7968584537546912,6.898736821973682,20.924544835892544,9.865829620314122,29.746765525503992,33.28743757825417,-3.5380219534356843,-6.086859721683602,47.32342653145138,20.260694804858517
1.48,55.89281655211277,11.922839805860894,19.583574543495907,86.24861693788486,21.87055706383024,26.120525296596366,53.58546228251455,57.23202197294888,34.100694380398934,75.37951720276008,70.13567097384184,32.564087000099214,82.02560624649206,-10.5006633885233,3.544516624663966,-15.283554677098037,0.052874178630800524,6.898736821973682,21.451744906433255,10.672027243434032,28.659546630593482,33.28743757825417,-3.5380219534356843,-6.55207959820125,47.32342653145138,20.260694804858517
1.49,55.7862813761994,11.965446404463343,19.430738996724926,86.2454668571008,21.939544432049978,26.337678746013403,53.696213543064495,57.51318134478026,34.43356875618148,75.34413698322572,70.06782407847723,33.03732126541372,82.22821319454064,-10.806371794149747,4.976803095825989,-15.283554677098037,-0.6822614730999337,6.898736821973682,21.978944976973967,11.478224866553942,27.572327735682975,33.28743757825417,-3.5380219534356843,-7.017299474718898,47.32342653145138,20.260694804858517
1.5,55.67668911622977,12.022375867777413,19.277903449953946,86.23497194898206,22.008531800269715,26.560104196135846,53.815026779845624,57.783468527662535,34.766443131964024,75.30875676369138,69.99532498434746,33.51055553072824,82.43082014258923,-11.112080199776193,6.409089566988012,-15.283554677098037,-1.4167201506462352,6.898736821973682,22.50614504751468,12.284422489673853,26.485108840772465,33.28743757825417,-3.5380219534356843,-7.482519351236546,47.32342653145138,20.260694804858517
1.51,55.56403977220387,12.093628195803104,19.125067903182966,86.21713245408786,22.077519168489452,26.787801646963697,53.941901992857964,58.042883521595705,35.09931750774656,75.273376544157,69.91817369145251,33.98378979604276,82.63342709063781,-11.417788605402642,7.841376038150034,-15.283554677098037,-2.151178828192537,6.898736821973682,23.033345118055397,13.090620112793765,25.397889945861962,33.28743757825417,-3.5380219534356843,-7.947739227754195,47.32342653145138,20.260694804858517
1.52,55.448333344121714,12.179203388540413,18.972232356411986,86.19194837241821,22.14650653670919,27.02077109849695,54.0768391821015,58.29142632657978,35.4321918835291,75.23799632462266,69.83637019979237,34.45702406135727,82.83603403868639,-11.723497011029087,9.273662509312057,-15.283554677098037,-2.885637505738839,6.898736821973682,23.56054518859611,13.896817735913675,24.310671050951452,33.28743757825417,-3.5380219534356843,-8.412959104271843,47.32342653145138,20.260694804858517
1.53,55.32956983198329,12.279101445989344,18.819396809641006,86.1594197039731,22.215493904928927,27.25901255073562,54.219838347576236,58.52909694261474,35.765066259311645,75.2026161050883,69.74991450936707,34.93025832667178,83.03864098673498,-12.029205416655534,10.70594898047408,-15.283554677098037,-3.6200961832851406,6.898736821973682,24.08774525913682,14.703015359033586,23.223452156040945,33.28743757825417,-3.5380219534356843,-8.87817898078949,47.32342653145138,20.260694804858517
1.54,55.20774923578861,12.393322368149896,18.666561262870026,86.11954644875252,22.284481273148664,27.501247390285815,54.37089948928217,58.755895369700596,36.09794063509419,75.16723588555394,69.65880662017658,35.40349259198629,83.24124793478357,-12.33491382228198,12.138235451636103,-15.283554677098037,-4.354554860831442,6.898736821973682,24.24777096471038,15.509212982153496,22.136233261130435,33.28743757825417,-3.5380219534356843,-9.343398857307141,47.32342653145138,20.260694804858517
1.55,55.08287155553766,12.521866155022067,18.513725716099042,86.07232860675646,22.3534686413684,27.74372509993292,54.53002260721931,58.97182160783735,36.430815010876735,75.13185566601959,69.56304653222092,35.87672685730081,83.44385488283214,-12.640622227908427,13.570521922798125,-15.283554677098037,-5.089013538377744,6.898736821973682,24.24777096471038,16.315410605273406,21.04901436621993,33.28743757825417,-3.5380219534356843,-9.808618733824789,47.32342653145138,20.260694804858517
1.56,54.95493679123044,12.66473280660586,18.360890169328066,86.01776617798495,22.42245600958814,27.98620280958003,54.69720770138764,59.17687565702499,36.76368938665927,75.09647544648521,69.46263424550008,36.349961122615326,83.64646183088072,-12.946330633534874,15.002808393960148,-15.283554677098037,-5.8234722159240455,6.898736821973682,24.24777096471038,17.121608228393317,19.961795471309422,33.28743757825417,-3.5380219534356843,-10.273838610342438,47.32342653145138,20.260694804858517
1.57,54.82394494286696,12.821922322901269,18.208054622557086,85.95585916243799,22.491443377807876,28.228680519227126,54.87245477178717,59.37105751726354,37.09656376244182,75.06109522695087,69.35756976001406,36.82319538792984,83.84906877892932,-13.25203903916132,16.43509486512217,-15.283554677098037,-6.557930893470347,6.898736821973682,24.24777096471038,17.927805851513227,18.874576576398912,33.28743757825417,-3.5380219534356843,-10.739058486860086,47.32342653145138,20.260694804858517
1.58,54.68989601044721,12.993434703908303,18.055219075786102,85.88660756011555,22.56043074602761,28.47115822887423,55.05576381841791,59.55436718855297,37.429438138224356,75.02571500741651,69.24785307576289,37.29642965324435,84.0516757269779,-13.557747444787768,17.867381336284193,-15.283554677098037,-7.292389571016648,6.898736821973682,24.24777096471038,18.734003474633138,17.78735768148841,33.28743757825417,-3.5380219534356843,-11.204278363377732,47.32342653145138,20.260694804858517
1.59,54.5527899939712,13.179269949626955,17.902383529015122,85.81001137101765,22.629418114247347,28.713635938521335,55.247134841279845,59.72680467089331,37.7623125140069,74.99033478788215,69.13348419274652,37.76966391855887,84.25428267502649,-13.863455850414214,19.299667807446216,-15.283554677098037,-8.02684824856295,6.898736821973682,24.24777096471038,19.54020109775305,16.7001387865779,33.28743757825417,-3.5380219534356843,-11.669498239895383,47.32342653145138,20.260694804858517
1.6,54.41262689343892,13.379428060057228,17.74954798224414,85.7260705951443,22.698405482467084,28.95611364816844,55.44656784037297,59.888369964284536,38.095186889789446,74.9549545683478,69.01446311096497,38.242898183873386,84.45688962307509,-14.169164256040661,20.73195427860824,-15.283554677098037,-8.76130692610925,6.898736821973682,24.24777096471038,20.34639872087296,15.61291989166739,33.28743757825417,-3.5380219534356843,-12.134718116413032,47.32342653145138,20.260694804858517
1.61,54.26940670885038,13.593909035199118,17.59671243547316,85.63478523249547,22.76739285068682,29.198591357815545,55.6540628156973,60.039063068726655,38.42806126557198,74.91957434881344,68.89078983041827,38.716132449187896,84.65949657112367,-14.474872661667108,22.164240749770258,-15.283554677098037,-9.495765603655554,6.898736821973682,24.24777096471038,21.152596343992872,14.525700996756884,33.28743757825417,-3.5380219534356843,-12.599937992930679,47.32342653145138,20.260694804858517
1.62,54.12312944020558,13.822712875052632,17.44387688870218,85.53615528307117,22.83638021890656,29.44106906746265,55.86961976725283,60.178883984219674,38.76093564135453,74.88419412927908,68.76246435110636,39.18936671450241,84.86210351917225,-14.780581067293554,23.596527220932284,-15.283554677098037,-10.230224281201856,6.898736821973682,24.24777096471038,21.95879396711278,13.438482101846375,33.28743757825417,-3.5380219534356843,-13.065157869448328,47.32342653145138,20.260694804858517
1.63,53.97444380989943,14.065839579617762,17.291041341931205,85.43018074687143,22.905367587126293,29.683546777109747,56.093238695039545,60.30783271076358,39.09381001713706,74.84881390974473,68.62948667302929,39.662600979816915,85.06471046722083,-14.887131300082363,25.028813692094275,-15.283554677098037,-10.96468295874814,6.898736821973682,24.24777096471038,22.764991590232672,12.351263206935892,33.28743757825417,-3.5380219534356843,-13.530377745965966,47.32342653145138,20.260694804858517
1.64,53.8255724968986,14.323289148894514,17.13820579516022,85.31686162389623,22.973700558228067,29.92602448675685,56.32491959905748,60.42590924835839,39.426684392919604,74.81343369021036,68.49185679618705,40.13583524513143,85.26731741526942,-14.887131300082363,26.461100163256294,-15.283554677098037,-11.699141636294442,6.7508741649215205,24.24777096471038,23.571189213352586,11.264044312025385,33.28743757825417,-3.5380219534356843,-13.995597622483613,47.32342653145138,20.260694804858517
1.65,53.67670118389778,14.595061582882888,16.98537024838924,85.19619791414554,23.04037405149559,30.168502196403956,56.564662479306605,60.53311359700408,39.75955876870215,74.77805347067601,68.34957472057962,40.60906951044594,85.469924363318,-14.887131300082363,27.89338663441832,-15.283554677098037,-12.433600313840744,6.583824488583181,24.24777096471038,24.377386836472493,10.176825417114877,33.28743757825417,-3.5380219534356843,-14.460817499001262,47.32342653145138,20.260694804858517
1.66,53.52782987089695,14.88115688158288,16.83253470161826,85.06818961761941,23.105377047999728,30.410979906051057,56.81246733578693,60.62944575670068,40.09243314448469,74.74267325114165,68.20264044620703,41.08230377576046,85.67253131136658,-14.887131300082363,29.325673105580343,-15.283554677098037,-13.168058991387046,6.4167748122448405,24.24777096471038,25.183584459592407,9.08960652220437,33.28743757825417,-3.5380219534356843,-14.92603737551891,47.32342653145138,20.260694804858517
1.67,53.37895855789613,15.181575044994494,16.67969915484728,84.9328367343178,23.168709547740487,30.653457615698166,57.068334168498446,60.714905727448176,40.42530752026723,74.70729303160729,68.05105397306923,41.55553804107497,85.87513825941517,-14.887131300082363,30.757959576742365,-15.283554677098037,-13.902517668933347,6.249725135906502,24.24777096471038,25.989782082712313,8.002387627293862,33.28743757825417,-3.5380219534356843,-15.391257252036558,47.32342653145138,20.260694804858517
1.68,53.2300872448953,15.496316073117729,16.5268636080763,84.79013926424075,23.23037155071786,30.89593532534527,57.332262977441175,60.78949350924656,40.75818189604977,74.67191281207295,67.89481530116629,42.028772306389484,86.07774520746376,-14.887131300082363,32.19024604790439,-15.283554677098037,-14.636976346479647,6.082675459568162,24.24777096471038,26.795979705832227,6.915168732383354,33.28743757825417,-3.5380219534356843,-15.856477128554205,47.32342653145138,20.260694804858517
1.69,53.081215931894484,15.825379965952584,16.37402806130532,84.64009720738821,23.29036305693185,31.138413034992368,57.604253762615095,60.85320910209584,41.091056271832315,74.63653259253859,67.73392443049815,42.502006571704,86.28035215551235,-14.887131300082363,33.62253251906641,-15.283554677098037,-15.371435024025953,5.915625783229822,24.24777096471038,27.602177328952138,5.827949837472847,33.28743757825417,-3.5380219534356843,-16.321697005071854,47.32342653145138,20.260694804858517
1.7,52.93234461889366,16.168766723499058,16.22119251453434,84.48271056376022,23.348684066382454,31.380890744639473,57.88430652402022,60.90605250599602,41.42393064761485,74.60115237300423,67.56838136106485,42.97524083701851,86.48295910356093,-14.887131300082363,35.05481899022843,-15.283554677098037,-16.105893701572253,5.748576106891482,24.24777096471038,28.408374952072048,4.7407309425623385,33.28743757825417,-3.5380219534356843,-16.7869168815895,47.32342653145138,20.260694804858517
1.71,52.783473305892834,16.526476345757153,16.06835696776336,84.31797933335676,23.405334579069677,31.62336845428658,58.17242126165654,60.948023720947084,41.7568050233974,74.56577215346988,67.39818609286637,43.44847510233303,86.68556605160951,-14.887131300082363,36.487105461390456,-15.283554677098037,-16.840352379118556,5.581526430553142,24.24777096471038,29.21457257519196,3.653512047651831,33.28743757825417,-3.5380219534356843,-17.252136758107152,47.32342653145138,20.260694804858517
1.72,52.634601992892,16.89850883272687,15.91552142099238,84.14590351617785,23.46031459499352,31.865846163933682,58.468597975524055,60.97912274694905,42.089679399179936,74.53039193393552,67.2233386259027,43.921709367647544,86.8881729996581,-14.887131300082363,37.91939193255248,-15.283554677098037,-17.574811056664856,5.414476754214802,24.24777096471038,30.02077019831187,2.5662931527413235,33.28743757825417,-3.5380219534356843,-17.7173566346248,47.32342653145138,20.260694804858517
1.73,52.485730679891184,17.284864184408203,15.7626858742214,83.96648311222347,23.513624114153973,32.10832387358079,58.772836665622776,60.99934958400191,42.42020949708631,74.49501171440116,67.04383896017387,44.394943632962054,87.0907799477067,-14.887131300082363,39.3516784037145,-15.283554677098037,-18.309269734211156,5.247427077876462,24.24777096471038,30.82696782143178,1.4790742578308158,32.7237870024277,-3.5380219534356843,-18.182576511142447,47.32342653145138,20.260694804858517
1.74,52.336859366890366,17.685542400801157,15.609850327450419,83.77971812149363,23.56526313655105,32.35080158322789,59.085137331952694,61.00870423210567,42.744059309162566,74.4596314948668,66.85968709567986,44.86817789827657,87.29338689575528,-14.887131300082363,40.783964874876524,-15.283554677098037,-19.04372841175746,5.080377401538122,24.24777096471038,31.633165444551693,0.391855362920308,32.04617541282317,-3.5380219534356843,-18.647796387660097,47.32342653145138,20.260694804858517
1.75,52.18798805388954,18.10054348190573,15.457014780679438,83.58560854398833,23.61523166218474,32.593279292874996,59.40549997451381,61.00571068961503,43.06113300534278,74.42425127533244,66.67088303242068,45.34141216359109,87.49588821711689,-14.887131300082363,42.21625134603855,-15.283554677098037,-19.77818708930376,4.913327725199782,24.24777096471038,32.4393630676716,-1.1569168933204717,31.36856382321861,-3.5380219534356843,-19.113016264177745,47.32342653145138,20.145386939049924
1.76,52.039116740888716,18.52986742772193,15.304179233908458,83.38415437970755,23.663529691055047,32.8357570025221,59.73392459330613,60.985097173024855,43.37143058562693,74.38922819395806,66.4774267703963,45.81179407872292,87.6941951772605,-14.887131300082363,43.64853781720057,-15.283554677098037,-20.512645766850063,4.746278048861442,24.24777096471038,33.245560690791514,-2.965786424713884,30.690952233614084,-3.4655662729784757,-19.578236140695395,46.42492527551677,19.516005089672362
1.77,51.89024542788789,18.973514238249745,15.151343687137478,83.17535562865132,23.710157223161968,33.078234712169206,60.07041118832964,60.946394961120745,43.67495205001506,74.3549400238557,66.27931830960677,46.26896754786797,87.88620831891033,-14.887131300082363,45.08082428836259,-15.283554677098037,-21.247104444396363,4.579228372523103,24.24777096471038,34.05175831391142,-4.774655956107297,30.013340644009528,-3.3920677474925722,-20.043456017213042,45.00976855349344,18.8866232402948
1.78,51.741374114887066,19.43148391348918,14.998508140366498,82.95921229081962,23.755114258505508,33.32071242181631,60.414959759584356,60.88960405390271,43.971697398507125,74.32138683900821,66.07655765005204,46.711989449792796,88.0719276420664,-14.887131300082363,46.513110759524615,-15.283554677098037,-21.981563121942667,4.412178696184762,24.24777096471038,34.857955937031335,-6.583525487500709,29.335729054405,-3.318569222006669,-20.50867589373069,43.59461183147012,18.257241390917237
1.79,51.59250280188624,19.898158762657342,14.845672593595518,82.73572436621247,23.798400797085662,33.563190131463415,60.76757030707027,60.81472445137073,44.26166663110316,74.28856863941557,65.86914479173214,47.14085978449738,88.25135314672869,-14.887131300082363,46.67684352606753,-15.283554677098037,-22.716021799488967,4.245129019846423,24.24777096471038,35.66415356015124,-8.392395018894122,28.658117464800444,-3.245070696520766,-20.97389577024834,42.17945510944679,17.627859541539678
1.8,51.443631488885416,20.36492719791802,14.694213123307652,82.50489185482985,23.840016838902436,33.80566784111052,61.12824283078738,60.72175615352483,44.54485974780314,74.2564854250778,65.65707973464708,47.55557855198173,88.42448483289719,-14.887131300082363,46.67684352606753,-14.966023825633425,-23.450480477035267,4.078079343508082,24.24777096471038,36.470351183271156,-10.201264550287535,27.980505875195913,-3.1715721710348634,-21.439115646765988,40.764298387423466,16.998477692162115
1.81,51.29476017588459,20.831695633178693,14.54638464809045,82.26671475667175,23.879962383955824,34.04814555075762,61.49697733073569,60.61069916036499,44.821276748607076,74.22513719599488,65.44036247879683,47.95614575224585,88.59132270057192,-14.887131300082363,46.67684352606753,-14.599671217806685,-24.18493915458157,3.9110296671697404,24.24777096471038,37.27654880639106,-12.010134081680947,27.302894285591357,-3.09807364554896,-21.904335523283635,39.34914166540014,16.369095842784557
1.82,51.145888862883766,21.298464068439365,14.402219698951518,82.02119307173821,23.918237432245828,34.29062326040472,61.8737738069152,60.48155347189121,45.09091763351496,74.1945239521668,65.22076728984395,48.342561385289734,88.75186674975288,-14.887131300082363,46.67684352606753,-14.233318609979948,-24.91939783212787,3.7439799908314044,24.24777096471038,38.082746429510976,-13.81900361307436,26.62528269598683,-3.024575120063057,-21.96324919693475,37.93398494337682,15.739713993406992
1.83,50.997017549882955,21.765232503700044,14.261718275890853,81.7683268000292,23.95484198377245,34.53310097005183,62.25863225932592,60.3343190881035,45.35378240252682,74.16464569359361,65.0011347978746,48.714825451113384,88.90611698044006,-14.887131300082363,46.67684352606753,-13.86696600215321,-25.653856509674174,3.5769303144930613,24.24777096471038,38.88894405263088,-15.627873144467772,25.947671106382273,-2.9510765945771538,-21.96324919693475,36.51882822135349,15.110332144029433
1.84,50.84814623688213,22.23200093896072,14.124880378908454,81.50811594154473,23.989776038535695,34.77557867969893,62.64917599106819,60.16899600900186,45.60987105564261,74.13550242027527,64.78150230590525,49.0729379497168,89.05407339263347,-14.887131300082363,46.67684352606753,-13.500613394326473,-26.388315187220474,3.409880638154725,24.24777096471038,39.07609605685768,-17.436742675861186,25.27005951677775,-2.8775780690912507,-21.96324919693475,35.10367149933017,14.480950294651873
1.85,50.699274923881305,22.698769374221396,13.991706008004321,81.24056049628479,24.023039596535547,35.018056389346036,63.039936951636776,59.98558423458628,45.85918359286237,74.10709413221178,64.56186981393591,49.41689888109999,89.19573598633309,-14.887131300082363,46.67684352606753,-13.134260786499732,-27.122773864766778,3.2428309618163813,24.24777096471038,39.07609605685768,-19.2456122072546,24.59244792717319,-2.8040795436053476,-21.96324919693475,33.68851477730685,13.85156844527431
1.86,50.55040361088048,23.16553780948207,13.862195163178457,80.9656604642494,24.054632657772018,35.26053409899313,63.43069791220535,59.78408376485675,46.10172001418607,74.07942082940316,64.34223732196655,49.74670824526294,89.33110476153895,-14.887131300082363,46.67684352606753,-12.767908178672995,-27.857232542313078,3.075781285478045,24.24777096471038,39.07609605685768,-21.05448173864801,23.914836337568662,-2.7305810181194445,-21.96324919693475,32.27335805528352,13.222186595896751
1.87,50.401532297879655,23.632306244742747,13.736347844430863,80.68467076475689,24.084555222245108,35.50301180864024,63.82145887277393,59.564494599813315,46.337480319613746,74.05248251184939,64.12260482999721,50.06236604220566,89.46017971825104,-14.887131300082363,46.67684352606753,-12.401555570846257,-28.162346048000817,2.9087316091397013,24.24777096471038,39.07609605685768,-22.863351270041424,23.237224747964106,-2.6570824926335415,-21.96324919693475,30.858201333260197,12.592804746519189
1.88,50.25266098487883,24.09907468000341,13.614164051761536,80.4030473042769,24.112807289954816,35.74548951828734,64.21221983334249,59.326816739455936,46.566464509145355,74.02627917955049,63.90297233802786,50.363872271928145,89.58296085646934,-14.887131300082363,46.67684352606753,-12.035202963019527,-28.162346048000817,2.7416819328013653,24.24777096471038,39.07609605685768,-24.672220801434797,22.55961315835958,-2.58358396714764,-21.96324919693475,29.443044611236903,11.96342289714164
1.89,50.103789671878005,24.565843115264087,13.495643785170474,80.12142384379688,24.139388860901136,35.98796722793445,64.60298079391107,59.07105018378462,46.788672582780926,74.00081083250645,63.683339846058516,50.6512269344304,89.69944817619387,-14.887131300082363,46.67684352606753,-11.66885035519279,-28.162346048000817,2.5746322564630293,24.24777096471038,39.07609605685768,-26.48109033282821,21.88200156875505,-2.5100854416617366,-21.96324919693475,28.027887889213577,11.334041047764082
1.9,49.95491835887719,25.032611550524766,13.38078704465768,79.83980038331687,24.164299935084074,36.23044493758155,64.99374175447966,58.79719493279937,47.00410454052046,73.97607747071726,63.46370735408917,50.92443002971241,89.80964167742462,-14.887131300082363,46.67684352606753,-11.30249774736605,-28.162346048000817,2.4075825801246857,24.24777096471038,39.07609605685768,-28.289959864221622,21.20438997915049,-2.4365869161758336,-21.96324919693475,26.612731167190255,10.704659198386521
1.91,49.80604704587636,25.49937998578544,13.269593830223153,79.55817692283686,24.187540512503627,36.47292264722865,65.38450271504823,58.50525098650019,47.21276038236394,73.95207909418292,63.244074862119824,51.1834815577742,89.9135413601616,-14.887131300082363,46.67684352606753,-10.936145139539313,-28.162346048000817,2.2405329037863493,24.24777096471038,39.07609605685768,-30.098829395615034,20.526778389545964,-2.3630883906899305,-21.96324919693475,25.197574445166932,10.075277349008958
1.92,49.65717573287554,25.966148421046114,13.162064141866894,79.27655346235684,24.209110593159803,36.71540035687576,65.7752636756168,58.19521834488707,47.414640108311374,73.92881570290345,63.02444237015048,51.42838151861575,90.0111472244048,-14.887131300082363,46.67684352606753,-10.569792531712574,-28.162346048000817,2.0734832274480057,24.24777096471038,39.07609605685768,-31.907698927008443,19.849166799941408,-2.2895898652040274,-21.96324919693475,23.78241772314361,9.445895499631398
1.93,49.50830441987472,26.43291685630679,13.0581979795889,78.99493000187684,24.229010177052587,36.95787806652286,66.16602463618538,57.86709700796002,47.609743718362765,73.90628729687886,62.80480987818113,51.65912991223707,90.10245927015423,-14.887131300082363,46.67684352606753,-10.203439923885837,-28.162346048000817,1.9064335511096693,24.24777096471038,39.07609605685768,-33.71656845840186,19.171555210336884,-2.2160913397181243,-21.96324919693475,22.367261001120283,8.816513650253837
1.94,49.359433106873894,26.899685291567465,12.957995343389177,78.71330654139683,24.247239264181992,37.20035577616997,66.55678559675397,57.52088697571904,47.79807121251812,73.8844938761091,62.58517738621178,51.87572673863816,90.18747749740989,-14.887131300082363,46.67684352606753,-9.8370873160591,-28.162346048000817,1.7393838747713257,24.24777096471038,39.07609605685768,-35.52543798979527,18.493943620732328,-2.1425928142322213,-21.96324919693475,20.952104279096957,8.187131800876275
1.95,49.21056179387307,27.36645372682814,12.861456233267718,78.43168308091683,24.263797854548013,37.44283348581707,66.94754655732254,57.15658824816411,47.97962259077741,73.8634354405942,62.36554489424243,52.07817199781901,90.26620190617176,-14.887131300082363,46.67684352606753,-9.47073470823236,-28.162346048000817,1.5723341984329897,24.24777096471038,39.07609605685768,-37.334307521188684,17.8163320311278,-2.069094288746318,-21.96324919693475,19.536947557073635,7.557749951498714
1.96,49.061690480872244,27.83322216208882,12.76858064922453,78.15005962043682,24.278685948150653,37.68531119546417,67.33830751789111,56.77420082529526,48.15439785314067,73.84311199033417,62.14591240227308,52.26646568977963,90.33863249643986,-14.887131300082363,46.67684352606753,-9.104382100405623,-28.162346048000817,1.405284522094646,24.24777096471038,39.07609605685768,-39.1431770525821,17.13872044152324,-1.9955957632604149,-21.96324919693475,18.12179083505031,6.928368102121152
1.97,48.91281916787142,28.2999905973495,12.679368591259607,77.8684361599568,24.29190354498991,37.92778890511128,67.72906847845968,56.373724707112466,48.322396999607875,73.823523525329,61.926279910303734,52.44060781452002,90.40476926821418,-14.887131300082363,46.67684352606753,-8.738029492578884,-28.162346048000817,1.2382348457563097,24.24777096471038,39.07609605685768,-40.95204658397551,16.461108851918713,-1.922097237774512,-21.96324919693475,16.706634113026986,6.2989862527435925
1.98,48.763947854870594,28.766759032610175,12.593820059372952,77.58681269947681,24.30345064506578,38.17026661475838,68.11982943902827,55.95515989361574,48.48362003017905,73.80467004557867,61.706647418334384,52.600598372040174,90.46461222149473,-14.887131300082363,46.67684352606753,-8.371676884752146,-28.162346048000817,1.0711851694179662,24.24777096471038,39.07609605685768,-42.76091611536892,15.783497262314157,-1.848598712288609,-21.96324919693475,15.29147739100366,5.669604403366032
1.99,48.61507654186977,29.233527467870843,12.511935053564564,77.30518923899679,24.31332724837827,38.41274432440548,68.51059039959685,55.518506384805086,48.63806694485416,73.78655155108322,61.48701492636505,52.74643736234009,90.5181613562815,-14.887131300082363,46.67684352606753,-8.005324276925407,-28.162346048000817,0.90413549307963,24.24777096471038,39.07609605685768,-44.569785646762334,15.105885672709627,-1.7751001868027056,-21.96324919693475,13.876320668980336,5.04022255398847
2.0,48.466205228868944,29.70029590313152,12.433713573834444,77.02356577851678,24.32153335492737,38.65391940443351,68.90135136016542,55.063764180680494,48.78573774363324,73.76916804184262,61.26738243439569,52.87812478541977,90.56541667257449,-14.887131300082363,46.67684352606753,-7.638971669098669,-28.162346048000817,0.7370858167412864,23.87716431958083,39.07609605685768,-46.378655178155746,14.428274083105071,-1.7016016613168026,-21.96324919693475,12.461163946957011,4.410840704610909
2.01,48.317333915868126,30.167064338392183,12.359155620182591,76.74194231803679,24.328068964713093,38.890055047276604,69.29211232073399,54.59325976115427,48.926632426516264,73.75251951785688,61.04774994242635,52.99566064127923,90.60637817037372,-14.887131300082363,46.67684352606753,-7.27261906127194,-28.162346048000817,0.5700361404029501,23.34996424904013,39.07609605685768,-47.27010456275326,13.750662493500545,-1.628103135830901,-21.96324919693475,11.046007224933717,3.781458855233362
2.02,48.1684626028673,30.63383277365287,12.288261192609005,76.46031885755676,24.33293407773543,39.1209186894143,69.68287328130258,54.12055871552673,49.06075099350325,73.736605979126,60.828117450457,53.09904492991845,90.64104584967916,-14.887131300082363,46.67684352606753,-6.906266453445193,-28.162346048000817,0.4029864640646065,22.822764178499405,39.07609605685768,-47.27010456275326,13.073050903895988,-1.5546046103449964,-21.96324919693475,9.630850502910363,3.1520770058557868
2.03,48.01959128986648,31.100601208913538,12.221030291113689,76.17869539707678,24.336128693994386,39.34651033084659,70.07363424187113,53.64785766989921,49.18809344459418,73.72142742564999,60.60848495848766,53.18827765133744,90.66941971049083,-14.887131300082363,46.67684352606753,-6.539913845618463,-28.162346048000817,0.2359367877262703,22.2955641079587,39.07609605685768,-47.27010456275326,12.39543931429146,-1.481106084859095,-21.96324919693475,8.21569378088707,2.52269515647824
2.04,47.87071997686566,31.567369644174228,12.157462915696636,75.89707193659675,24.337652813489957,39.566829971573476,70.46439520243973,53.175156624271665,49.30865977978908,73.70698385742882,60.38885246651831,53.26335880553619,90.69149975280872,-14.887131300082363,46.67684352606753,-6.173561237791716,-28.162346048000817,0.06888711138792669,21.768364037417978,39.07609605685768,-47.27010456275326,11.717827724686902,-1.4076075593731903,-21.96324919693475,6.800537058863714,1.8933133071006645
