milky766/affetto/tests/data/rand_traj_step_async_all.csv
t,q0,q1,q2,q3,q4,q5,q6,q7,q8,q9,q10,q11,q12,dq0,dq1,dq2,dq3,dq4,dq5,dq6,dq7,dq8,dq9,dq10,dq11,dq12
0.0,57.696233297771506,11.878981267937519,24.38933047672244,86.24863572644571,18.639780848274548,21.75617307772514,84.60903927512743,24.97414947073082,17.61715256969424,76.9784126386763,70.59706298682407,21.77645932743424,77.6755668795938,0.0,-0.0,-0.0,0.0,-0.0,-0.0,0.0,-0.0,-0.0,0.0,0.0,-0.0,0.0
0.01,57.696233297771506,11.878981267937519,24.38933047672244,86.24863572644571,18.639780848274548,21.75617307772514,84.60903927512743,24.97414947073082,17.61715256969424,76.9784126386763,70.59706298682407,21.77645932743424,77.6755668795938,0.0,-0.0,-0.0,0.0,-0.0,-0.0,0.0,-0.0,-0.0,0.0,0.0,-0.0,0.0
0.02,57.696233297771506,11.878981267937519,24.38933047672244,86.24863572644571,18.639780848274548,21.75617307772514,84.60903927512743,24.97414947073082,17.61715256969424,76.9784126386763,70.59706298682407,21.77645932743424,77.6755668795938,0.0,-0.0,-0.0,0.0,-0.0,-0.0,0.0,-0.0,-0.0,0.0,0.0,-0.0,0.0
0.03,57.696233297771506,11.878981267937519,24.38933047672244,86.24863572644571,18.639780848274548,21.75617307772514,84.60903927512743,24.97414947073082,17.61715256969424,76.9784126386763,70.59706298682407,21.77645932743424,77.6755668795938,0.0,-0.0,-0.0,0.0,-0.0,-0.0,0.0,-0.0,-0.0,0.0,0.0,-0.0,0.0
0.04,57.696233297771506,11.878981267937519,24.38933047672244,86.24863572644571,18.639780848274548,21.75617307772514,84.60903927512743,24.97414947073082,17.61715256969424,76.9784126386763,70.59706298682407,21.77645932743424,77.6755668795938,0.0,-0.0,-0.0,0.0,-0.0,-0.0,0.0,-0.0,-0.0,0.0,0.0,-0.0,0.0
0.05,57.696233297771506,11.878981267937519,24.38933047672244,86.24863572644571,18.639780848274548,21.75617307772514,84.60903927512743,24.97414947073082,17.61715256969424,76.9784126386763,70.59706298682407,21.77645932743424,77.6755668795938,0.0,-0.0,-0.0,0.0,-0.0,-0.0,0.0,-0.0,-0.0,0.0,0.0,-0.0,0.0
0.06,57.696233297771506,11.878981267937519,24.38933047672244,86.24863572644571,18.639780848274548,21.75617307772514,84.60903927512743,24.97414947073082,17.61715256969424,76.9784126386763,70.59706298682407,21.77645932743424,77.6755668795938,0.0,-0.0,-0.0,0.0,-0.0,-0.0,0.0,-0.0,-0.0,0.0,0.0,-0.0,0.0
0.07,57.696233297771506,11.878981267937519,24.38933047672244,86.24863572644571,18.639780848274548,21.75617307772514,84.60903927512743,24.97414947073082,17.61715256969424,76.9784126386763,70.59706298682407,21.77645932743424,77.6755668795938,0.0,-0.0,-0.0,0.0,-0.0,-0.0,0.0,-0.0,-0.0,0.0,0.0,-0.0,0.0
0.08,57.696233297771506,11.878981267937519,24.38933047672244,86.24863572644571,18.639780848274548,21.75617307772514,84.60903927512743,24.97414947073082,17.61715256969424,76.9784126386763,70.59706298682407,21.77645932743424,77.6755668795938,0.0,-0.0,-0.0,0.0,-0.0,-0.0,0.0,-0.0,-0.0,0.0,0.0,-0.0,0.0
0.09,57.696233297771506,11.878981267937519,24.38933047672244,86.24863572644571,18.639780848274548,21.75617307772514,84.60903927512743,24.97414947073082,17.61715256969424,76.9784126386763,70.59706298682407,21.77645932743424,77.6755668795938,0.0,-0.0,-0.0,0.0,-0.0,-0.0,0.0,-0.0,-0.0,0.0,0.0,-0.0,0.0
0.1,57.696233297771506,11.878981267937519,24.38933047672244,86.24863572644571,18.639780848274548,21.75617307772514,84.60903927512743,24.97414947073082,17.61715256969424,76.9784126386763,70.59706298682407,21.77645932743424,77.6755668795938,0.0,-0.0,-0.0,0.0,-0.0,-0.0,0.0,-0.0,-0.0,0.0,0.0,-0.0,0.0
0.11,57.696233297771506,11.878981267937519,24.38933047672244,86.24863572644571,18.639780848274548,21.75617307772514,84.60903927512743,24.97414947073082,17.61715256969424,76.9784126386763,70.59706298682407,21.77645932743424,77.6755668795938,0.0,-0.0,-0.0,0.0,-0.0,-0.0,0.0,-0.0,-0.0,0.0,0.0,-0.0,0.0
0.12,57.696233297771506,11.878981267937519,24.38933047672244,86.24863572644571,18.639780848274548,21.75617307772514,84.60903927512743,24.97414947073082,17.61715256969424,76.9784126386763,70.59706298682407,21.77645932743424,77.6755668795938,0.0,-0.0,-0.0,0.0,-0.0,-0.0,0.0,-0.0,-0.0,0.0,0.0,-0.0,0.0
0.13,57.696233297771506,11.878981267937519,24.38933047672244,86.24863572644571,18.639780848274548,21.75617307772514,84.60903927512743,24.97414947073082,17.61715256969424,76.9784126386763,70.59706298682407,21.77645932743424,77.6755668795938,0.0,-0.0,-0.0,0.0,-0.0,-0.0,0.0,-0.0,-0.0,0.0,0.0,-0.0,0.0
0.14,57.696233297771506,11.878981267937519,24.38933047672244,86.24863572644571,18.639780848274548,21.75617307772514,84.60903927512743,24.97414947073082,17.61715256969424,76.9784126386763,70.59706298682407,21.77645932743424,77.6755668795938,0.0,-0.0,-0.0,0.0,-0.0,-0.0,0.0,-0.0,-0.0,0.0,0.0,-0.0,0.0
0.15,57.696233297771506,11.878981267937519,24.38933047672244,86.24863572644571,18.639780848274548,21.75617307772514,84.60903927512743,24.97414947073082,17.61715256969424,76.9784126386763,70.59706298682407,21.77645932743424,77.6755668795938,0.0,-0.0,-0.0,0.0,-0.0,-0.0,0.0,-0.0,-0.0,0.0,0.0,-0.0,0.0
0.16,57.696233297771506,11.878981267937519,24.38933047672244,86.24863572644571,18.639780848274548,21.75617307772514,84.60903927512743,24.97414947073082,17.61715256969424,76.9784126386763,70.59706298682407,21.77645932743424,77.6755668795938,0.0,-0.0,-0.0,0.0,-0.0,-0.0,0.0,-0.0,-0.0,0.0,0.0,-0.0,0.0
0.17,57.696233297771506,11.878981267937519,24.38933047672244,86.24863572644571,18.639780848274548,21.75617307772514,84.60903927512743,24.97414947073082,17.61715256969424,76.9784126386763,70.59706298682407,21.77645932743424,77.6755668795938,0.0,-0.0,-0.0,0.0,-0.0,-0.0,0.0,-0.0,-0.0,0.0,0.0,-0.0,0.0
0.18,57.696233297771506,11.878981267937519,24.38933047672244,86.24863572644571,18.639780848274548,21.75617307772514,84.60903927512743,24.97414947073082,17.61715256969424,76.9784126386763,70.59706298682407,21.77645932743424,77.6755668795938,0.0,-0.0,-0.0,0.0,-0.0,-0.0,0.0,-0.0,-0.0,0.0,0.0,-0.0,0.0
0.19,57.696233297771506,11.878981267937519,24.38933047672244,86.24863572644571,18.639780848274548,21.75617307772514,84.60903927512743,24.97414947073082,17.61715256969424,76.9784126386763,70.59706298682407,21.77645932743424,77.6755668795938,0.0,-0.0,-0.0,0.0,-0.0,-0.0,0.0,-0.0,-0.0,0.0,0.0,-0.0,0.0
0.2,57.696233297771506,11.878981267937519,24.38933047672244,86.24863572644571,18.639780848274548,21.75617307772514,84.60903927512743,24.97414947073082,17.61715256969424,76.9784126386763,70.59706298682407,21.77645932743424,77.6755668795938,0.0,-0.0,-0.0,0.0,-0.0,-0.0,0.0,-0.0,-0.0,0.0,0.0,-0.0,0.0
0.21,57.696233297771506,11.878981267937519,24.38933047672244,86.24863572644571,18.639780848274548,21.75617307772514,84.60903927512743,24.97414947073082,17.61715256969424,76.9784126386763,70.59706298682407,21.77645932743424,77.6755668795938,0.0,-0.0,-0.0,0.0,-0.0,-0.0,0.0,-0.0,-0.0,0.0,0.0,-0.0,0.0
0.22,57.696233297771506,11.878981267937519,24.38933047672244,86.24863572644571,18.639780848274548,21.75617307772514,84.60903927512743,24.97414947073082,17.61715256969424,76.9784126386763,70.59706298682407,21.77645932743424,77.6755668795938,0.0,-0.0,-0.0,0.0,-0.0,-0.0,0.0,-0.0,-0.0,0.0,0.0,-0.0,0.0
0.23,57.696233297771506,11.878981267937519,24.38933047672244,86.24863572644571,18.639780848274548,21.75617307772514,84.60903927512743,24.97414947073082,17.61715256969424,76.9784126386763,70.59706298682407,21.77645932743424,77.6755668795938,0.0,-0.0,-0.0,0.0,-0.0,-0.0,0.0,-0.0,-0.0,0.0,0.0,-0.0,0.0
0.24,57.696233297771506,11.878981267937519,24.38933047672244,86.24863572644571,18.639780848274548,21.75617307772514,84.60903927512743,24.97414947073082,17.61715256969424,76.9784126386763,70.59706298682407,21.77645932743424,77.6755668795938,0.0,-0.0,-0.0,0.0,-0.0,-0.0,0.0,-0.0,-0.0,0.0,0.0,-0.0,0.0
0.25,57.696233297771506,11.878981267937519,24.38933047672244,86.24863572644571,18.639780848274548,21.75617307772514,84.60903927512743,24.97414947073082,17.61715256969424,76.9784126386763,70.59706298682407,21.77645932743424,77.6755668795938,0.0,-0.0,-0.0,0.0,-0.0,-0.0,0.0,-0.0,-0.0,0.0,0.0,-0.0,0.0
0.26,57.696233297771506,11.878981267937519,24.38933047672244,86.24863572644571,18.639780848274548,21.75617307772514,84.60903927512743,24.97414947073082,17.61715256969424,76.9784126386763,70.59706298682407,21.77645932743424,77.6755668795938,0.0,-0.0,-0.0,0.0,-0.0,-0.0,0.0,-0.0,-0.0,0.0,0.0,-0.0,0.0
0.27,57.696233297771506,11.878981267937519,24.38933047672244,86.24863572644571,18.639780848274548,21.75617307772514,84.60903927512743,24.97414947073082,17.61715256969424,76.9784126386763,70.59706298682407,21.77645932743424,77.6755668795938,0.0,-0.0,-0.0,0.0,-0.0,-0.0,0.0,-0.0,-0.0,0.0,0.0,-0.0,0.0
0.28,57.696233297771506,11.878981267937519,24.38933047672244,86.24863572644571,18.639780848274548,21.75617307772514,84.60903927512743,24.97414947073082,17.61715256969424,76.9784126386763,70.59706298682407,21.77645932743424,77.6755668795938,0.0,-0.0,-0.0,0.0,-0.0,-0.0,0.0,-0.0,-0.0,0.0,0.0,-0.0,0.0
0.29,57.696233297771506,11.878981267937519,24.38933047672244,86.24863572644571,18.639780848274548,21.75617307772514,84.60903927512743,24.97414947073082,17.61715256969424,76.9784126386763,70.59706298682407,21.77645932743424,77.6755668795938,0.0,-0.0,-0.0,0.0,-0.0,-0.0,0.0,-0.0,-0.0,0.0,0.0,-0.0,0.0
0.3,57.696233297771506,11.878981267937519,24.38933047672244,86.24863572644571,18.639780848274548,21.75617307772514,84.60903927512743,24.97414947073082,17.61715256969424,76.9784126386763,70.59706298682407,21.77645932743424,77.6755668795938,0.0,-0.0,-0.0,0.0,-0.0,-0.0,0.0,-0.0,-0.0,0.0,0.0,-0.0,0.0
0.31,57.696233297771506,11.878981267937519,24.38933047672244,86.24863572644571,18.639780848274548,21.75617307772514,84.60903927512743,24.97414947073082,17.61715256969424,76.9784126386763,70.59706298682407,21.77645932743424,77.6755668795938,0.0,-0.0,-0.0,0.0,-0.0,-0.0,0.0,-0.0,-0.0,0.0,0.0,-0.0,0.0
0.32,57.696233297771506,11.878981267937519,24.38933047672244,86.24863572644571,18.639780848274548,21.75617307772514,84.60903927512743,24.97414947073082,17.61715256969424,76.9784126386763,70.59706298682407,21.77645932743424,77.6755668795938,0.0,-0.0,-0.0,0.0,-0.0,-0.0,0.0,-0.0,-0.0,0.0,0.0,-0.0,0.0
0.33,57.696233297771506,11.878981267937519,24.38933047672244,86.24863572644571,18.639780848274548,21.75617307772514,84.60903927512743,24.97414947073082,17.61715256969424,76.9784126386763,70.59706298682407,21.77645932743424,77.6755668795938,0.0,-0.0,-0.0,0.0,-0.0,-0.0,0.0,-0.0,-0.0,0.0,0.0,-0.0,0.0
0.34,57.696233297771506,11.878981267937519,24.38933047672244,86.24863572644571,18.639780848274548,21.75617307772514,84.60903927512743,24.97414947073082,17.61715256969424,76.9784126386763,70.59706298682407,21.77645932743424,77.6755668795938,0.0,-0.0,-0.0,0.0,-0.0,-0.0,0.0,-0.0,-0.0,0.0,0.0,-0.0,0.0
0.35,57.696233297771506,11.878981267937519,24.38933047672244,86.24863572644571,18.639780848274548,21.75617307772514,84.60903927512743,24.97414947073082,17.61715256969424,76.9784126386763,70.59706298682407,21.77645932743424,77.6755668795938,0.0,-0.0,-0.0,0.0,-0.0,-0.0,0.0,-0.0,-0.0,0.0,0.0,-0.0,0.0
0.36,57.696233297771506,11.878981267937519,24.38933047672244,86.24863572644571,18.639780848274548,21.75617307772514,84.60903927512743,24.97414947073082,17.61715256969424,76.9784126386763,70.59706298682407,21.77645932743424,77.6755668795938,0.0,-0.0,-0.0,0.0,-0.0,-0.0,0.0,-0.0,-0.0,0.0,0.0,-0.0,0.0
0.37,57.696233297771506,11.878981267937519,24.38933047672244,86.24863572644571,18.639780848274548,21.75617307772514,84.60903927512743,24.97414947073082,17.61715256969424,76.9784126386763,70.59706298682407,21.77645932743424,77.6755668795938,0.0,-0.0,-0.0,0.0,-0.0,-0.0,0.0,-0.0,-0.0,0.0,0.0,-0.0,0.0
0.38,57.696233297771506,11.878981267937519,24.38933047672244,86.24863572644571,18.639780848274548,21.75617307772514,84.60903927512743,24.97414947073082,17.61715256969424,76.9784126386763,70.59706298682407,21.77645932743424,77.6755668795938,0.0,-0.0,-0.0,0.0,-0.0,-0.0,0.0,-0.0,-0.0,0.0,0.0,-0.0,0.0
0.39,57.696233297771506,11.878981267937519,24.38933047672244,86.24863572644571,18.639780848274548,21.75617307772514,84.60903927512743,24.97414947073082,17.61715256969424,76.9784126386763,70.59706298682407,21.77645932743424,77.6755668795938,0.0,-0.0,-0.0,0.0,-0.0,-0.0,0.0,-0.0,-0.0,0.0,0.0,-0.0,0.0
0.4,57.696233297771506,11.878981267937519,24.38933047672244,86.24863572644571,18.639780848274548,21.75617307772514,84.60903927512743,24.97414947073082,17.61715256969424,76.9784126386763,70.59706298682407,21.77645932743424,77.6755668795938,0.0,-0.0,-0.0,0.0,-0.0,-0.0,0.0,-0.0,-0.0,0.0,0.0,-0.0,0.0
0.41,57.696233297771506,11.878981267937519,24.38933047672244,86.24863572644571,18.639780848274548,21.75617307772514,84.60903927512743,24.97414947073082,17.61715256969424,76.9784126386763,70.59706298682407,21.77645932743424,77.6755668795938,0.0,-0.0,-0.0,0.0,-0.0,-0.0,0.0,-0.0,-0.0,0.0,0.0,-0.0,0.0
0.42,57.696233297771506,11.878981267937519,24.38933047672244,86.24863572644571,18.639780848274548,21.75617307772514,84.60903927512743,24.97414947073082,17.61715256969424,76.9784126386763,70.59706298682407,21.77645932743424,77.6755668795938,0.0,-0.0,-0.0,0.0,-0.0,-0.0,0.0,-0.0,-0.0,0.0,0.0,-0.0,0.0
0.43,57.696233297771506,11.878981267937519,24.38933047672244,86.24863572644571,18.639780848274548,21.75617307772514,84.60903927512743,24.97414947073082,17.61715256969424,76.9784126386763,70.59706298682407,21.77645932743424,77.6755668795938,0.0,-0.0,-0.0,0.0,-0.0,-0.0,0.0,-0.0,-0.0,0.0,0.0,-0.0,0.0
0.44,57.696233297771506,11.878981267937519,24.38933047672244,86.24863572644571,18.639780848274548,21.75617307772514,84.60903927512743,24.97414947073082,17.61715256969424,76.9784126386763,70.59706298682407,21.77645932743424,77.6755668795938,0.0,-0.0,-0.0,0.0,-0.0,-0.0,0.0,-0.0,-0.0,0.0,0.0,-0.0,0.0
0.45,57.696233297771506,11.878981267937519,24.38933047672244,86.24863572644571,18.639780848274548,21.75617307772514,84.60903927512743,24.97414947073082,17.61715256969424,76.9784126386763,70.59706298682407,21.77645932743424,77.6755668795938,0.0,-0.0,-0.0,0.0,-0.0,-0.0,0.0,-0.0,-0.0,0.0,0.0,-0.0,0.0
0.46,57.696233297771506,11.878981267937519,24.38933047672244,86.24863572644571,18.639780848274548,21.75617307772514,84.60903927512743,24.97414947073082,17.61715256969424,76.9784126386763,70.59706298682407,21.77645932743424,77.6755668795938,0.0,-0.0,-0.0,0.0,-0.0,-0.0,0.0,-0.0,-0.0,0.0,0.0,-0.0,0.0
0.47,57.696233297771506,11.878981267937519,24.38933047672244,86.24863572644571,18.639780848274548,21.75617307772514,84.60903927512743,24.97414947073082,17.61715256969424,76.9784126386763,70.59706298682407,21.77645932743424,77.6755668795938,0.0,-0.0,-0.0,0.0,-0.0,-0.0,0.0,-0.0,-0.0,0.0,0.0,-0.0,0.0
0.48,57.696233297771506,11.878981267937519,24.38933047672244,86.24863572644571,18.639780848274548,21.75617307772514,84.60903927512743,24.97414947073082,17.61715256969424,76.9784126386763,70.59706298682407,21.77645932743424,77.6755668795938,0.0,-0.0,-0.0,0.0,-0.0,-0.0,0.0,-0.0,-0.0,0.0,0.0,-0.0,0.0
0.49,57.696233297771506,11.878981267937519,24.38933047672244,86.24863572644571,18.639780848274548,21.75617307772514,84.60903927512743,24.97414947073082,17.61715256969424,76.9784126386763,70.59706298682407,21.77645932743424,77.6755668795938,0.0,-0.0,-0.0,0.0,-0.0,-0.0,0.0,-0.0,-0.0,0.0,0.0,-0.0,0.0
0.5,57.696233297771506,11.878981267937519,24.38933047672244,86.24863572644571,18.639780848274548,21.75617307772514,84.60903927512743,24.97414947073082,17.61715256969424,76.9784126386763,70.59706298682407,21.77645932743424,77.6755668795938,0.0,-0.0,-0.0,0.0,-0.0,-0.0,0.0,-0.0,-0.0,0.0,0.0,-0.0,0.0
0.51,57.696233297771506,11.878981267937519,24.38933047672244,86.24863572644571,18.639780848274548,21.75617307772514,84.60903927512743,24.97414947073082,17.61715256969424,76.9784126386763,70.59706298682407,21.77645932743424,77.6755668795938,0.0,-0.0,-0.0,0.0,-0.0,-0.0,0.0,-0.0,-0.0,0.0,0.0,-0.0,0.0
0.52,57.696233297771506,11.878981267937519,24.38933047672244,86.24863572644571,18.639780848274548,21.75617307772514,84.60903927512743,24.97414947073082,17.61715256969424,76.9784126386763,70.59706298682407,21.77645932743424,77.6755668795938,0.0,-0.0,-0.0,0.0,-0.0,-0.0,0.0,-0.0,-0.0,0.0,0.0,-0.0,0.0
0.53,57.696233297771506,11.878981267937519,24.38933047672244,86.24863572644571,18.639780848274548,21.75617307772514,84.60903927512743,61.00941039452691,17.61715256969424,76.9784126386763,70.59706298682407,21.77645932743424,77.6755668795938,0.0,-0.0,-0.0,0.0,-0.0,-0.0,0.0,0.0,-0.0,0.0,0.0,-0.0,0.0
0.54,57.696233297771506,11.878981267937519,24.38933047672244,86.24863572644571,18.639780848274548,21.75617307772514,84.60903927512743,61.00941039452691,17.61715256969424,76.9784126386763,70.59706298682407,21.77645932743424,77.6755668795938,0.0,-0.0,-0.0,0.0,-0.0,-0.0,0.0,0.0,-0.0,0.0,0.0,-0.0,0.0
0.55,57.696233297771506,11.878981267937519,24.38933047672244,86.24863572644571,18.639780848274548,21.75617307772514,84.60903927512743,61.00941039452691,17.61715256969424,76.9784126386763,70.59706298682407,21.77645932743424,77.6755668795938,0.0,-0.0,-0.0,0.0,-0.0,-0.0,0.0,0.0,-0.0,0.0,0.0,-0.0,0.0
0.56,57.696233297771506,11.878981267937519,24.38933047672244,86.24863572644571,18.639780848274548,21.75617307772514,84.60903927512743,61.00941039452691,17.61715256969424,76.9784126386763,70.59706298682407,21.77645932743424,77.6755668795938,0.0,-0.0,-0.0,0.0,-0.0,-0.0,0.0,0.0,-0.0,0.0,0.0,-0.0,0.0
0.57,57.696233297771506,11.878981267937519,24.38933047672244,86.24863572644571,18.639780848274548,21.75617307772514,84.60903927512743,61.00941039452691,17.61715256969424,76.9784126386763,70.59706298682407,21.77645932743424,77.6755668795938,0.0,-0.0,-0.0,0.0,-0.0,-0.0,0.0,0.0,-0.0,0.0,0.0,-0.0,0.0
0.58,57.696233297771506,11.878981267937519,24.38933047672244,86.24863572644571,18.639780848274548,21.75617307772514,84.60903927512743,61.00941039452691,17.61715256969424,76.9784126386763,70.59706298682407,21.77645932743424,77.6755668795938,0.0,-0.0,-0.0,0.0,-0.0,-0.0,0.0,0.0,-0.0,0.0,0.0,-0.0,0.0
0.59,57.696233297771506,11.878981267937519,24.38933047672244,86.24863572644571,18.639780848274548,21.75617307772514,84.60903927512743,61.00941039452691,17.61715256969424,76.9784126386763,70.59706298682407,21.77645932743424,77.6755668795938,0.0,-0.0,-0.0,0.0,-0.0,-0.0,0.0,0.0,-0.0,0.0,0.0,-0.0,0.0
0.6,57.696233297771506,11.878981267937519,24.38933047672244,86.24863572644571,18.639780848274548,21.75617307772514,84.60903927512743,61.00941039452691,17.61715256969424,76.9784126386763,70.59706298682407,21.77645932743424,77.6755668795938,0.0,-0.0,-0.0,0.0,-0.0,-0.0,0.0,0.0,-0.0,0.0,0.0,-0.0,0.0
0.61,57.696233297771506,11.878981267937519,24.38933047672244,86.24863572644571,18.639780848274548,21.75617307772514,84.60903927512743,61.00941039452691,17.61715256969424,76.9784126386763,70.59706298682407,21.77645932743424,77.6755668795938,0.0,-0.0,-0.0,0.0,-0.0,-0.0,0.0,0.0,-0.0,0.0,0.0,-0.0,0.0
0.62,57.696233297771506,11.878981267937519,24.38933047672244,86.24863572644571,18.639780848274548,21.75617307772514,84.60903927512743,61.00941039452691,17.61715256969424,76.9784126386763,70.59706298682407,21.77645932743424,77.6755668795938,0.0,-0.0,-0.0,0.0,-0.0,-0.0,0.0,0.0,-0.0,0.0,0.0,-0.0,0.0
0.63,57.696233297771506,11.878981267937519,24.38933047672244,86.24863572644571,18.639780848274548,21.75617307772514,84.60903927512743,61.00941039452691,17.61715256969424,76.9784126386763,70.59706298682407,21.77645932743424,77.6755668795938,0.0,-0.0,-0.0,0.0,-0.0,-0.0,0.0,0.0,-0.0,0.0,0.0,-0.0,0.0
0.64,57.696233297771506,11.878981267937519,24.38933047672244,86.24863572644571,18.639780848274548,21.75617307772514,84.60903927512743,61.00941039452691,17.61715256969424,76.9784126386763,70.59706298682407,21.77645932743424,77.6755668795938,0.0,-0.0,-0.0,0.0,-0.0,-0.0,0.0,0.0,-0.0,0.0,0.0,-0.0,0.0
0.65,57.696233297771506,11.878981267937519,24.38933047672244,86.24863572644571,18.639780848274548,21.75617307772514,84.60903927512743,61.00941039452691,17.61715256969424,76.9784126386763,70.59706298682407,21.77645932743424,77.6755668795938,0.0,-0.0,-0.0,0.0,-0.0,-0.0,0.0,0.0,-0.0,0.0,0.0,-0.0,0.0
0.66,57.696233297771506,11.878981267937519,24.38933047672244,86.24863572644571,18.639780848274548,21.75617307772514,84.60903927512743,61.00941039452691,17.61715256969424,76.9784126386763,70.59706298682407,21.77645932743424,77.6755668795938,0.0,-0.0,-0.0,0.0,-0.0,-0.0,0.0,0.0,-0.0,0.0,0.0,-0.0,0.0
0.67,57.696233297771506,11.878981267937519,24.38933047672244,86.24863572644571,18.639780848274548,21.75617307772514,84.60903927512743,61.00941039452691,17.61715256969424,76.9784126386763,70.59706298682407,21.77645932743424,77.6755668795938,0.0,-0.0,-0.0,0.0,-0.0,-0.0,0.0,0.0,-0.0,0.0,0.0,-0.0,0.0
0.68,57.696233297771506,11.878981267937519,24.38933047672244,86.24863572644571,18.639780848274548,21.75617307772514,84.60903927512743,61.00941039452691,17.61715256969424,76.9784126386763,70.59706298682407,21.77645932743424,77.6755668795938,0.0,-0.0,-0.0,0.0,-0.0,-0.0,0.0,0.0,-0.0,0.0,0.0,-0.0,0.0
0.69,57.696233297771506,11.878981267937519,24.38933047672244,86.24863572644571,18.639780848274548,21.75617307772514,84.60903927512743,61.00941039452691,17.61715256969424,76.9784126386763,70.59706298682407,21.77645932743424,77.6755668795938,0.0,-0.0,-0.0,0.0,-0.0,-0.0,0.0,0.0,-0.0,0.0,0.0,-0.0,0.0
0.7,57.696233297771506,11.878981267937519,24.38933047672244,86.24863572644571,18.639780848274548,21.75617307772514,84.60903927512743,61.00941039452691,17.61715256969424,76.9784126386763,70.59706298682407,21.77645932743424,77.6755668795938,0.0,-0.0,-0.0,0.0,-0.0,-0.0,0.0,0.0,-0.0,0.0,0.0,-0.0,0.0
0.71,57.696233297771506,11.878981267937519,24.38933047672244,86.24863572644571,18.639780848274548,21.75617307772514,84.60903927512743,61.00941039452691,17.61715256969424,76.9784126386763,70.59706298682407,21.77645932743424,77.6755668795938,0.0,-0.0,-0.0,0.0,-0.0,-0.0,0.0,0.0,-0.0,0.0,0.0,-0.0,0.0
0.72,57.696233297771506,11.878981267937519,24.38933047672244,86.24863572644571,18.639780848274548,21.75617307772514,84.60903927512743,61.00941039452691,17.61715256969424,76.9784126386763,70.59706298682407,21.77645932743424,77.6755668795938,0.0,-0.0,-0.0,0.0,-0.0,-0.0,0.0,0.0,-0.0,0.0,0.0,-0.0,0.0
0.73,57.696233297771506,11.878981267937519,24.38933047672244,86.24863572644571,18.639780848274548,21.75617307772514,84.60903927512743,61.00941039452691,17.61715256969424,76.9784126386763,70.59706298682407,21.77645932743424,77.6755668795938,0.0,-0.0,-0.0,0.0,-0.0,-0.0,0.0,0.0,-0.0,0.0,0.0,-0.0,0.0
0.74,57.696233297771506,11.878981267937519,24.38933047672244,86.24863572644571,18.639780848274548,21.75617307772514,84.60903927512743,61.00941039452691,50.321832286664105,76.9784126386763,70.59706298682407,21.77645932743424,77.6755668795938,0.0,-0.0,-0.0,0.0,-0.0,-0.0,0.0,0.0,0.0,0.0,0.0,-0.0,0.0
0.75,57.696233297771506,11.878981267937519,24.38933047672244,86.24863572644571,18.639780848274548,21.75617307772514,84.60903927512743,61.00941039452691,50.321832286664105,76.9784126386763,70.59706298682407,21.77645932743424,77.6755668795938,0.0,-0.0,-0.0,0.0,-0.0,-0.0,0.0,0.0,0.0,0.0,0.0,-0.0,0.0
0.76,57.696233297771506,11.878981267937519,24.38933047672244,86.24863572644571,18.639780848274548,21.75617307772514,84.60903927512743,61.00941039452691,50.321832286664105,76.9784126386763,70.59706298682407,21.77645932743424,77.6755668795938,0.0,-0.0,-0.0,0.0,-0.0,-0.0,0.0,0.0,0.0,0.0,0.0,-0.0,0.0
0.77,57.696233297771506,11.878981267937519,24.38933047672244,86.24863572644571,18.639780848274548,21.75617307772514,84.60903927512743,61.00941039452691,50.321832286664105,76.9784126386763,70.59706298682407,21.77645932743424,77.6755668795938,0.0,-0.0,-0.0,0.0,-0.0,-0.0,0.0,0.0,0.0,0.0,0.0,-0.0,0.0
0.78,57.696233297771506,11.878981267937519,24.38933047672244,86.24863572644571,18.639780848274548,21.75617307772514,84.60903927512743,61.00941039452691,50.321832286664105,76.9784126386763,70.59706298682407,21.77645932743424,77.6755668795938,0.0,-0.0,-0.0,0.0,-0.0,-0.0,0.0,0.0,0.0,0.0,0.0,-0.0,0.0
0.79,57.696233297771506,11.878981267937519,24.38933047672244,86.24863572644571,18.639780848274548,21.75617307772514,84.60903927512743,61.00941039452691,50.321832286664105,73.57219482403627,70.59706298682407,21.77645932743424,77.6755668795938,0.0,-0.0,-0.0,0.0,-0.0,-0.0,0.0,0.0,0.0,-0.0,0.0,-0.0,0.0
0.8,57.696233297771506,11.878981267937519,24.38933047672244,86.24863572644571,18.639780848274548,21.75617307772514,84.60903927512743,61.00941039452691,50.321832286664105,73.57219482403627,70.59706298682407,21.77645932743424,77.6755668795938,0.0,-0.0,-0.0,0.0,-0.0,-0.0,0.0,0.0,0.0,-0.0,0.0,-0.0,0.0
0.81,57.696233297771506,11.878981267937519,24.38933047672244,86.24863572644571,24.337794850105034,21.75617307772514,84.60903927512743,61.00941039452691,50.321832286664105,73.57219482403627,70.59706298682407,21.77645932743424,77.6755668795938,0.0,-0.0,-0.0,0.0,0.0,-0.0,0.0,0.0,0.0,-0.0,0.0,-0.0,0.0
0.82,57.696233297771506,11.878981267937519,24.38933047672244,86.24863572644571,24.337794850105034,21.75617307772514,84.60903927512743,61.00941039452691,50.321832286664105,73.57219482403627,70.59706298682407,21.77645932743424,77.6755668795938,0.0,-0.0,-0.0,0.0,0.0,-0.0,0.0,0.0,0.0,-0.0,0.0,-0.0,0.0
0.83,57.696233297771506,11.878981267937519,24.38933047672244,86.24863572644571,24.337794850105034,21.75617307772514,84.60903927512743,61.00941039452691,50.321832286664105,73.57219482403627,70.59706298682407,21.77645932743424,77.6755668795938,0.0,-0.0,-0.0,0.0,0.0,-0.0,0.0,0.0,0.0,-0.0,0.0,-0.0,0.0
0.84,57.696233297771506,11.878981267937519,24.38933047672244,86.24863572644571,24.337794850105034,21.75617307772514,84.60903927512743,61.00941039452691,50.321832286664105,73.57219482403627,70.59706298682407,21.77645932743424,77.6755668795938,0.0,-0.0,-0.0,0.0,0.0,-0.0,0.0,0.0,0.0,-0.0,0.0,-0.0,0.0
0.85,57.696233297771506,11.878981267937519,24.38933047672244,86.24863572644571,24.337794850105034,21.75617307772514,52.879108392237335,61.00941039452691,50.321832286664105,73.57219482403627,70.59706298682407,21.77645932743424,77.6755668795938,0.0,-0.0,-0.0,0.0,0.0,-0.0,-0.0,0.0,0.0,-0.0,0.0,-0.0,0.0
0.86,57.696233297771506,11.878981267937519,24.38933047672244,86.24863572644571,24.337794850105034,21.75617307772514,52.879108392237335,61.00941039452691,50.321832286664105,73.57219482403627,70.59706298682407,21.77645932743424,77.6755668795938,0.0,-0.0,-0.0,0.0,0.0,-0.0,-0.0,0.0,0.0,-0.0,0.0,-0.0,0.0
0.87,57.696233297771506,11.878981267937519,24.38933047672244,86.24863572644571,24.337794850105034,21.75617307772514,52.879108392237335,61.00941039452691,50.321832286664105,73.57219482403627,70.59706298682407,21.77645932743424,77.6755668795938,0.0,-0.0,-0.0,0.0,0.0,-0.0,-0.0,0.0,0.0,-0.0,0.0,-0.0,0.0
0.88,57.696233297771506,11.878981267937519,24.38933047672244,86.24863572644571,24.337794850105034,21.75617307772514,52.879108392237335,61.00941039452691,50.321832286664105,73.57219482403627,70.59706298682407,21.77645932743424,77.6755668795938,0.0,-0.0,-0.0,0.0,0.0,-0.0,-0.0,0.0,0.0,-0.0,0.0,-0.0,0.0
0.89,57.696233297771506,11.878981267937519,24.38933047672244,86.24863572644571,24.337794850105034,21.75617307772514,52.879108392237335,61.00941039452691,50.321832286664105,73.57219482403627,70.59706298682407,21.77645932743424,77.6755668795938,0.0,-0.0,-0.0,0.0,0.0,-0.0,-0.0,0.0,0.0,-0.0,0.0,-0.0,0.0
0.9,57.696233297771506,11.878981267937519,24.38933047672244,86.24863572644571,24.337794850105034,21.75617307772514,52.879108392237335,61.00941039452691,50.321832286664105,73.57219482403627,70.59706298682407,21.77645932743424,77.6755668795938,0.0,-0.0,-0.0,0.0,0.0,-0.0,-0.0,0.0,0.0,-0.0,0.0,-0.0,0.0
0.91,57.696233297771506,11.878981267937519,24.38933047672244,86.24863572644571,24.337794850105034,21.75617307772514,52.879108392237335,61.00941039452691,50.321832286664105,73.57219482403627,70.59706298682407,21.77645932743424,77.6755668795938,0.0,-0.0,-0.0,0.0,0.0,-0.0,-0.0,0.0,0.0,-0.0,0.0,-0.0,0.0
0.92,57.696233297771506,11.878981267937519,24.38933047672244,86.24863572644571,24.337794850105034,21.75617307772514,52.879108392237335,61.00941039452691,50.321832286664105,73.57219482403627,70.59706298682407,21.77645932743424,77.6755668795938,0.0,-0.0,-0.0,0.0,0.0,-0.0,-0.0,0.0,0.0,-0.0,0.0,-0.0,0.0
0.93,57.696233297771506,11.878981267937519,24.38933047672244,86.24863572644571,24.337794850105034,21.75617307772514,52.879108392237335,61.00941039452691,50.321832286664105,73.57219482403627,70.59706298682407,21.77645932743424,77.6755668795938,0.0,-0.0,-0.0,0.0,0.0,-0.0,-0.0,0.0,0.0,-0.0,0.0,-0.0,0.0
0.94,57.696233297771506,11.878981267937519,24.38933047672244,86.24863572644571,24.337794850105034,21.75617307772514,52.879108392237335,61.00941039452691,50.321832286664105,73.57219482403627,70.59706298682407,21.77645932743424,77.6755668795938,0.0,-0.0,-0.0,0.0,0.0,-0.0,-0.0,0.0,0.0,-0.0,0.0,-0.0,0.0
0.95,57.696233297771506,11.878981267937519,24.38933047672244,86.24863572644571,24.337794850105034,21.75617307772514,52.879108392237335,61.00941039452691,50.321832286664105,73.57219482403627,70.59706298682407,21.77645932743424,77.6755668795938,0.0,-0.0,-0.0,0.0,0.0,-0.0,-0.0,0.0,0.0,-0.0,0.0,-0.0,0.0
0.96,57.696233297771506,11.878981267937519,11.637296584919628,86.24863572644571,24.337794850105034,21.75617307772514,52.879108392237335,61.00941039452691,50.321832286664105,73.57219482403627,70.59706298682407,21.77645932743424,77.6755668795938,0.0,-0.0,-0.0,0.0,0.0,-0.0,-0.0,0.0,0.0,-0.0,0.0,-0.0,0.0
0.97,57.696233297771506,11.878981267937519,11.637296584919628,86.24863572644571,24.337794850105034,21.75617307772514,52.879108392237335,61.00941039452691,50.321832286664105,73.57219482403627,70.59706298682407,21.77645932743424,77.6755668795938,0.0,-0.0,-0.0,0.0,0.0,-0.0,-0.0,0.0,0.0,-0.0,0.0,-0.0,0.0
0.98,57.696233297771506,11.878981267937519,11.637296584919628,86.24863572644571,24.337794850105034,21.75617307772514,52.879108392237335,61.00941039452691,50.321832286664105,73.57219482403627,70.59706298682407,21.77645932743424,77.6755668795938,0.0,-0.0,-0.0,0.0,0.0,-0.0,-0.0,0.0,0.0,-0.0,0.0,-0.0,0.0
0.99,57.696233297771506,11.878981267937519,11.637296584919628,86.24863572644571,24.337794850105034,21.75617307772514,52.879108392237335,61.00941039452691,50.321832286664105,73.57219482403627,70.59706298682407,21.77645932743424,77.6755668795938,0.0,-0.0,-0.0,0.0,0.0,-0.0,-0.0,0.0,0.0,-0.0,0.0,-0.0,0.0
1.0,57.696233297771506,11.878981267937519,11.637296584919628,86.24863572644571,24.337794850105034,21.75617307772514,52.879108392237335,61.00941039452691,50.321832286664105,73.57219482403627,70.59706298682407,21.77645932743424,77.6755668795938,0.0,-0.0,-0.0,0.0,0.0,-0.0,-0.0,0.0,0.0,-0.0,0.0,-0.0,0.0
1.01,57.696233297771506,11.878981267937519,11.637296584919628,86.24863572644571,24.337794850105034,21.75617307772514,52.879108392237335,61.00941039452691,50.321832286664105,73.57219482403627,70.59706298682407,21.77645932743424,77.6755668795938,0.0,-0.0,-0.0,0.0,0.0,-0.0,-0.0,0.0,0.0,-0.0,0.0,-0.0,0.0
1.02,57.696233297771506,11.878981267937519,11.637296584919628,86.24863572644571,24.337794850105034,21.75617307772514,52.879108392237335,61.00941039452691,50.321832286664105,73.57219482403627,70.59706298682407,21.77645932743424,77.6755668795938,0.0,-0.0,-0.0,0.0,0.0,-0.0,-0.0,0.0,0.0,-0.0,0.0,-0.0,0.0
1.03,57.696233297771506,11.878981267937519,11.637296584919628,86.24863572644571,24.337794850105034,21.75617307772514,52.879108392237335,61.00941039452691,50.321832286664105,73.57219482403627,70.59706298682407,21.77645932743424,77.6755668795938,0.0,-0.0,-0.0,0.0,0.0,-0.0,-0.0,0.0,0.0,-0.0,0.0,-0.0,0.0
1.04,57.696233297771506,11.878981267937519,11.637296584919628,86.24863572644571,24.337794850105034,21.75617307772514,52.879108392237335,61.00941039452691,50.321832286664105,73.57219482403627,70.59706298682407,21.77645932743424,77.6755668795938,0.0,-0.0,-0.0,0.0,0.0,-0.0,-0.0,0.0,0.0,-0.0,0.0,-0.0,0.0
1.05,57.696233297771506,11.878981267937519,11.637296584919628,86.24863572644571,24.337794850105034,21.75617307772514,52.879108392237335,61.00941039452691,50.321832286664105,73.57219482403627,70.59706298682407,21.77645932743424,77.6755668795938,0.0,-0.0,-0.0,0.0,0.0,-0.0,-0.0,0.0,0.0,-0.0,0.0,-0.0,0.0
1.06,57.696233297771506,11.878981267937519,11.637296584919628,86.24863572644571,24.337794850105034,21.75617307772514,52.879108392237335,61.00941039452691,50.321832286664105,73.57219482403627,70.59706298682407,21.77645932743424,77.6755668795938,0.0,-0.0,-0.0,0.0,0.0,-0.0,-0.0,0.0,0.0,-0.0,0.0,-0.0,0.0
1.07,57.696233297771506,11.878981267937519,11.637296584919628,86.24863572644571,24.337794850105034,21.75617307772514,52.879108392237335,61.00941039452691,50.321832286664105,73.57219482403627,70.59706298682407,21.77645932743424,77.6755668795938,0.0,-0.0,-0.0,0.0,0.0,-0.0,-0.0,0.0,0.0,-0.0,0.0,-0.0,0.0
1.08,57.696233297771506,11.878981267937519,11.637296584919628,86.24863572644571,24.337794850105034,44.060965114419204,52.879108392237335,61.00941039452691,50.321832286664105,73.57219482403627,70.59706298682407,21.77645932743424,77.6755668795938,0.0,-0.0,-0.0,0.0,0.0,0.0,-0.0,0.0,0.0,-0.0,0.0,-0.0,0.0
1.09,57.696233297771506,11.878981267937519,11.637296584919628,86.24863572644571,24.337794850105034,44.060965114419204,52.879108392237335,61.00941039452691,50.321832286664105,73.57219482403627,70.59706298682407,53.42675874410574,77.6755668795938,0.0,-0.0,-0.0,0.0,0.0,0.0,-0.0,0.0,0.0,-0.0,0.0,0.0,0.0
1.1,57.696233297771506,11.878981267937519,11.637296584919628,86.24863572644571,24.337794850105034,44.060965114419204,52.879108392237335,61.00941039452691,50.321832286664105,73.57219482403627,70.59706298682407,53.42675874410574,77.6755668795938,0.0,-0.0,-0.0,0.0,0.0,0.0,-0.0,0.0,0.0,-0.0,0.0,0.0,0.0
1.11,57.696233297771506,11.878981267937519,11.637296584919628,86.24863572644571,24.337794850105034,44.060965114419204,52.879108392237335,61.00941039452691,50.321832286664105,73.57219482403627,70.59706298682407,53.42675874410574,90.71997718095818,0.0,-0.0,-0.0,0.0,0.0,0.0,-0.0,0.0,0.0,-0.0,0.0,0.0,0.0
1.12,57.696233297771506,11.878981267937519,11.637296584919628,86.24863572644571,24.337794850105034,44.060965114419204,52.879108392237335,61.00941039452691,50.321832286664105,73.57219482403627,70.59706298682407,53.42675874410574,90.71997718095818,0.0,-0.0,-0.0,0.0,0.0,0.0,-0.0,0.0,0.0,-0.0,0.0,0.0,0.0
1.13,57.696233297771506,11.878981267937519,11.637296584919628,86.24863572644571,24.337794850105034,44.060965114419204,52.879108392237335,61.00941039452691,50.321832286664105,73.57219482403627,70.59706298682407,53.42675874410574,90.71997718095818,0.0,-0.0,-0.0,0.0,0.0,0.0,-0.0,0.0,0.0,-0.0,0.0,0.0,0.0
1.14,43.1970128467183,11.878981267937519,11.637296584919628,86.24863572644571,24.337794850105034,44.060965114419204,52.879108392237335,61.00941039452691,50.321832286664105,73.57219482403627,70.59706298682407,53.42675874410574,90.71997718095818,-0.0,-0.0,-0.0,0.0,0.0,0.0,-0.0,0.0,0.0,-0.0,0.0,0.0,0.0
1.15,43.1970128467183,11.878981267937519,11.637296584919628,86.24863572644571,24.337794850105034,44.060965114419204,52.879108392237335,61.00941039452691,50.321832286664105,73.57219482403627,70.59706298682407,53.42675874410574,90.71997718095818,-0.0,-0.0,-0.0,0.0,0.0,0.0,-0.0,0.0,0.0,-0.0,0.0,0.0,0.0
1.16,43.1970128467183,11.878981267937519,11.637296584919628,86.24863572644571,24.337794850105034,44.060965114419204,52.879108392237335,61.00941039452691,50.321832286664105,73.57219482403627,70.59706298682407,53.42675874410574,90.71997718095818,-0.0,-0.0,-0.0,0.0,0.0,0.0,-0.0,0.0,0.0,-0.0,0.0,0.0,0.0
1.17,43.1970128467183,11.878981267937519,11.637296584919628,86.24863572644571,24.337794850105034,44.060965114419204,52.879108392237335,61.00941039452691,50.321832286664105,73.57219482403627,70.59706298682407,53.42675874410574,90.71997718095818,-0.0,-0.0,-0.0,0.0,0.0,0.0,-0.0,0.0,0.0,-0.0,0.0,0.0,0.0
1.18,43.1970128467183,11.878981267937519,11.637296584919628,86.24863572644571,24.337794850105034,44.060965114419204,52.879108392237335,61.00941039452691,50.321832286664105,73.57219482403627,70.59706298682407,53.42675874410574,90.71997718095818,-0.0,-0.0,-0.0,0.0,0.0,0.0,-0.0,0.0,0.0,-0.0,0.0,0.0,0.0
1.19,43.1970128467183,11.878981267937519,11.637296584919628,86.24863572644571,24.337794850105034,44.060965114419204,52.879108392237335,61.00941039452691,50.321832286664105,73.57219482403627,70.59706298682407,53.42675874410574,90.71997718095818,-0.0,-0.0,-0.0,0.0,0.0,0.0,-0.0,0.0,0.0,-0.0,0.0,0.0,0.0
1.2,43.1970128467183,11.878981267937519,11.637296584919628,86.24863572644571,24.337794850105034,44.060965114419204,52.879108392237335,61.00941039452691,50.321832286664105,73.57219482403627,70.59706298682407,53.42675874410574,90.71997718095818,-0.0,-0.0,-0.0,0.0,0.0,0.0,-0.0,0.0,0.0,-0.0,0.0,0.0,0.0
1.21,43.1970128467183,11.878981267937519,11.637296584919628,86.24863572644571,24.337794850105034,44.060965114419204,52.879108392237335,61.00941039452691,50.321832286664105,73.57219482403627,70.59706298682407,53.42675874410574,90.71997718095818,-0.0,-0.0,-0.0,0.0,0.0,0.0,-0.0,0.0,0.0,-0.0,0.0,0.0,0.0
1.22,43.1970128467183,11.878981267937519,11.637296584919628,86.24863572644571,24.337794850105034,44.060965114419204,52.879108392237335,61.00941039452691,50.321832286664105,73.57219482403627,70.59706298682407,53.42675874410574,90.71997718095818,-0.0,-0.0,-0.0,0.0,0.0,0.0,-0.0,0.0,0.0,-0.0,0.0,0.0,0.0
1.23,43.1970128467183,11.878981267937519,11.637296584919628,86.24863572644571,24.337794850105034,44.060965114419204,52.879108392237335,61.00941039452691,50.321832286664105,73.57219482403627,70.59706298682407,53.42675874410574,90.71997718095818,-0.0,-0.0,-0.0,0.0,0.0,0.0,-0.0,0.0,0.0,-0.0,0.0,0.0,0.0
1.24,43.1970128467183,11.878981267937519,11.637296584919628,86.24863572644571,24.337794850105034,44.060965114419204,52.879108392237335,61.00941039452691,50.321832286664105,73.57219482403627,70.59706298682407,53.42675874410574,90.71997718095818,-0.0,-0.0,-0.0,0.0,0.0,0.0,-0.0,0.0,0.0,-0.0,0.0,0.0,0.0
1.25,43.1970128467183,11.878981267937519,11.637296584919628,86.24863572644571,24.337794850105034,44.060965114419204,52.879108392237335,61.00941039452691,50.321832286664105,73.57219482403627,70.59706298682407,53.42675874410574,90.71997718095818,-0.0,-0.0,-0.0,0.0,0.0,0.0,-0.0,0.0,0.0,-0.0,0.0,0.0,0.0
1.26,43.1970128467183,11.878981267937519,11.637296584919628,86.24863572644571,24.337794850105034,44.060965114419204,52.879108392237335,61.00941039452691,50.321832286664105,73.57219482403627,70.59706298682407,53.42675874410574,90.71997718095818,-0.0,-0.0,-0.0,0.0,0.0,0.0,-0.0,0.0,0.0,-0.0,0.0,0.0,0.0
1.27,43.1970128467183,11.878981267937519,11.637296584919628,86.24863572644571,24.337794850105034,44.060965114419204,52.879108392237335,61.00941039452691,50.321832286664105,73.57219482403627,70.59706298682407,53.42675874410574,90.71997718095818,-0.0,-0.0,-0.0,0.0,0.0,0.0,-0.0,0.0,0.0,-0.0,0.0,0.0,0.0
1.28,43.1970128467183,11.878981267937519,11.637296584919628,86.24863572644571,24.337794850105034,44.060965114419204,52.879108392237335,61.00941039452691,50.321832286664105,73.57219482403627,70.59706298682407,53.42675874410574,90.71997718095818,-0.0,-0.0,-0.0,0.0,0.0,0.0,-0.0,0.0,0.0,-0.0,0.0,0.0,0.0
1.29,43.1970128467183,11.878981267937519,11.637296584919628,86.24863572644571,24.337794850105034,44.060965114419204,52.879108392237335,61.00941039452691,50.321832286664105,73.57219482403627,70.59706298682407,53.42675874410574,90.71997718095818,-0.0,-0.0,-0.0,0.0,0.0,0.0,-0.0,0.0,0.0,-0.0,0.0,0.0,0.0
1.3,43.1970128467183,11.878981267937519,11.637296584919628,86.24863572644571,24.337794850105034,44.060965114419204,52.879108392237335,61.00941039452691,50.321832286664105,73.57219482403627,70.59706298682407,53.42675874410574,90.71997718095818,-0.0,-0.0,-0.0,0.0,0.0,0.0,-0.0,0.0,0.0,-0.0,0.0,0.0,0.0
1.31,43.1970128467183,11.878981267937519,11.637296584919628,86.24863572644571,24.337794850105034,44.060965114419204,52.879108392237335,61.00941039452691,50.321832286664105,73.57219482403627,70.59706298682407,53.42675874410574,90.71997718095818,-0.0,-0.0,-0.0,0.0,0.0,0.0,-0.0,0.0,0.0,-0.0,0.0,0.0,0.0
1.32,43.1970128467183,11.878981267937519,11.637296584919628,86.24863572644571,24.337794850105034,44.060965114419204,52.879108392237335,61.00941039452691,50.321832286664105,73.57219482403627,70.59706298682407,53.42675874410574,90.71997718095818,-0.0,-0.0,-0.0,0.0,0.0,0.0,-0.0,0.0,0.0,-0.0,0.0,0.0,0.0
1.33,43.1970128467183,11.878981267937519,11.637296584919628,86.24863572644571,24.337794850105034,44.060965114419204,52.879108392237335,61.00941039452691,50.321832286664105,73.57219482403627,70.59706298682407,53.42675874410574,90.71997718095818,-0.0,-0.0,-0.0,0.0,0.0,0.0,-0.0,0.0,0.0,-0.0,0.0,0.0,0.0
1.34,43.1970128467183,11.878981267937519,11.637296584919628,86.24863572644571,24.337794850105034,44.060965114419204,52.879108392237335,61.00941039452691,50.321832286664105,73.57219482403627,49.859156477003836,53.42675874410574,90.71997718095818,-0.0,-0.0,-0.0,0.0,0.0,0.0,-0.0,0.0,0.0,-0.0,-0.0,0.0,0.0
1.35,43.1970128467183,11.878981267937519,11.637296584919628,86.24863572644571,24.337794850105034,44.060965114419204,90.75918243997882,61.00941039452691,50.321832286664105,73.57219482403627,49.859156477003836,53.42675874410574,90.71997718095818,-0.0,-0.0,-0.0,0.0,0.0,0.0,0.0,0.0,0.0,-0.0,-0.0,0.0,0.0
1.36,43.1970128467183,11.878981267937519,11.637296584919628,86.24863572644571,24.337794850105034,44.060965114419204,90.75918243997882,61.00941039452691,50.321832286664105,73.57219482403627,49.859156477003836,53.42675874410574,90.71997718095818,-0.0,-0.0,-0.0,0.0,0.0,0.0,0.0,0.0,0.0,-0.0,-0.0,0.0,0.0
1.37,43.1970128467183,11.878981267937519,11.637296584919628,86.24863572644571,24.337794850105034,44.060965114419204,90.75918243997882,61.00941039452691,50.321832286664105,73.57219482403627,49.859156477003836,53.42675874410574,90.71997718095818,-0.0,-0.0,-0.0,0.0,0.0,0.0,0.0,0.0,0.0,-0.0,-0.0,0.0,0.0
1.38,43.1970128467183,11.878981267937519,11.637296584919628,86.24863572644571,24.337794850105034,44.060965114419204,90.75918243997882,61.00941039452691,50.321832286664105,73.57219482403627,49.859156477003836,53.42675874410574,90.71997718095818,-0.0,-0.0,-0.0,0.0,0.0,0.0,0.0,0.0,0.0,-0.0,-0.0,0.0,0.0
1.39,43.1970128467183,11.878981267937519,11.637296584919628,86.24863572644571,24.337794850105034,44.060965114419204,90.75918243997882,61.00941039452691,50.321832286664105,73.57219482403627,49.859156477003836,53.42675874410574,90.71997718095818,-0.0,-0.0,-0.0,0.0,0.0,0.0,0.0,0.0,0.0,-0.0,-0.0,0.0,0.0
1.4,43.1970128467183,11.878981267937519,11.637296584919628,86.24863572644571,24.337794850105034,44.060965114419204,90.75918243997882,61.00941039452691,50.321832286664105,73.57219482403627,49.859156477003836,53.42675874410574,90.71997718095818,-0.0,-0.0,-0.0,0.0,0.0,0.0,0.0,0.0,0.0,-0.0,-0.0,0.0,0.0
1.41,43.1970128467183,11.878981267937519,11.637296584919628,86.24863572644571,24.337794850105034,44.060965114419204,90.75918243997882,61.00941039452691,50.321832286664105,73.57219482403627,49.859156477003836,53.42675874410574,90.71997718095818,-0.0,-0.0,-0.0,0.0,0.0,0.0,0.0,0.0,0.0,-0.0,-0.0,0.0,0.0
1.42,43.1970128467183,11.878981267937519,11.637296584919628,86.24863572644571,24.337794850105034,44.060965114419204,90.75918243997882,61.00941039452691,50.321832286664105,73.57219482403627,49.859156477003836,53.42675874410574,90.71997718095818,-0.0,-0.0,-0.0,0.0,0.0,0.0,0.0,0.0,0.0,-0.0,-0.0,0.0,0.0
1.43,43.1970128467183,11.878981267937519,11.637296584919628,86.24863572644571,24.337794850105034,44.060965114419204,90.75918243997882,61.00941039452691,50.321832286664105,73.57219482403627,49.859156477003836,53.42675874410574,90.71997718095818,-0.0,-0.0,-0.0,0.0,0.0,0.0,0.0,0.0,0.0,-0.0,-0.0,0.0,0.0
1.44,43.1970128467183,11.878981267937519,11.637296584919628,86.24863572644571,24.337794850105034,44.060965114419204,90.75918243997882,61.00941039452691,50.321832286664105,73.57219482403627,49.859156477003836,53.42675874410574,90.71997718095818,-0.0,-0.0,-0.0,0.0,0.0,0.0,0.0,0.0,0.0,-0.0,-0.0,0.0,0.0
1.45,43.1970128467183,11.878981267937519,11.637296584919628,86.24863572644571,24.337794850105034,44.060965114419204,90.75918243997882,61.00941039452691,50.321832286664105,73.57219482403627,49.859156477003836,53.42675874410574,90.71997718095818,-0.0,-0.0,-0.0,0.0,0.0,0.0,0.0,0.0,0.0,-0.0,-0.0,0.0,0.0
1.46,43.1970128467183,42.302053263994004,11.637296584919628,86.24863572644571,24.337794850105034,44.060965114419204,90.75918243997882,61.00941039452691,50.321832286664105,73.57219482403627,49.859156477003836,53.42675874410574,90.71997718095818,-0.0,0.0,-0.0,0.0,0.0,0.0,0.0,0.0,0.0,-0.0,-0.0,0.0,0.0
1.47,43.1970128467183,42.302053263994004,11.637296584919628,86.24863572644571,24.337794850105034,44.060965114419204,90.75918243997882,61.00941039452691,50.321832286664105,73.57219482403627,49.859156477003836,53.42675874410574,90.71997718095818,-0.0,0.0,-0.0,0.0,0.0,0.0,0.0,0.0,0.0,-0.0,-0.0,0.0,0.0
1.48,43.1970128467183,42.302053263994004,11.637296584919628,86.24863572644571,24.337794850105034,44.060965114419204,90.75918243997882,61.00941039452691,50.321832286664105,73.57219482403627,49.859156477003836,53.42675874410574,90.71997718095818,-0.0,0.0,-0.0,0.0,0.0,0.0,0.0,0.0,0.0,-0.0,-0.0,0.0,0.0
1.49,43.1970128467183,42.302053263994004,11.637296584919628,64.65129446888128,24.337794850105034,44.060965114419204,90.75918243997882,61.00941039452691,50.321832286664105,73.57219482403627,49.859156477003836,53.42675874410574,90.71997718095818,-0.0,0.0,-0.0,-0.0,0.0,0.0,0.0,0.0,0.0,-0.0,-0.0,0.0,0.0
1.5,43.1970128467183,42.302053263994004,11.637296584919628,64.65129446888128,24.337794850105034,44.060965114419204,90.75918243997882,61.00941039452691,50.321832286664105,73.57219482403627,49.859156477003836,53.42675874410574,90.71997718095818,-0.0,0.0,-0.0,-0.0,0.0,0.0,0.0,0.0,0.0,-0.0,-0.0,0.0,0.0
1.51,43.1970128467183,42.302053263994004,11.637296584919628,64.65129446888128,24.337794850105034,44.060965114419204,90.75918243997882,61.00941039452691,50.321832286664105,73.57219482403627,49.859156477003836,53.42675874410574,90.71997718095818,-0.0,0.0,-0.0,-0.0,0.0,0.0,0.0,0.0,0.0,-0.0,-0.0,0.0,0.0
1.52,43.1970128467183,42.302053263994004,11.637296584919628,64.65129446888128,24.337794850105034,44.060965114419204,90.75918243997882,61.00941039452691,50.321832286664105,73.57219482403627,49.859156477003836,53.42675874410574,90.71997718095818,-0.0,0.0,-0.0,-0.0,0.0,0.0,0.0,0.0,0.0,-0.0,-0.0,0.0,0.0
1.53,43.1970128467183,42.302053263994004,11.637296584919628,64.65129446888128,24.337794850105034,44.060965114419204,90.75918243997882,61.00941039452691,50.321832286664105,73.57219482403627,49.859156477003836,53.42675874410574,90.71997718095818,-0.0,0.0,-0.0,-0.0,0.0,0.0,0.0,0.0,0.0,-0.0,-0.0,0.0,0.0
1.54,43.1970128467183,42.302053263994004,11.637296584919628,64.65129446888128,24.337794850105034,44.060965114419204,90.75918243997882,61.00941039452691,50.321832286664105,73.57219482403627,49.859156477003836,53.42675874410574,90.71997718095818,-0.0,0.0,-0.0,-0.0,0.0,0.0,0.0,0.0,0.0,-0.0,-0.0,0.0,0.0
1.55,43.1970128467183,42.302053263994004,11.637296584919628,64.65129446888128,24.337794850105034,44.060965114419204,90.75918243997882,61.00941039452691,50.321832286664105,73.57219482403627,49.859156477003836,53.42675874410574,90.71997718095818,-0.0,0.0,-0.0,-0.0,0.0,0.0,0.0,0.0,0.0,-0.0,-0.0,0.0,0.0
1.56,43.1970128467183,42.302053263994004,11.637296584919628,64.65129446888128,24.337794850105034,44.060965114419204,90.75918243997882,61.00941039452691,50.321832286664105,73.57219482403627,49.859156477003836,53.42675874410574,90.71997718095818,-0.0,0.0,-0.0,-0.0,0.0,0.0,0.0,0.0,0.0,-0.0,-0.0,0.0,0.0
1.57,43.1970128467183,42.302053263994004,11.637296584919628,64.65129446888128,24.337794850105034,44.060965114419204,90.75918243997882,61.00941039452691,50.321832286664105,73.57219482403627,49.859156477003836,53.42675874410574,90.71997718095818,-0.0,0.0,-0.0,-0.0,0.0,0.0,0.0,0.0,0.0,-0.0,-0.0,0.0,0.0
1.58,43.1970128467183,42.302053263994004,11.637296584919628,64.65129446888128,24.337794850105034,44.060965114419204,90.75918243997882,61.00941039452691,50.321832286664105,73.57219482403627,49.859156477003836,53.42675874410574,90.71997718095818,-0.0,0.0,-0.0,-0.0,0.0,0.0,0.0,0.0,0.0,-0.0,-0.0,0.0,0.0
1.59,43.1970128467183,42.302053263994004,11.637296584919628,64.65129446888128,24.337794850105034,44.060965114419204,90.75918243997882,61.00941039452691,50.321832286664105,73.57219482403627,49.859156477003836,53.42675874410574,90.71997718095818,-0.0,0.0,-0.0,-0.0,0.0,0.0,0.0,0.0,0.0,-0.0,-0.0,0.0,0.0
1.6,43.1970128467183,42.302053263994004,11.637296584919628,64.65129446888128,24.337794850105034,44.060965114419204,90.75918243997882,61.00941039452691,50.321832286664105,73.57219482403627,49.859156477003836,53.42675874410574,90.71997718095818,-0.0,0.0,-0.0,-0.0,0.0,0.0,0.0,0.0,0.0,-0.0,-0.0,0.0,0.0
1.61,43.1970128467183,42.302053263994004,11.637296584919628,64.65129446888128,24.337794850105034,44.060965114419204,90.75918243997882,61.00941039452691,50.321832286664105,73.57219482403627,49.859156477003836,53.42675874410574,90.71997718095818,-0.0,0.0,-0.0,-0.0,0.0,0.0,0.0,0.0,0.0,-0.0,-0.0,0.0,0.0
1.62,43.1970128467183,42.302053263994004,11.637296584919628,64.65129446888128,24.337794850105034,44.060965114419204,90.75918243997882,61.00941039452691,50.321832286664105,73.57219482403627,49.859156477003836,53.42675874410574,90.71997718095818,-0.0,0.0,-0.0,-0.0,0.0,0.0,0.0,0.0,0.0,-0.0,-0.0,0.0,0.0
1.63,43.1970128467183,42.302053263994004,11.637296584919628,64.65129446888128,24.337794850105034,44.060965114419204,90.75918243997882,61.00941039452691,50.321832286664105,73.57219482403627,49.859156477003836,53.42675874410574,90.71997718095818,-0.0,0.0,-0.0,-0.0,0.0,0.0,0.0,0.0,0.0,-0.0,-0.0,0.0,0.0
1.64,43.1970128467183,42.302053263994004,11.637296584919628,64.65129446888128,24.337794850105034,44.060965114419204,90.75918243997882,61.00941039452691,50.321832286664105,73.57219482403627,49.859156477003836,53.42675874410574,90.71997718095818,-0.0,0.0,-0.0,-0.0,0.0,0.0,0.0,0.0,0.0,-0.0,-0.0,0.0,0.0
1.65,43.1970128467183,42.302053263994004,11.637296584919628,64.65129446888128,24.337794850105034,44.060965114419204,90.75918243997882,61.00941039452691,50.321832286664105,73.57219482403627,49.859156477003836,53.42675874410574,90.71997718095818,-0.0,0.0,-0.0,-0.0,0.0,0.0,0.0,0.0,0.0,-0.0,-0.0,0.0,0.0
1.66,43.1970128467183,42.302053263994004,11.637296584919628,64.65129446888128,24.337794850105034,44.060965114419204,90.75918243997882,61.00941039452691,50.321832286664105,73.57219482403627,49.859156477003836,53.42675874410574,90.71997718095818,-0.0,0.0,-0.0,-0.0,0.0,0.0,0.0,0.0,0.0,-0.0,-0.0,0.0,0.0
1.67,43.1970128467183,42.302053263994004,11.637296584919628,64.65129446888128,24.337794850105034,44.060965114419204,90.75918243997882,61.00941039452691,50.321832286664105,73.57219482403627,49.859156477003836,53.42675874410574,90.71997718095818,-0.0,0.0,-0.0,-0.0,0.0,0.0,0.0,0.0,0.0,-0.0,-0.0,0.0,0.0
1.68,43.1970128467183,42.302053263994004,11.637296584919628,64.65129446888128,24.337794850105034,44.060965114419204,90.75918243997882,61.00941039452691,50.321832286664105,73.57219482403627,49.859156477003836,53.42675874410574,90.71997718095818,-0.0,0.0,-0.0,-0.0,0.0,0.0,0.0,0.0,0.0,-0.0,-0.0,0.0,0.0
1.69,43.1970128467183,42.302053263994004,11.637296584919628,64.65129446888128,24.337794850105034,44.060965114419204,90.75918243997882,61.00941039452691,50.321832286664105,73.57219482403627,49.859156477003836,53.42675874410574,90.71997718095818,-0.0,0.0,-0.0,-0.0,0.0,0.0,0.0,0.0,0.0,-0.0,-0.0,0.0,0.0
1.7,43.1970128467183,42.302053263994004,11.637296584919628,64.65129446888128,24.337794850105034,44.060965114419204,90.75918243997882,61.00941039452691,50.321832286664105,73.57219482403627,49.859156477003836,53.42675874410574,90.71997718095818,-0.0,0.0,-0.0,-0.0,0.0,0.0,0.0,0.0,0.0,-0.0,-0.0,0.0,0.0
1.71,43.1970128467183,42.302053263994004,11.637296584919628,64.65129446888128,24.337794850105034,44.060965114419204,90.75918243997882,61.00941039452691,50.321832286664105,73.57219482403627,49.859156477003836,53.42675874410574,90.71997718095818,-0.0,0.0,-0.0,-0.0,0.0,0.0,0.0,0.0,0.0,-0.0,-0.0,0.0,0.0
1.72,43.1970128467183,42.302053263994004,11.637296584919628,64.65129446888128,24.337794850105034,44.060965114419204,90.75918243997882,61.00941039452691,50.321832286664105,73.57219482403627,49.859156477003836,53.42675874410574,90.71997718095818,-0.0,0.0,-0.0,-0.0,0.0,0.0,0.0,0.0,0.0,-0.0,-0.0,0.0,0.0
1.73,43.1970128467183,42.302053263994004,11.637296584919628,64.65129446888128,24.337794850105034,44.060965114419204,90.75918243997882,61.00941039452691,50.321832286664105,73.57219482403627,49.859156477003836,53.42675874410574,90.71997718095818,-0.0,0.0,-0.0,-0.0,0.0,0.0,0.0,0.0,0.0,-0.0,-0.0,0.0,0.0
1.74,43.1970128467183,42.302053263994004,11.637296584919628,64.65129446888128,24.337794850105034,44.060965114419204,90.75918243997882,61.00941039452691,50.321832286664105,73.57219482403627,49.859156477003836,53.42675874410574,90.71997718095818,-0.0,0.0,-0.0,-0.0,0.0,0.0,0.0,0.0,0.0,-0.0,-0.0,0.0,0.0
1.75,43.1970128467183,42.302053263994004,11.637296584919628,64.65129446888128,24.337794850105034,44.060965114419204,90.75918243997882,36.30378351990791,50.321832286664105,73.57219482403627,49.859156477003836,53.42675874410574,90.71997718095818,-0.0,0.0,-0.0,-0.0,0.0,0.0,0.0,-0.0,0.0,-0.0,-0.0,0.0,0.0
1.76,43.1970128467183,42.302053263994004,11.637296584919628,64.65129446888128,24.337794850105034,44.060965114419204,90.75918243997882,36.30378351990791,50.321832286664105,73.57219482403627,49.859156477003836,53.42675874410574,90.71997718095818,-0.0,0.0,-0.0,-0.0,0.0,0.0,0.0,-0.0,0.0,-0.0,-0.0,0.0,0.0
1.77,43.1970128467183,42.302053263994004,11.637296584919628,64.65129446888128,24.337794850105034,44.060965114419204,90.75918243997882,36.30378351990791,50.321832286664105,73.57219482403627,49.859156477003836,53.42675874410574,90.71997718095818,-0.0,0.0,-0.0,-0.0,0.0,0.0,0.0,-0.0,0.0,-0.0,-0.0,0.0,0.0
1.78,43.1970128467183,42.302053263994004,11.637296584919628,64.65129446888128,24.337794850105034,44.060965114419204,90.75918243997882,36.30378351990791,50.321832286664105,73.57219482403627,49.859156477003836,53.42675874410574,90.71997718095818,-0.0,0.0,-0.0,-0.0,0.0,0.0,0.0,-0.0,0.0,-0.0,-0.0,0.0,0.0
1.79,43.1970128467183,42.302053263994004,11.637296584919628,64.65129446888128,24.337794850105034,44.060965114419204,90.75918243997882,36.30378351990791,50.321832286664105,73.57219482403627,49.859156477003836,53.42675874410574,90.71997718095818,-0.0,0.0,-0.0,-0.0,0.0,0.0,0.0,-0.0,0.0,-0.0,-0.0,0.0,0.0
1.8,43.1970128467183,42.302053263994004,11.637296584919628,64.65129446888128,24.337794850105034,44.060965114419204,90.75918243997882,36.30378351990791,50.321832286664105,73.57219482403627,49.859156477003836,53.42675874410574,90.71997718095818,-0.0,0.0,-0.0,-0.0,0.0,0.0,0.0,-0.0,0.0,-0.0,-0.0,0.0,0.0
1.81,43.1970128467183,42.302053263994004,11.637296584919628,64.65129446888128,24.337794850105034,44.060965114419204,90.75918243997882,36.30378351990791,50.321832286664105,73.57219482403627,49.859156477003836,53.42675874410574,90.71997718095818,-0.0,0.0,-0.0,-0.0,0.0,0.0,0.0,-0.0,0.0,-0.0,-0.0,0.0,0.0
1.82,43.1970128467183,42.302053263994004,11.637296584919628,64.65129446888128,24.337794850105034,44.060965114419204,90.75918243997882,36.30378351990791,50.321832286664105,73.57219482403627,49.859156477003836,53.42675874410574,90.71997718095818,-0.0,0.0,-0.0,-0.0,0.0,0.0,0.0,-0.0,0.0,-0.0,-0.0,0.0,0.0
1.83,43.1970128467183,42.302053263994004,11.637296584919628,64.65129446888128,24.337794850105034,44.060965114419204,90.75918243997882,36.30378351990791,50.321832286664105,73.57219482403627,49.859156477003836,53.42675874410574,90.71997718095818,-0.0,0.0,-0.0,-0.0,0.0,0.0,0.0,-0.0,0.0,-0.0,-0.0,0.0,0.0
1.84,43.1970128467183,42.302053263994004,11.637296584919628,64.65129446888128,24.337794850105034,44.060965114419204,90.75918243997882,36.30378351990791,50.321832286664105,73.57219482403627,49.859156477003836,53.42675874410574,90.71997718095818,-0.0,0.0,-0.0,-0.0,0.0,0.0,0.0,-0.0,0.0,-0.0,-0.0,0.0,0.0
1.85,43.1970128467183,42.302053263994004,11.637296584919628,64.65129446888128,24.337794850105034,44.060965114419204,90.75918243997882,36.30378351990791,50.321832286664105,73.57219482403627,49.859156477003836,53.42675874410574,90.71997718095818,-0.0,0.0,-0.0,-0.0,0.0,0.0,0.0,-0.0,0.0,-0.0,-0.0,0.0,0.0
1.86,43.1970128467183,42.302053263994004,11.637296584919628,64.65129446888128,24.337794850105034,44.060965114419204,90.75918243997882,36.30378351990791,50.321832286664105,73.57219482403627,49.859156477003836,53.42675874410574,90.71997718095818,-0.0,0.0,-0.0,-0.0,0.0,0.0,0.0,-0.0,0.0,-0.0,-0.0,0.0,0.0
1.87,43.1970128467183,42.302053263994004,11.637296584919628,64.65129446888128,24.337794850105034,44.060965114419204,90.75918243997882,36.30378351990791,50.321832286664105,73.57219482403627,49.859156477003836,53.42675874410574,90.71997718095818,-0.0,0.0,-0.0,-0.0,0.0,0.0,0.0,-0.0,0.0,-0.0,-0.0,0.0,0.0
1.88,43.1970128467183,42.302053263994004,11.637296584919628,64.65129446888128,24.337794850105034,44.060965114419204,90.75918243997882,36.30378351990791,50.321832286664105,73.57219482403627,49.859156477003836,53.42675874410574,90.71997718095818,-0.0,0.0,-0.0,-0.0,0.0,0.0,0.0,-0.0,0.0,-0.0,-0.0,0.0,0.0
1.89,43.1970128467183,42.302053263994004,11.637296584919628,64.65129446888128,24.337794850105034,44.060965114419204,90.75918243997882,36.30378351990791,50.321832286664105,73.57219482403627,49.859156477003836,53.42675874410574,90.71997718095818,-0.0,0.0,-0.0,-0.0,0.0,0.0,0.0,-0.0,0.0,-0.0,-0.0,0.0,0.0
1.9,43.1970128467183,42.302053263994004,11.637296584919628,64.65129446888128,24.337794850105034,44.060965114419204,90.75918243997882,36.30378351990791,50.321832286664105,73.57219482403627,49.859156477003836,53.42675874410574,90.71997718095818,-0.0,0.0,-0.0,-0.0,0.0,0.0,0.0,-0.0,0.0,-0.0,-0.0,0.0,0.0
1.91,43.1970128467183,42.302053263994004,11.637296584919628,64.65129446888128,24.337794850105034,44.060965114419204,90.75918243997882,36.30378351990791,50.321832286664105,73.57219482403627,49.859156477003836,53.42675874410574,90.71997718095818,-0.0,0.0,-0.0,-0.0,0.0,0.0,0.0,-0.0,0.0,-0.0,-0.0,0.0,0.0
1.92,43.1970128467183,42.302053263994004,11.637296584919628,64.65129446888128,24.337794850105034,44.060965114419204,90.75918243997882,36.30378351990791,50.321832286664105,73.57219482403627,49.859156477003836,53.42675874410574,90.71997718095818,-0.0,0.0,-0.0,-0.0,0.0,0.0,0.0,-0.0,0.0,-0.0,-0.0,0.0,0.0
1.93,43.1970128467183,42.302053263994004,11.637296584919628,64.65129446888128,24.337794850105034,44.060965114419204,90.75918243997882,36.30378351990791,50.321832286664105,73.57219482403627,49.859156477003836,53.42675874410574,90.71997718095818,-0.0,0.0,-0.0,-0.0,0.0,0.0,0.0,-0.0,0.0,-0.0,-0.0,0.0,0.0
1.94,43.1970128467183,42.302053263994004,11.637296584919628,64.65129446888128,24.337794850105034,44.060965114419204,90.75918243997882,36.30378351990791,50.321832286664105,73.57219482403627,49.859156477003836,53.42675874410574,90.71997718095818,-0.0,0.0,-0.0,-0.0,0.0,0.0,0.0,-0.0,0.0,-0.0,-0.0,0.0,0.0
1.95,43.1970128467183,42.302053263994004,11.637296584919628,64.65129446888128,24.337794850105034,44.060965114419204,90.75918243997882,36.30378351990791,50.321832286664105,73.57219482403627,49.859156477003836,53.42675874410574,90.71997718095818,-0.0,0.0,-0.0,-0.0,0.0,0.0,0.0,-0.0,0.0,-0.0,-0.0,0.0,0.0
1.96,43.1970128467183,42.302053263994004,11.637296584919628,64.65129446888128,24.337794850105034,44.060965114419204,90.75918243997882,36.30378351990791,50.321832286664105,73.57219482403627,49.859156477003836,53.42675874410574,90.71997718095818,-0.0,0.0,-0.0,-0.0,0.0,0.0,0.0,-0.0,0.0,-0.0,-0.0,0.0,0.0
1.97,43.1970128467183,42.302053263994004,11.637296584919628,64.65129446888128,24.337794850105034,44.060965114419204,90.75918243997882,36.30378351990791,50.321832286664105,73.57219482403627,49.859156477003836,53.42675874410574,90.71997718095818,-0.0,0.0,-0.0,-0.0,0.0,0.0,0.0,-0.0,0.0,-0.0,-0.0,0.0,0.0
1.98,43.1970128467183,42.302053263994004,11.637296584919628,64.65129446888128,24.337794850105034,44.060965114419204,90.75918243997882,36.30378351990791,50.321832286664105,73.57219482403627,49.859156477003836,53.42675874410574,90.71997718095818,-0.0,0.0,-0.0,-0.0,0.0,0.0,0.0,-0.0,0.0,-0.0,-0.0,0.0,0.0
1.99,43.1970128467183,42.302053263994004,11.637296584919628,64.65129446888128,24.337794850105034,44.060965114419204,90.75918243997882,36.30378351990791,50.321832286664105,73.57219482403627,49.859156477003836,53.42675874410574,90.71997718095818,-0.0,0.0,-0.0,-0.0,0.0,0.0,0.0,-0.0,0.0,-0.0,-0.0,0.0,0.0
2.0,43.1970128467183,42.302053263994004,11.637296584919628,64.65129446888128,24.337794850105034,44.060965114419204,90.75918243997882,36.30378351990791,50.321832286664105,73.57219482403627,49.859156477003836,53.42675874410574,90.71997718095818,-0.0,0.0,-0.0,-0.0,0.0,0.0,0.0,-0.0,0.0,-0.0,-0.0,0.0,0.0
2.01,43.1970128467183,42.302053263994004,11.637296584919628,64.65129446888128,24.337794850105034,44.060965114419204,90.75918243997882,36.30378351990791,50.321832286664105,73.57219482403627,49.859156477003836,53.42675874410574,90.71997718095818,-0.0,0.0,-0.0,-0.0,0.0,0.0,0.0,-0.0,0.0,-0.0,-0.0,0.0,0.0
2.02,43.1970128467183,42.302053263994004,11.637296584919628,64.65129446888128,24.337794850105034,44.060965114419204,90.75918243997882,36.30378351990791,50.321832286664105,73.57219482403627,49.859156477003836,53.42675874410574,90.71997718095818,-0.0,0.0,-0.0,-0.0,0.0,0.0,0.0,-0.0,0.0,-0.0,-0.0,0.0,0.0
2.03,43.1970128467183,42.302053263994004,11.637296584919628,64.65129446888128,24.337794850105034,44.060965114419204,90.75918243997882,36.30378351990791,50.321832286664105,73.57219482403627,49.859156477003836,53.42675874410574,90.71997718095818,-0.0,0.0,-0.0,-0.0,0.0,0.0,0.0,-0.0,0.0,-0.0,-0.0,0.0,0.0
2.04,43.1970128467183,42.302053263994004,11.637296584919628,64.65129446888128,24.337794850105034,44.060965114419204,90.75918243997882,36.30378351990791,50.321832286664105,73.57219482403627,49.859156477003836,53.42675874410574,90.71997718095818,-0.0,0.0,-0.0,-0.0,0.0,0.0,0.0,-0.0,0.0,-0.0,-0.0,0.0,0.0
2.05,43.1970128467183,42.302053263994004,11.637296584919628,64.65129446888128,21.155700160974988,44.060965114419204,90.75918243997882,36.30378351990791,50.321832286664105,73.57219482403627,49.859156477003836,53.42675874410574,90.71997718095818,-0.0,0.0,-0.0,-0.0,-0.0,0.0,0.0,-0.0,0.0,-0.0,-0.0,0.0,0.0
2.06,43.1970128467183,42.302053263994004,11.637296584919628,64.65129446888128,21.155700160974988,44.060965114419204,90.75918243997882,36.30378351990791,50.321832286664105,73.57219482403627,49.859156477003836,53.42675874410574,90.71997718095818,-0.0,0.0,-0.0,-0.0,-0.0,0.0,0.0,-0.0,0.0,-0.0,-0.0,0.0,0.0
2.07,43.1970128467183,42.302053263994004,11.637296584919628,64.65129446888128,21.155700160974988,44.060965114419204,90.75918243997882,36.30378351990791,50.321832286664105,73.57219482403627,49.859156477003836,53.42675874410574,90.71997718095818,-0.0,0.0,-0.0,-0.0,-0.0,0.0,0.0,-0.0,0.0,-0.0,-0.0,0.0,0.0
2.08,43.1970128467183,42.302053263994004,11.637296584919628,64.65129446888128,21.155700160974988,44.060965114419204,90.75918243997882,36.30378351990791,50.321832286664105,73.57219482403627,49.859156477003836,53.42675874410574,71.69181453271119,-0.0,0.0,-0.0,-0.0,-0.0,0.0,0.0,-0.0,0.0,-0.0,-0.0,0.0,-0.0
2.09,43.1970128467183,42.302053263994004,11.637296584919628,64.65129446888128,21.155700160974988,44.060965114419204,90.75918243997882,36.30378351990791,50.321832286664105,73.57219482403627,49.859156477003836,78.13907138952393,71.69181453271119,-0.0,0.0,-0.0,-0.0,-0.0,0.0,0.0,-0.0,0.0,-0.0,-0.0,0.0,-0.0
2.1,43.1970128467183,42.302053263994004,11.637296584919628,64.65129446888128,21.155700160974988,44.060965114419204,90.75918243997882,36.30378351990791,50.321832286664105,73.57219482403627,49.859156477003836,78.13907138952393,71.69181453271119,-0.0,0.0,-0.0,-0.0,-0.0,0.0,0.0,-0.0,0.0,-0.0,-0.0,0.0,-0.0
2.11,43.1970128467183,42.302053263994004,11.637296584919628,64.65129446888128,21.155700160974988,44.060965114419204,90.75918243997882,36.30378351990791,50.321832286664105,73.57219482403627,49.859156477003836,78.13907138952393,71.69181453271119,-0.0,0.0,-0.0,-0.0,-0.0,0.0,0.0,-0.0,0.0,-0.0,-0.0,0.0,-0.0
2.12,43.1970128467183,42.302053263994004,11.637296584919628,64.65129446888128,21.155700160974988,44.060965114419204,90.75918243997882,36.30378351990791,50.321832286664105,73.57219482403627,49.859156477003836,78.13907138952393,71.69181453271119,-0.0,0.0,-0.0,-0.0,-0.0,0.0,0.0,-0.0,0.0,-0.0,-0.0,0.0,-0.0
2.13,43.1970128467183,42.302053263994004,11.637296584919628,64.65129446888128,21.155700160974988,44.060965114419204,90.75918243997882,36.30378351990791,50.321832286664105,73.57219482403627,49.859156477003836,78.13907138952393,71.69181453271119,-0.0,0.0,-0.0,-0.0,-0.0,0.0,0.0,-0.0,0.0,-0.0,-0.0,0.0,-0.0
2.14,43.1970128467183,42.302053263994004,11.637296584919628,64.65129446888128,21.155700160974988,44.060965114419204,90.75918243997882,36.30378351990791,50.321832286664105,73.57219482403627,49.859156477003836,78.13907138952393,71.69181453271119,-0.0,0.0,-0.0,-0.0,-0.0,0.0,0.0,-0.0,0.0,-0.0,-0.0,0.0,-0.0
2.15,43.1970128467183,42.302053263994004,11.637296584919628,64.65129446888128,21.155700160974988,44.060965114419204,90.75918243997882,36.30378351990791,50.321832286664105,73.57219482403627,49.859156477003836,78.13907138952393,71.69181453271119,-0.0,0.0,-0.0,-0.0,-0.0,0.0,0.0,-0.0,0.0,-0.0,-0.0,0.0,-0.0
2.16,43.1970128467183,42.302053263994004,11.637296584919628,64.65129446888128,21.155700160974988,44.060965114419204,90.75918243997882,36.30378351990791,50.321832286664105,73.57219482403627,49.859156477003836,78.13907138952393,71.69181453271119,-0.0,0.0,-0.0,-0.0,-0.0,0.0,0.0,-0.0,0.0,-0.0,-0.0,0.0,-0.0
2.17,43.1970128467183,42.302053263994004,11.637296584919628,64.65129446888128,21.155700160974988,44.060965114419204,90.75918243997882,36.30378351990791,50.321832286664105,73.57219482403627,49.859156477003836,78.13907138952393,71.69181453271119,-0.0,0.0,-0.0,-0.0,-0.0,0.0,0.0,-0.0,0.0,-0.0,-0.0,0.0,-0.0
2.18,43.1970128467183,42.302053263994004,11.637296584919628,64.65129446888128,21.155700160974988,44.060965114419204,90.75918243997882,36.30378351990791,50.321832286664105,73.57219482403627,49.859156477003836,78.13907138952393,71.69181453271119,-0.0,0.0,-0.0,-0.0,-0.0,0.0,0.0,-0.0,0.0,-0.0,-0.0,0.0,-0.0
2.19,43.1970128467183,42.302053263994004,11.637296584919628,64.65129446888128,21.155700160974988,44.060965114419204,90.75918243997882,36.30378351990791,50.321832286664105,73.57219482403627,49.859156477003836,78.13907138952393,71.69181453271119,-0.0,0.0,-0.0,-0.0,-0.0,0.0,0.0,-0.0,0.0,-0.0,-0.0,0.0,-0.0
2.2,43.1970128467183,42.302053263994004,11.637296584919628,64.65129446888128,21.155700160974988,44.060965114419204,90.75918243997882,36.30378351990791,50.321832286664105,73.57219482403627,49.859156477003836,78.13907138952393,71.69181453271119,-0.0,0.0,-0.0,-0.0,-0.0,0.0,0.0,-0.0,0.0,-0.0,-0.0,0.0,-0.0
2.21,43.1970128467183,42.302053263994004,35.59979297123802,64.65129446888128,21.155700160974988,44.060965114419204,90.75918243997882,36.30378351990791,50.321832286664105,73.57219482403627,49.859156477003836,78.13907138952393,71.69181453271119,-0.0,0.0,0.0,-0.0,-0.0,0.0,0.0,-0.0,0.0,-0.0,-0.0,0.0,-0.0
2.22,43.1970128467183,42.302053263994004,35.59979297123802,64.65129446888128,21.155700160974988,44.060965114419204,90.75918243997882,36.30378351990791,80.62391133600838,73.57219482403627,49.859156477003836,78.13907138952393,71.69181453271119,-0.0,0.0,0.0,-0.0,-0.0,0.0,0.0,-0.0,0.0,-0.0,-0.0,0.0,-0.0
2.23,43.1970128467183,42.302053263994004,35.59979297123802,64.65129446888128,21.155700160974988,44.060965114419204,90.75918243997882,36.30378351990791,80.62391133600838,73.57219482403627,49.859156477003836,78.13907138952393,71.69181453271119,-0.0,0.0,0.0,-0.0,-0.0,0.0,0.0,-0.0,0.0,-0.0,-0.0,0.0,-0.0
2.24,43.1970128467183,42.302053263994004,35.59979297123802,64.65129446888128,21.155700160974988,44.060965114419204,90.75918243997882,36.30378351990791,80.62391133600838,51.21971819182046,49.859156477003836,78.13907138952393,71.69181453271119,-0.0,0.0,0.0,-0.0,-0.0,0.0,0.0,-0.0,0.0,-0.0,-0.0,0.0,-0.0
2.25,43.1970128467183,42.302053263994004,35.59979297123802,64.65129446888128,21.155700160974988,44.060965114419204,90.75918243997882,36.30378351990791,80.62391133600838,51.21971819182046,49.859156477003836,78.13907138952393,71.69181453271119,-0.0,0.0,0.0,-0.0,-0.0,0.0,0.0,-0.0,0.0,-0.0,-0.0,0.0,-0.0
2.26,43.1970128467183,42.302053263994004,35.59979297123802,64.65129446888128,21.155700160974988,44.060965114419204,90.75918243997882,36.30378351990791,80.62391133600838,51.21971819182046,49.859156477003836,78.13907138952393,71.69181453271119,-0.0,0.0,0.0,-0.0,-0.0,0.0,0.0,-0.0,0.0,-0.0,-0.0,0.0,-0.0
2.27,43.1970128467183,42.302053263994004,35.59979297123802,64.65129446888128,21.155700160974988,44.060965114419204,90.75918243997882,36.30378351990791,80.62391133600838,51.21971819182046,49.859156477003836,78.13907138952393,71.69181453271119,-0.0,0.0,0.0,-0.0,-0.0,0.0,0.0,-0.0,0.0,-0.0,-0.0,0.0,-0.0
2.28,43.1970128467183,42.302053263994004,35.59979297123802,64.65129446888128,21.155700160974988,44.060965114419204,90.75918243997882,36.30378351990791,80.62391133600838,51.21971819182046,49.859156477003836,78.13907138952393,71.69181453271119,-0.0,0.0,0.0,-0.0,-0.0,0.0,0.0,-0.0,0.0,-0.0,-0.0,0.0,-0.0
2.29,43.1970128467183,42.302053263994004,35.59979297123802,64.65129446888128,21.155700160974988,44.060965114419204,90.75918243997882,36.30378351990791,80.62391133600838,51.21971819182046,49.859156477003836,78.13907138952393,71.69181453271119,-0.0,0.0,0.0,-0.0,-0.0,0.0,0.0,-0.0,0.0,-0.0,-0.0,0.0,-0.0
2.3,43.1970128467183,42.302053263994004,35.59979297123802,64.65129446888128,21.155700160974988,44.060965114419204,90.75918243997882,36.30378351990791,80.62391133600838,51.21971819182046,49.859156477003836,78.13907138952393,71.69181453271119,-0.0,0.0,0.0,-0.0,-0.0,0.0,0.0,-0.0,0.0,-0.0,-0.0,0.0,-0.0
2.31,43.1970128467183,42.302053263994004,35.59979297123802,64.65129446888128,21.155700160974988,44.060965114419204,90.75918243997882,36.30378351990791,80.62391133600838,51.21971819182046,49.859156477003836,78.13907138952393,71.69181453271119,-0.0,0.0,0.0,-0.0,-0.0,0.0,0.0,-0.0,0.0,-0.0,-0.0,0.0,-0.0
2.32,43.1970128467183,42.302053263994004,35.59979297123802,64.65129446888128,21.155700160974988,44.060965114419204,90.75918243997882,36.30378351990791,80.62391133600838,51.21971819182046,49.859156477003836,78.13907138952393,71.69181453271119,-0.0,0.0,0.0,-0.0,-0.0,0.0,0.0,-0.0,0.0,-0.0,-0.0,0.0,-0.0
2.33,43.1970128467183,42.302053263994004,35.59979297123802,64.65129446888128,21.155700160974988,44.060965114419204,90.75918243997882,36.30378351990791,80.62391133600838,51.21971819182046,49.859156477003836,78.13907138952393,71.69181453271119,-0.0,0.0,0.0,-0.0,-0.0,0.0,0.0,-0.0,0.0,-0.0,-0.0,0.0,-0.0
2.34,43.1970128467183,42.302053263994004,35.59979297123802,64.65129446888128,21.155700160974988,44.060965114419204,90.75918243997882,36.30378351990791,80.62391133600838,51.21971819182046,49.859156477003836,78.13907138952393,71.69181453271119,-0.0,0.0,0.0,-0.0,-0.0,0.0,0.0,-0.0,0.0,-0.0,-0.0,0.0,-0.0
2.35,43.1970128467183,42.302053263994004,35.59979297123802,64.65129446888128,21.155700160974988,44.060965114419204,90.75918243997882,36.30378351990791,80.62391133600838,51.21971819182046,49.859156477003836,78.13907138952393,71.69181453271119,-0.0,0.0,0.0,-0.0,-0.0,0.0,0.0,-0.0,0.0,-0.0,-0.0,0.0,-0.0
2.36,43.1970128467183,42.302053263994004,35.59979297123802,64.65129446888128,21.155700160974988,44.060965114419204,90.75918243997882,36.30378351990791,80.62391133600838,51.21971819182046,49.859156477003836,78.13907138952393,71.69181453271119,-0.0,0.0,0.0,-0.0,-0.0,0.0,0.0,-0.0,0.0,-0.0,-0.0,0.0,-0.0
2.37,43.1970128467183,42.302053263994004,35.59979297123802,64.65129446888128,21.155700160974988,44.060965114419204,90.75918243997882,36.30378351990791,80.62391133600838,51.21971819182046,49.859156477003836,78.13907138952393,71.69181453271119,-0.0,0.0,0.0,-0.0,-0.0,0.0,0.0,-0.0,0.0,-0.0,-0.0,0.0,-0.0
2.38,43.1970128467183,42.302053263994004,35.59979297123802,64.65129446888128,21.155700160974988,44.060965114419204,90.75918243997882,36.30378351990791,80.62391133600838,51.21971819182046,49.859156477003836,78.13907138952393,71.69181453271119,-0.0,0.0,0.0,-0.0,-0.0,0.0,0.0,-0.0,0.0,-0.0,-0.0,0.0,-0.0
2.39,43.1970128467183,42.302053263994004,35.59979297123802,64.65129446888128,21.155700160974988,44.060965114419204,90.75918243997882,36.30378351990791,80.62391133600838,51.21971819182046,49.859156477003836,78.13907138952393,71.69181453271119,-0.0,0.0,0.0,-0.0,-0.0,0.0,0.0,-0.0,0.0,-0.0,-0.0,0.0,-0.0
2.4,43.1970128467183,42.302053263994004,35.59979297123802,64.65129446888128,21.155700160974988,44.060965114419204,90.75918243997882,36.30378351990791,80.62391133600838,51.21971819182046,49.859156477003836,78.13907138952393,71.69181453271119,-0.0,0.0,0.0,-0.0,-0.0,0.0,0.0,-0.0,0.0,-0.0,-0.0,0.0,-0.0
2.41,43.1970128467183,42.302053263994004,35.59979297123802,64.65129446888128,21.155700160974988,44.060965114419204,90.75918243997882,36.30378351990791,80.62391133600838,51.21971819182046,49.859156477003836,78.13907138952393,71.69181453271119,-0.0,0.0,0.0,-0.0,-0.0,0.0,0.0,-0.0,0.0,-0.0,-0.0,0.0,-0.0
2.42,43.1970128467183,42.302053263994004,35.59979297123802,64.65129446888128,21.155700160974988,44.060965114419204,90.75918243997882,36.30378351990791,80.62391133600838,51.21971819182046,49.859156477003836,78.13907138952393,71.69181453271119,-0.0,0.0,0.0,-0.0,-0.0,0.0,0.0,-0.0,0.0,-0.0,-0.0,0.0,-0.0
2.43,43.1970128467183,42.302053263994004,35.59979297123802,64.65129446888128,21.155700160974988,44.060965114419204,90.75918243997882,36.30378351990791,80.62391133600838,51.21971819182046,49.859156477003836,78.13907138952393,71.69181453271119,-0.0,0.0,0.0,-0.0,-0.0,0.0,0.0,-0.0,0.0,-0.0,-0.0,0.0,-0.0
2.44,43.1970128467183,69.33999406783627,35.59979297123802,64.65129446888128,21.155700160974988,44.060965114419204,90.75918243997882,36.30378351990791,80.62391133600838,51.21971819182046,49.859156477003836,78.13907138952393,71.69181453271119,-0.0,0.0,0.0,-0.0,-0.0,0.0,0.0,-0.0,0.0,-0.0,-0.0,0.0,-0.0
2.45,43.1970128467183,69.33999406783627,35.59979297123802,64.65129446888128,21.155700160974988,44.060965114419204,90.75918243997882,36.30378351990791,80.62391133600838,51.21971819182046,49.859156477003836,78.13907138952393,71.69181453271119,-0.0,0.0,0.0,-0.0,-0.0,0.0,0.0,-0.0,0.0,-0.0,-0.0,0.0,-0.0
2.46,43.1970128467183,69.33999406783627,35.59979297123802,64.65129446888128,21.155700160974988,68.87094828006951,90.75918243997882,36.30378351990791,80.62391133600838,51.21971819182046,49.859156477003836,78.13907138952393,71.69181453271119,-0.0,0.0,0.0,-0.0,-0.0,0.0,0.0,-0.0,0.0,-0.0,-0.0,0.0,-0.0
2.47,43.1970128467183,69.33999406783627,35.59979297123802,64.65129446888128,21.155700160974988,68.87094828006951,90.75918243997882,36.30378351990791,80.62391133600838,51.21971819182046,49.859156477003836,78.13907138952393,71.69181453271119,-0.0,0.0,0.0,-0.0,-0.0,0.0,0.0,-0.0,0.0,-0.0,-0.0,0.0,-0.0
2.48,43.1970128467183,69.33999406783627,35.59979297123802,64.65129446888128,21.155700160974988,68.87094828006951,90.75918243997882,36.30378351990791,80.62391133600838,51.21971819182046,49.859156477003836,78.13907138952393,71.69181453271119,-0.0,0.0,0.0,-0.0,-0.0,0.0,0.0,-0.0,0.0,-0.0,-0.0,0.0,-0.0
2.49,43.1970128467183,69.33999406783627,35.59979297123802,64.65129446888128,21.155700160974988,68.87094828006951,90.75918243997882,36.30378351990791,80.62391133600838,51.21971819182046,49.859156477003836,78.13907138952393,71.69181453271119,-0.0,0.0,0.0,-0.0,-0.0,0.0,0.0,-0.0,0.0,-0.0,-0.0,0.0,-0.0
2.5,43.1970128467183,69.33999406783627,35.59979297123802,64.65129446888128,21.155700160974988,68.87094828006951,90.75918243997882,36.30378351990791,80.62391133600838,51.21971819182046,49.859156477003836,78.13907138952393,71.69181453271119,-0.0,0.0,0.0,-0.0,-0.0,0.0,0.0,-0.0,0.0,-0.0,-0.0,0.0,-0.0
2.51,43.1970128467183,69.33999406783627,35.59979297123802,64.65129446888128,21.155700160974988,68.87094828006951,90.75918243997882,36.30378351990791,80.62391133600838,51.21971819182046,49.859156477003836,78.13907138952393,71.69181453271119,-0.0,0.0,0.0,-0.0,-0.0,0.0,0.0,-0.0,0.0,-0.0,-0.0,0.0,-0.0
2.52,43.1970128467183,69.33999406783627,35.59979297123802,64.65129446888128,21.155700160974988,68.87094828006951,90.75918243997882,36.30378351990791,80.62391133600838,51.21971819182046,49.859156477003836,78.13907138952393,71.69181453271119,-0.0,0.0,0.0,-0.0,-0.0,0.0,0.0,-0.0,0.0,-0.0,-0.0,0.0,-0.0
2.53,43.1970128467183,69.33999406783627,35.59979297123802,64.65129446888128,21.155700160974988,68.87094828006951,90.75918243997882,66.01729593761605,80.62391133600838,51.21971819182046,49.859156477003836,78.13907138952393,71.69181453271119,-0.0,0.0,0.0,-0.0,-0.0,0.0,0.0,0.0,0.0,-0.0,-0.0,0.0,-0.0
2.54,43.1970128467183,69.33999406783627,35.59979297123802,64.65129446888128,21.155700160974988,68.87094828006951,90.75918243997882,66.01729593761605,80.62391133600838,51.21971819182046,49.859156477003836,78.13907138952393,71.69181453271119,-0.0,0.0,0.0,-0.0,-0.0,0.0,0.0,0.0,0.0,-0.0,-0.0,0.0,-0.0
2.55,43.1970128467183,69.33999406783627,35.59979297123802,64.65129446888128,21.155700160974988,68.87094828006951,90.75918243997882,66.01729593761605,80.62391133600838,51.21971819182046,49.859156477003836,78.13907138952393,71.69181453271119,-0.0,0.0,0.0,-0.0,-0.0,0.0,0.0,0.0,0.0,-0.0,-0.0,0.0,-0.0
2.56,43.1970128467183,69.33999406783627,35.59979297123802,64.65129446888128,21.155700160974988,68.87094828006951,90.75918243997882,66.01729593761605,80.62391133600838,51.21971819182046,49.859156477003836,78.13907138952393,71.69181453271119,-0.0,0.0,0.0,-0.0,-0.0,0.0,0.0,0.0,0.0,-0.0,-0.0,0.0,-0.0
2.57,43.1970128467183,69.33999406783627,35.59979297123802,64.65129446888128,21.155700160974988,68.87094828006951,90.75918243997882,66.01729593761605,80.62391133600838,51.21971819182046,49.859156477003836,78.13907138952393,71.69181453271119,-0.0,0.0,0.0,-0.0,-0.0,0.0,0.0,0.0,0.0,-0.0,-0.0,0.0,-0.0
2.58,43.1970128467183,69.33999406783627,35.59979297123802,64.65129446888128,21.155700160974988,68.87094828006951,90.75918243997882,66.01729593761605,80.62391133600838,51.21971819182046,49.859156477003836,78.13907138952393,71.69181453271119,-0.0,0.0,0.0,-0.0,-0.0,0.0,0.0,0.0,0.0,-0.0,-0.0,0.0,-0.0
2.59,43.1970128467183,69.33999406783627,35.59979297123802,64.65129446888128,21.155700160974988,68.87094828006951,90.75918243997882,66.01729593761605,80.62391133600838,51.21971819182046,49.859156477003836,78.13907138952393,71.69181453271119,-0.0,0.0,0.0,-0.0,-0.0,0.0,0.0,0.0,0.0,-0.0,-0.0,0.0,-0.0
2.6,40.0,69.33999406783627,35.59979297123802,64.65129446888128,21.155700160974988,68.87094828006951,90.75918243997882,66.01729593761605,80.62391133600838,51.21971819182046,49.859156477003836,78.13907138952393,71.69181453271119,-0.0,0.0,0.0,-0.0,-0.0,0.0,0.0,0.0,0.0,-0.0,-0.0,0.0,-0.0
2.61,40.0,69.33999406783627,35.59979297123802,64.65129446888128,21.155700160974988,68.87094828006951,90.75918243997882,66.01729593761605,80.62391133600838,51.21971819182046,49.859156477003836,78.13907138952393,71.69181453271119,-0.0,0.0,0.0,-0.0,-0.0,0.0,0.0,0.0,0.0,-0.0,-0.0,0.0,-0.0
2.62,40.0,69.33999406783627,35.59979297123802,64.65129446888128,21.155700160974988,68.87094828006951,90.75918243997882,66.01729593761605,80.62391133600838,51.21971819182046,49.859156477003836,78.13907138952393,71.69181453271119,-0.0,0.0,0.0,-0.0,-0.0,0.0,0.0,0.0,0.0,-0.0,-0.0,0.0,-0.0
2.63,40.0,69.33999406783627,35.59979297123802,64.65129446888128,21.155700160974988,68.87094828006951,90.75918243997882,66.01729593761605,80.62391133600838,51.21971819182046,49.859156477003836,78.13907138952393,71.69181453271119,-0.0,0.0,0.0,-0.0,-0.0,0.0,0.0,0.0,0.0,-0.0,-0.0,0.0,-0.0
2.64,40.0,69.33999406783627,35.59979297123802,86.86387321949817,21.155700160974988,68.87094828006951,90.75918243997882,66.01729593761605,80.62391133600838,51.21971819182046,49.859156477003836,78.13907138952393,71.69181453271119,-0.0,0.0,0.0,0.0,-0.0,0.0,0.0,0.0,0.0,-0.0,-0.0,0.0,-0.0
2.65,40.0,69.33999406783627,35.59979297123802,86.86387321949817,21.155700160974988,68.87094828006951,90.75918243997882,66.01729593761605,80.62391133600838,51.21971819182046,49.859156477003836,78.13907138952393,71.69181453271119,-0.0,0.0,0.0,0.0,-0.0,0.0,0.0,0.0,0.0,-0.0,-0.0,0.0,-0.0
2.66,40.0,69.33999406783627,35.59979297123802,86.86387321949817,21.155700160974988,68.87094828006951,90.75918243997882,66.01729593761605,80.62391133600838,51.21971819182046,49.859156477003836,78.13907138952393,71.69181453271119,-0.0,0.0,0.0,0.0,-0.0,0.0,0.0,0.0,0.0,-0.0,-0.0,0.0,-0.0
2.67,40.0,69.33999406783627,35.59979297123802,86.86387321949817,21.155700160974988,68.87094828006951,90.75918243997882,66.01729593761605,80.62391133600838,51.21971819182046,49.859156477003836,78.13907138952393,71.69181453271119,-0.0,0.0,0.0,0.0,-0.0,0.0,0.0,0.0,0.0,-0.0,-0.0,0.0,-0.0
2.68,40.0,69.33999406783627,35.59979297123802,86.86387321949817,21.155700160974988,68.87094828006951,90.75918243997882,66.01729593761605,80.62391133600838,51.21971819182046,49.859156477003836,78.13907138952393,71.69181453271119,-0.0,0.0,0.0,0.0,-0.0,0.0,0.0,0.0,0.0,-0.0,-0.0,0.0,-0.0
2.69,40.0,69.33999406783627,35.59979297123802,86.86387321949817,21.155700160974988,68.87094828006951,90.75918243997882,66.01729593761605,80.62391133600838,51.21971819182046,49.859156477003836,78.13907138952393,71.69181453271119,-0.0,0.0,0.0,0.0,-0.0,0.0,0.0,0.0,0.0,-0.0,-0.0,0.0,-0.0
2.7,40.0,69.33999406783627,35.59979297123802,86.86387321949817,21.155700160974988,68.87094828006951,90.75918243997882,66.01729593761605,80.62391133600838,51.21971819182046,49.859156477003836,78.13907138952393,71.69181453271119,-0.0,0.0,0.0,0.0,-0.0,0.0,0.0,0.0,0.0,-0.0,-0.0,0.0,-0.0
2.71,40.0,69.33999406783627,35.59979297123802,86.86387321949817,21.155700160974988,68.87094828006951,90.75918243997882,66.01729593761605,80.62391133600838,51.21971819182046,49.859156477003836,78.13907138952393,71.69181453271119,-0.0,0.0,0.0,0.0,-0.0,0.0,0.0,0.0,0.0,-0.0,-0.0,0.0,-0.0
2.72,40.0,69.33999406783627,35.59979297123802,86.86387321949817,21.155700160974988,68.87094828006951,90.75918243997882,66.01729593761605,80.62391133600838,51.21971819182046,49.859156477003836,46.45017779166935,71.69181453271119,-0.0,0.0,0.0,0.0,-0.0,0.0,0.0,0.0,0.0,-0.0,-0.0,-0.0,-0.0
2.73,40.0,69.33999406783627,35.59979297123802,86.86387321949817,21.155700160974988,68.87094828006951,90.75918243997882,66.01729593761605,80.62391133600838,51.21971819182046,49.859156477003836,46.45017779166935,71.69181453271119,-0.0,0.0,0.0,0.0,-0.0,0.0,0.0,0.0,0.0,-0.0,-0.0,-0.0,-0.0
2.74,40.0,69.33999406783627,35.59979297123802,86.86387321949817,21.155700160974988,68.87094828006951,90.75918243997882,66.01729593761605,80.62391133600838,24.16442907663948,49.859156477003836,46.45017779166935,71.69181453271119,-0.0,0.0,0.0,0.0,-0.0,0.0,0.0,0.0,0.0,-0.0,-0.0,-0.0,-0.0
2.75,40.0,69.33999406783627,35.59979297123802,86.86387321949817,21.155700160974988,68.87094828006951,90.75918243997882,66.01729593761605,80.62391133600838,24.16442907663948,49.859156477003836,46.45017779166935,71.69181453271119,-0.0,0.0,0.0,0.0,-0.0,0.0,0.0,0.0,0.0,-0.0,-0.0,-0.0,-0.0
2.76,40.0,69.33999406783627,35.59979297123802,86.86387321949817,21.155700160974988,68.87094828006951,90.75918243997882,66.01729593761605,80.62391133600838,24.16442907663948,12.300599464934109,46.45017779166935,71.69181453271119,-0.0,0.0,0.0,0.0,-0.0,0.0,0.0,0.0,0.0,-0.0,-0.0,-0.0,-0.0
2.77,40.0,69.33999406783627,35.59979297123802,86.86387321949817,21.155700160974988,68.87094828006951,90.75918243997882,66.01729593761605,80.62391133600838,24.16442907663948,12.300599464934109,46.45017779166935,71.69181453271119,-0.0,0.0,0.0,0.0,-0.0,0.0,0.0,0.0,0.0,-0.0,-0.0,-0.0,-0.0
2.78,40.0,69.33999406783627,35.59979297123802,86.86387321949817,21.155700160974988,68.87094828006951,90.75918243997882,66.01729593761605,80.62391133600838,24.16442907663948,12.300599464934109,46.45017779166935,71.69181453271119,-0.0,0.0,0.0,0.0,-0.0,0.0,0.0,0.0,0.0,-0.0,-0.0,-0.0,-0.0
2.79,40.0,69.33999406783627,35.59979297123802,86.86387321949817,21.155700160974988,68.87094828006951,90.75918243997882,66.01729593761605,80.62391133600838,24.16442907663948,12.300599464934109,46.45017779166935,71.69181453271119,-0.0,0.0,0.0,0.0,-0.0,0.0,0.0,0.0,0.0,-0.0,-0.0,-0.0,-0.0
2.8,40.0,69.33999406783627,35.59979297123802,86.86387321949817,21.155700160974988,68.87094828006951,90.75918243997882,66.01729593761605,80.62391133600838,24.16442907663948,12.300599464934109,46.45017779166935,71.69181453271119,-0.0,0.0,0.0,0.0,-0.0,0.0,0.0,0.0,0.0,-0.0,-0.0,-0.0,-0.0
2.81,40.0,69.33999406783627,35.59979297123802,86.86387321949817,21.155700160974988,68.87094828006951,74.2902280047526,66.01729593761605,80.62391133600838,24.16442907663948,12.300599464934109,46.45017779166935,71.69181453271119,-0.0,0.0,0.0,0.0,-0.0,0.0,-0.0,0.0,0.0,-0.0,-0.0,-0.0,-0.0
2.82,40.0,69.33999406783627,35.59979297123802,86.86387321949817,21.155700160974988,68.87094828006951,74.2902280047526,66.01729593761605,80.62391133600838,24.16442907663948,12.300599464934109,46.45017779166935,71.69181453271119,-0.0,0.0,0.0,0.0,-0.0,0.0,-0.0,0.0,0.0,-0.0,-0.0,-0.0,-0.0
2.83,40.0,69.33999406783627,35.59979297123802,86.86387321949817,21.155700160974988,68.87094828006951,74.2902280047526,66.01729593761605,80.62391133600838,24.16442907663948,12.300599464934109,46.45017779166935,71.69181453271119,-0.0,0.0,0.0,0.0,-0.0,0.0,-0.0,0.0,0.0,-0.0,-0.0,-0.0,-0.0
2.84,40.0,69.33999406783627,35.59979297123802,86.86387321949817,21.155700160974988,68.87094828006951,74.2902280047526,66.01729593761605,80.62391133600838,24.16442907663948,12.300599464934109,46.45017779166935,71.69181453271119,-0.0,0.0,0.0,0.0,-0.0,0.0,-0.0,0.0,0.0,-0.0,-0.0,-0.0,-0.0
2.85,40.0,69.33999406783627,35.59979297123802,86.86387321949817,21.155700160974988,68.87094828006951,74.2902280047526,66.01729593761605,80.62391133600838,24.16442907663948,12.300599464934109,46.45017779166935,71.69181453271119,-0.0,0.0,0.0,0.0,-0.0,0.0,-0.0,0.0,0.0,-0.0,-0.0,-0.0,-0.0
2.86,40.0,69.33999406783627,35.59979297123802,86.86387321949817,21.155700160974988,68.87094828006951,74.2902280047526,66.01729593761605,80.62391133600838,24.16442907663948,12.300599464934109,46.45017779166935,71.69181453271119,-0.0,0.0,0.0,0.0,-0.0,0.0,-0.0,0.0,0.0,-0.0,-0.0,-0.0,-0.0
2.87,40.0,69.33999406783627,13.698097299623456,86.86387321949817,21.155700160974988,68.87094828006951,74.2902280047526,66.01729593761605,80.62391133600838,24.16442907663948,12.300599464934109,46.45017779166935,71.69181453271119,-0.0,0.0,-0.0,0.0,-0.0,0.0,-0.0,0.0,0.0,-0.0,-0.0,-0.0,-0.0
2.88,40.0,69.33999406783627,13.698097299623456,86.86387321949817,21.155700160974988,68.87094828006951,74.2902280047526,66.01729593761605,80.62391133600838,24.16442907663948,12.300599464934109,46.45017779166935,71.69181453271119,-0.0,0.0,-0.0,0.0,-0.0,0.0,-0.0,0.0,0.0,-0.0,-0.0,-0.0,-0.0
2.89,40.0,69.33999406783627,13.698097299623456,86.86387321949817,21.155700160974988,68.87094828006951,74.2902280047526,66.01729593761605,80.62391133600838,24.16442907663948,12.300599464934109,46.45017779166935,71.69181453271119,-0.0,0.0,-0.0,0.0,-0.0,0.0,-0.0,0.0,0.0,-0.0,-0.0,-0.0,-0.0
2.9,40.0,69.33999406783627,13.698097299623456,86.86387321949817,21.155700160974988,68.87094828006951,74.2902280047526,66.01729593761605,80.62391133600838,24.16442907663948,12.300599464934109,46.45017779166935,71.69181453271119,-0.0,0.0,-0.0,0.0,-0.0,0.0,-0.0,0.0,0.0,-0.0,-0.0,-0.0,-0.0
2.91,40.0,69.33999406783627,13.698097299623456,86.86387321949817,21.155700160974988,68.87094828006951,74.2902280047526,66.01729593761605,80.62391133600838,24.16442907663948,12.300599464934109,46.45017779166935,71.69181453271119,-0.0,0.0,-0.0,0.0,-0.0,0.0,-0.0,0.0,0.0,-0.0,-0.0,-0.0,-0.0
2.92,40.0,69.33999406783627,13.698097299623456,86.86387321949817,21.155700160974988,68.87094828006951,74.2902280047526,66.01729593761605,80.62391133600838,24.16442907663948,12.300599464934109,46.45017779166935,71.69181453271119,-0.0,0.0,-0.0,0.0,-0.0,0.0,-0.0,0.0,0.0,-0.0,-0.0,-0.0,-0.0
2.93,40.0,69.33999406783627,13.698097299623456,86.86387321949817,21.155700160974988,68.87094828006951,74.2902280047526,66.01729593761605,80.62391133600838,24.16442907663948,12.300599464934109,46.45017779166935,71.69181453271119,-0.0,0.0,-0.0,0.0,-0.0,0.0,-0.0,0.0,0.0,-0.0,-0.0,-0.0,-0.0
2.94,40.0,69.33999406783627,13.698097299623456,86.86387321949817,21.155700160974988,68.87094828006951,74.2902280047526,66.01729593761605,80.62391133600838,24.16442907663948,12.300599464934109,46.45017779166935,71.69181453271119,-0.0,0.0,-0.0,0.0,-0.0,0.0,-0.0,0.0,0.0,-0.0,-0.0,-0.0,-0.0
2.95,40.0,69.33999406783627,13.698097299623456,86.86387321949817,21.155700160974988,68.87094828006951,74.2902280047526,66.01729593761605,80.62391133600838,24.16442907663948,12.300599464934109,46.45017779166935,71.69181453271119,-0.0,0.0,-0.0,0.0,-0.0,0.0,-0.0,0.0,0.0,-0.0,-0.0,-0.0,-0.0
2.96,40.0,69.33999406783627,13.698097299623456,86.86387321949817,21.155700160974988,68.87094828006951,74.2902280047526,66.01729593761605,80.62391133600838,24.16442907663948,12.300599464934109,46.45017779166935,71.69181453271119,-0.0,0.0,-0.0,0.0,-0.0,0.0,-0.0,0.0,0.0,-0.0,-0.0,-0.0,-0.0
2.97,40.0,69.33999406783627,13.698097299623456,86.86387321949817,21.155700160974988,68.87094828006951,74.2902280047526,66.01729593761605,80.62391133600838,24.16442907663948,12.300599464934109,46.45017779166935,71.69181453271119,-0.0,0.0,-0.0,0.0,-0.0,0.0,-0.0,0.0,0.0,-0.0,-0.0,-0.0,-0.0
2.98,40.0,69.33999406783627,13.698097299623456,86.86387321949817,21.155700160974988,68.87094828006951,74.2902280047526,66.01729593761605,80.62391133600838,24.16442907663948,12.300599464934109,46.45017779166935,71.69181453271119,-0.0,0.0,-0.0,0.0,-0.0,0.0,-0.0,0.0,0.0,-0.0,-0.0,-0.0,-0.0
2.99,40.0,69.33999406783627,13.698097299623456,86.86387321949817,21.155700160974988,68.87094828006951,74.2902280047526,66.01729593761605,80.62391133600838,24.16442907663948,12.300599464934109,46.45017779166935,71.69181453271119,-0.0,0.0,-0.0,0.0,-0.0,0.0,-0.0,0.0,0.0,-0.0,-0.0,-0.0,-0.0
3.0,40.0,69.33999406783627,13.698097299623456,86.86387321949817,21.155700160974988,68.87094828006951,74.2902280047526,66.01729593761605,80.62391133600838,24.16442907663948,12.300599464934109,46.45017779166935,71.69181453271119,-0.0,0.0,-0.0,0.0,-0.0,0.0,-0.0,0.0,0.0,-0.0,-0.0,-0.0,-0.0
3.01,40.0,69.33999406783627,13.698097299623456,86.86387321949817,21.155700160974988,68.87094828006951,74.2902280047526,66.01729593761605,80.62391133600838,24.16442907663948,12.300599464934109,46.45017779166935,71.69181453271119,-0.0,0.0,-0.0,0.0,-0.0,0.0,-0.0,0.0,0.0,-0.0,-0.0,-0.0,-0.0
3.02,40.0,69.33999406783627,13.698097299623456,86.86387321949817,21.155700160974988,68.87094828006951,74.2902280047526,66.01729593761605,80.62391133600838,24.16442907663948,12.300599464934109,46.45017779166935,71.69181453271119,-0.0,0.0,-0.0,0.0,-0.0,0.0,-0.0,0.0,0.0,-0.0,-0.0,-0.0,-0.0
3.03,40.0,69.33999406783627,13.698097299623456,86.86387321949817,21.155700160974988,68.87094828006951,74.2902280047526,66.01729593761605,80.62391133600838,24.16442907663948,12.300599464934109,46.45017779166935,71.69181453271119,-0.0,0.0,-0.0,0.0,-0.0,0.0,-0.0,0.0,0.0,-0.0,-0.0,-0.0,-0.0
3.04,40.0,69.33999406783627,13.698097299623456,86.86387321949817,21.155700160974988,68.87094828006951,74.2902280047526,66.01729593761605,80.62391133600838,24.16442907663948,12.300599464934109,46.45017779166935,71.69181453271119,-0.0,0.0,-0.0,0.0,-0.0,0.0,-0.0,0.0,0.0,-0.0,-0.0,-0.0,-0.0
3.05,40.0,69.33999406783627,13.698097299623456,86.86387321949817,21.155700160974988,68.87094828006951,74.2902280047526,66.01729593761605,80.62391133600838,24.16442907663948,12.300599464934109,46.45017779166935,71.69181453271119,-0.0,0.0,-0.0,0.0,-0.0,0.0,-0.0,0.0,0.0,-0.0,-0.0,-0.0,-0.0
3.06,40.0,69.33999406783627,13.698097299623456,86.86387321949817,21.155700160974988,68.87094828006951,74.2902280047526,66.01729593761605,80.62391133600838,24.16442907663948,12.300599464934109,46.45017779166935,71.69181453271119,-0.0,0.0,-0.0,0.0,-0.0,0.0,-0.0,0.0,0.0,-0.0,-0.0,-0.0,-0.0
3.07,40.0,69.33999406783627,13.698097299623456,86.86387321949817,21.155700160974988,68.87094828006951,74.2902280047526,66.01729593761605,80.62391133600838,24.16442907663948,12.300599464934109,46.45017779166935,71.69181453271119,-0.0,0.0,-0.0,0.0,-0.0,0.0,-0.0,0.0,0.0,-0.0,-0.0,-0.0,-0.0
3.08,40.0,69.33999406783627,13.698097299623456,86.86387321949817,21.155700160974988,68.87094828006951,74.2902280047526,66.01729593761605,80.62391133600838,24.16442907663948,12.300599464934109,46.45017779166935,71.69181453271119,-0.0,0.0,-0.0,0.0,-0.0,0.0,-0.0,0.0,0.0,-0.0,-0.0,-0.0,-0.0
3.09,40.0,69.33999406783627,13.698097299623456,86.86387321949817,21.155700160974988,68.87094828006951,74.2902280047526,66.01729593761605,80.62391133600838,24.16442907663948,12.300599464934109,46.45017779166935,71.69181453271119,-0.0,0.0,-0.0,0.0,-0.0,0.0,-0.0,0.0,0.0,-0.0,-0.0,-0.0,-0.0
3.1,40.0,69.33999406783627,13.698097299623456,86.86387321949817,21.155700160974988,68.87094828006951,74.2902280047526,66.01729593761605,80.62391133600838,24.16442907663948,12.300599464934109,46.45017779166935,71.69181453271119,-0.0,0.0,-0.0,0.0,-0.0,0.0,-0.0,0.0,0.0,-0.0,-0.0,-0.0,-0.0
3.11,40.0,69.33999406783627,13.698097299623456,86.86387321949817,21.155700160974988,68.87094828006951,74.2902280047526,66.01729593761605,80.62391133600838,24.16442907663948,12.300599464934109,46.45017779166935,71.69181453271119,-0.0,0.0,-0.0,0.0,-0.0,0.0,-0.0,0.0,0.0,-0.0,-0.0,-0.0,-0.0
3.12,40.0,69.33999406783627,13.698097299623456,86.86387321949817,21.155700160974988,68.87094828006951,74.2902280047526,66.01729593761605,80.62391133600838,24.16442907663948,12.300599464934109,46.45017779166935,71.69181453271119,-0.0,0.0,-0.0,0.0,-0.0,0.0,-0.0,0.0,0.0,-0.0,-0.0,-0.0,-0.0
3.13,40.0,69.33999406783627,13.698097299623456,86.86387321949817,21.155700160974988,68.87094828006951,74.2902280047526,66.01729593761605,80.62391133600838,24.16442907663948,12.300599464934109,46.45017779166935,71.69181453271119,-0.0,0.0,-0.0,0.0,-0.0,0.0,-0.0,0.0,0.0,-0.0,-0.0,-0.0,-0.0
3.14,40.0,69.33999406783627,13.698097299623456,86.86387321949817,21.155700160974988,68.87094828006951,74.2902280047526,66.01729593761605,80.62391133600838,24.16442907663948,12.300599464934109,46.45017779166935,71.69181453271119,-0.0,0.0,-0.0,0.0,-0.0,0.0,-0.0,0.0,0.0,-0.0,-0.0,-0.0,-0.0
3.15,40.0,69.33999406783627,13.698097299623456,86.86387321949817,21.155700160974988,68.87094828006951,74.2902280047526,66.01729593761605,80.62391133600838,24.16442907663948,12.300599464934109,46.45017779166935,71.69181453271119,-0.0,0.0,-0.0,0.0,-0.0,0.0,-0.0,0.0,0.0,-0.0,-0.0,-0.0,-0.0
3.16,40.0,69.33999406783627,13.698097299623456,86.86387321949817,21.155700160974988,68.87094828006951,74.2902280047526,66.01729593761605,80.62391133600838,24.16442907663948,12.300599464934109,46.45017779166935,71.69181453271119,-0.0,0.0,-0.0,0.0,-0.0,0.0,-0.0,0.0,0.0,-0.0,-0.0,-0.0,-0.0
3.17,40.0,69.33999406783627,13.698097299623456,86.86387321949817,21.155700160974988,68.87094828006951,74.2902280047526,66.01729593761605,80.62391133600838,24.16442907663948,12.300599464934109,46.45017779166935,71.69181453271119,-0.0,0.0,-0.0,0.0,-0.0,0.0,-0.0,0.0,0.0,-0.0,-0.0,-0.0,-0.0
3.18,40.0,69.33999406783627,13.698097299623456,86.86387321949817,21.155700160974988,68.87094828006951,74.2902280047526,66.01729593761605,80.62391133600838,24.16442907663948,12.300599464934109,46.45017779166935,71.69181453271119,-0.0,0.0,-0.0,0.0,-0.0,0.0,-0.0,0.0,0.0,-0.0,-0.0,-0.0,-0.0
3.19,40.0,69.33999406783627,13.698097299623456,86.86387321949817,21.155700160974988,68.87094828006951,74.2902280047526,66.01729593761605,80.62391133600838,24.16442907663948,12.300599464934109,46.45017779166935,71.69181453271119,-0.0,0.0,-0.0,0.0,-0.0,0.0,-0.0,0.0,0.0,-0.0,-0.0,-0.0,-0.0
3.2,40.0,69.33999406783627,13.698097299623456,86.86387321949817,21.155700160974988,68.87094828006951,74.2902280047526,66.01729593761605,80.62391133600838,24.16442907663948,12.300599464934109,46.45017779166935,71.69181453271119,-0.0,0.0,-0.0,0.0,-0.0,0.0,-0.0,0.0,0.0,-0.0,-0.0,-0.0,-0.0
3.21,40.0,69.33999406783627,13.698097299623456,86.86387321949817,21.155700160974988,68.87094828006951,74.2902280047526,66.01729593761605,80.62391133600838,24.16442907663948,12.300599464934109,46.45017779166935,71.69181453271119,-0.0,0.0,-0.0,0.0,-0.0,0.0,-0.0,0.0,0.0,-0.0,-0.0,-0.0,-0.0
3.22,40.0,69.33999406783627,13.698097299623456,86.86387321949817,21.155700160974988,68.87094828006951,74.2902280047526,66.01729593761605,80.62391133600838,24.16442907663948,12.300599464934109,46.45017779166935,71.69181453271119,-0.0,0.0,-0.0,0.0,-0.0,0.0,-0.0,0.0,0.0,-0.0,-0.0,-0.0,-0.0
3.23,40.0,45.70509936435752,13.698097299623456,86.86387321949817,21.155700160974988,68.87094828006951,74.2902280047526,66.01729593761605,80.62391133600838,24.16442907663948,12.300599464934109,46.45017779166935,71.69181453271119,-0.0,-0.0,-0.0,0.0,-0.0,0.0,-0.0,0.0,0.0,-0.0,-0.0,-0.0,-0.0
3.24,40.0,45.70509936435752,13.698097299623456,86.86387321949817,21.155700160974988,68.87094828006951,74.2902280047526,66.01729593761605,80.62391133600838,24.16442907663948,12.300599464934109,46.45017779166935,71.69181453271119,-0.0,-0.0,-0.0,0.0,-0.0,0.0,-0.0,0.0,0.0,-0.0,-0.0,-0.0,-0.0
3.25,40.0,45.70509936435752,13.698097299623456,86.86387321949817,21.155700160974988,68.87094828006951,74.2902280047526,66.01729593761605,80.62391133600838,24.16442907663948,12.300599464934109,46.45017779166935,71.69181453271119,-0.0,-0.0,-0.0,0.0,-0.0,0.0,-0.0,0.0,0.0,-0.0,-0.0,-0.0,-0.0
3.26,40.0,45.70509936435752,13.698097299623456,86.86387321949817,21.155700160974988,68.87094828006951,74.2902280047526,66.01729593761605,80.62391133600838,24.16442907663948,12.300599464934109,46.45017779166935,71.69181453271119,-0.0,-0.0,-0.0,0.0,-0.0,0.0,-0.0,0.0,0.0,-0.0,-0.0,-0.0,-0.0
3.27,40.0,45.70509936435752,13.698097299623456,86.86387321949817,21.155700160974988,68.87094828006951,74.2902280047526,66.01729593761605,80.62391133600838,24.16442907663948,12.300599464934109,46.45017779166935,71.69181453271119,-0.0,-0.0,-0.0,0.0,-0.0,0.0,-0.0,0.0,0.0,-0.0,-0.0,-0.0,-0.0
3.28,40.0,45.70509936435752,13.698097299623456,77.70726844898515,21.155700160974988,68.87094828006951,74.2902280047526,66.01729593761605,80.62391133600838,24.16442907663948,12.300599464934109,46.45017779166935,71.69181453271119,-0.0,-0.0,-0.0,-0.0,-0.0,0.0,-0.0,0.0,0.0,-0.0,-0.0,-0.0,-0.0
3.29,40.0,45.70509936435752,13.698097299623456,77.70726844898515,21.155700160974988,68.87094828006951,74.2902280047526,66.01729593761605,80.62391133600838,24.16442907663948,12.300599464934109,46.45017779166935,71.69181453271119,-0.0,-0.0,-0.0,-0.0,-0.0,0.0,-0.0,0.0,0.0,-0.0,-0.0,-0.0,-0.0
3.3,40.0,45.70509936435752,13.698097299623456,77.70726844898515,21.155700160974988,68.87094828006951,74.2902280047526,66.01729593761605,80.62391133600838,20.832582243170016,12.300599464934109,46.45017779166935,71.69181453271119,-0.0,-0.0,-0.0,-0.0,-0.0,0.0,-0.0,0.0,0.0,-0.0,-0.0,-0.0,-0.0
3.31,40.0,45.70509936435752,13.698097299623456,77.70726844898515,21.155700160974988,68.87094828006951,74.2902280047526,66.01729593761605,80.62391133600838,20.832582243170016,12.300599464934109,46.45017779166935,71.69181453271119,-0.0,-0.0,-0.0,-0.0,-0.0,0.0,-0.0,0.0,0.0,-0.0,-0.0,-0.0,-0.0
3.32,40.0,45.70509936435752,13.698097299623456,77.70726844898515,49.26435268503654,68.87094828006951,74.2902280047526,66.01729593761605,80.62391133600838,20.832582243170016,12.300599464934109,46.45017779166935,71.69181453271119,-0.0,-0.0,-0.0,-0.0,0.0,0.0,-0.0,0.0,0.0,-0.0,-0.0,-0.0,-0.0
3.33,40.0,45.70509936435752,13.698097299623456,77.70726844898515,49.26435268503654,68.87094828006951,74.2902280047526,66.01729593761605,80.62391133600838,20.832582243170016,12.300599464934109,46.45017779166935,71.69181453271119,-0.0,-0.0,-0.0,-0.0,0.0,0.0,-0.0,0.0,0.0,-0.0,-0.0,-0.0,-0.0
3.34,40.0,45.70509936435752,13.698097299623456,77.70726844898515,49.26435268503654,68.87094828006951,74.2902280047526,66.01729593761605,80.62391133600838,20.832582243170016,12.300599464934109,46.45017779166935,71.69181453271119,-0.0,-0.0,-0.0,-0.0,0.0,0.0,-0.0,0.0,0.0,-0.0,-0.0,-0.0,-0.0
