milky766/affetto/tests/data/rand_traj_trapez_sync_0-1-2.csv
t,q0,q1,q2,q3,q4,q5,q6,q7,q8,q9,q10,q11,q12,dq0,dq1,dq2,dq3,dq4,dq5,dq6,dq7,dq8,dq9,dq10,dq11,dq12
0.0,50.0,50.0,50.0,50.0,50.0,50.0,50.0,50.0,50.0,50.0,50.0,50.0,50.0,0.0,-0.0,-0.0,0.0,0.0,0.0,0.0,0.0,0.0,0.0,0.0,0.0,0.0
0.01,50.00134063747032,49.993188135064884,49.99335954821772,50.0,50.0,50.0,50.0,50.0,50.0,50.0,50.0,50.0,50.0,0.2681274940644549,-1.3623729870237737,-1.3280903564568005,0.0,0.0,0.0,0.0,0.0,0.0,0.0,0.0,0.0,0.0
0.02,50.00536254988128,49.97275254025952,49.97343819287086,50.0,50.0,50.0,50.0,50.0,50.0,50.0,50.0,50.0,50.0,0.5362549881289098,-2.7247459740475475,-2.656180712913601,0.0,0.0,0.0,0.0,0.0,0.0,0.0,0.0,0.0,0.0
0.03,50.0120657372329,49.93869321558393,49.94023593395944,50.0,50.0,50.0,50.0,50.0,50.0,50.0,50.0,50.0,50.0,0.8043824821933646,-4.0871189610713206,-3.984271069370401,0.0,0.0,0.0,0.0,0.0,0.0,0.0,0.0,0.0,0.0
0.04,50.02145019952516,49.8910101610381,49.89375277148346,50.0,50.0,50.0,50.0,50.0,50.0,50.0,50.0,50.0,50.0,1.0725099762578196,-5.449491948095095,-5.312361425827202,0.0,0.0,0.0,0.0,0.0,0.0,0.0,0.0,0.0,0.0
0.05,50.03351593675806,49.829703376622035,49.833988705442906,50.0,50.0,50.0,50.0,50.0,50.0,50.0,50.0,50.0,50.0,1.3406374703222745,-6.8118649351188685,-6.640451782284003,0.0,0.0,0.0,0.0,0.0,0.0,0.0,0.0,0.0,0.0
0.06,50.0482629489316,49.75477286233572,49.76094373583777,50.0,50.0,50.0,50.0,50.0,50.0,50.0,50.0,50.0,50.0,1.6087649643867292,-8.174237922142641,-7.968542138740802,0.0,0.0,0.0,0.0,0.0,0.0,0.0,0.0,0.0,0.0
0.07,50.065691236045794,49.66621861817917,49.674617862668086,50.0,50.0,50.0,50.0,50.0,50.0,50.0,50.0,50.0,50.0,1.8768924584511846,-9.536610909166416,-9.296632495197604,0.0,0.0,0.0,0.0,0.0,0.0,0.0,0.0,0.0,0.0
0.08,50.08580079810062,49.564040644152385,49.575011085933816,50.0,50.0,50.0,50.0,50.0,50.0,50.0,50.0,50.0,50.0,2.1450199525156393,-10.89898389619019,-10.624722851654404,0.0,0.0,0.0,0.0,0.0,0.0,0.0,0.0,0.0,0.0
0.09,50.108591635096104,49.44823894025537,49.462123405635,50.0,50.0,50.0,50.0,50.0,50.0,50.0,50.0,50.0,50.0,2.4131474465800937,-12.261356883213962,-11.952813208111204,0.0,0.0,0.0,0.0,0.0,0.0,0.0,0.0,0.0,0.0
0.1,50.13406374703223,49.31881350648811,49.3359548217716,50.0,50.0,50.0,50.0,50.0,50.0,50.0,50.0,50.0,50.0,2.681274940644549,-13.623729870237737,-13.280903564568005,0.0,0.0,0.0,0.0,0.0,0.0,0.0,0.0,0.0,0.0
0.11,50.162217133908996,49.17576434285062,49.196505334343634,50.0,50.0,50.0,50.0,50.0,50.0,50.0,50.0,50.0,50.0,2.949402434709004,-14.98610285726151,-14.608993921024805,0.0,0.0,0.0,0.0,0.0,0.0,0.0,0.0,0.0,0.0
0.12,50.19305179572641,49.01909144934289,49.04377494335111,50.0,50.0,50.0,50.0,50.0,50.0,50.0,50.0,50.0,50.0,3.2175299287734584,-16.348475844285282,-15.937084277481604,0.0,0.0,0.0,0.0,0.0,0.0,0.0,0.0,0.0,0.0
0.13,50.22656773248446,48.84879482596491,48.877763648794,50.0,50.0,50.0,50.0,50.0,50.0,50.0,50.0,50.0,50.0,3.485657422837914,-17.710848831309058,-17.265174633938408,0.0,0.0,0.0,0.0,0.0,0.0,0.0,0.0,0.0,0.0
0.14,50.26276494418316,48.6648744727167,48.698471450672336,50.0,50.0,50.0,50.0,50.0,50.0,50.0,50.0,50.0,50.0,3.753784916902369,-19.073221818332833,-18.59326499039521,0.0,0.0,0.0,0.0,0.0,0.0,0.0,0.0,0.0,0.0
0.15,50.30164343082251,48.46733038959825,48.50589834898609,50.0,50.0,50.0,50.0,50.0,50.0,50.0,50.0,50.0,50.0,4.021912410966823,-20.435594805356605,-19.921355346852003,0.0,0.0,0.0,0.0,0.0,0.0,0.0,0.0,0.0,0.0
0.16,50.343203192402505,48.256162576609576,48.3000443437353,50.0,50.0,50.0,50.0,50.0,50.0,50.0,50.0,50.0,50.0,4.2900399050312785,-21.79796779238038,-21.249445703308808,0.0,0.0,0.0,0.0,0.0,0.0,0.0,0.0,0.0,0.0
0.17,50.38744422892314,48.031371033750645,48.080909434919924,50.0,50.0,50.0,50.0,50.0,50.0,50.0,50.0,50.0,50.0,4.558167399095733,-23.160340779404155,-22.57753605976561,0.0,0.0,0.0,0.0,0.0,0.0,0.0,0.0,0.0,0.0
0.18,50.43436654038441,47.79295576102148,47.848493622539976,50.0,50.0,50.0,50.0,50.0,50.0,50.0,50.0,50.0,50.0,4.8262948931601874,-24.522713766427923,-23.905626416222407,0.0,0.0,0.0,0.0,0.0,0.0,0.0,0.0,0.0,0.0
0.19,50.48397012678634,47.54091675842209,47.60279690659548,50.0,50.0,50.0,50.0,50.0,50.0,50.0,50.0,50.0,50.0,5.094422387224643,-25.8850867534517,-25.23371677267921,0.0,0.0,0.0,0.0,0.0,0.0,0.0,0.0,0.0,0.0
0.2,50.53625498812891,47.27525402595246,47.3438192870864,50.0,50.0,50.0,50.0,50.0,50.0,50.0,50.0,50.0,50.0,5.362549881289098,-27.247459740475474,-26.56180712913601,0.0,0.0,0.0,0.0,0.0,0.0,0.0,0.0,0.0,0.0
0.21,50.59122112441212,46.99596756361258,47.07156076401276,50.0,50.0,50.0,50.0,50.0,50.0,50.0,50.0,50.0,50.0,5.630677375353552,-28.609832727499246,-27.889897485592808,0.0,0.0,0.0,0.0,0.0,0.0,0.0,0.0,0.0,0.0
0.22,50.64886853563598,46.703057371402465,46.78602133737454,50.0,50.0,50.0,50.0,50.0,50.0,50.0,50.0,50.0,50.0,5.898804869418008,-29.97220571452302,-29.21798784204961,0.0,0.0,0.0,0.0,0.0,0.0,0.0,0.0,0.0,0.0
0.23,50.70919722180048,46.39652344932212,46.48720100717176,50.0,50.0,50.0,50.0,50.0,50.0,50.0,50.0,50.0,50.0,6.166932363482463,-31.334578701546796,-30.54607819850641,0.0,0.0,0.0,0.0,0.0,0.0,0.0,0.0,0.0,0.0
0.24,50.772207182905625,46.07636579737153,46.17509977340441,50.0,50.0,50.0,50.0,50.0,50.0,50.0,50.0,50.0,50.0,6.435059857546917,-32.696951688570564,-31.87416855496321,0.0,0.0,0.0,0.0,0.0,0.0,0.0,0.0,0.0,0.0
0.25,50.837898418951426,45.74258441555071,45.849717636072505,50.0,50.0,50.0,50.0,50.0,50.0,50.0,50.0,50.0,50.0,6.703187351611373,-34.05932467559434,-33.20225891142001,0.0,0.0,0.0,0.0,0.0,0.0,0.0,0.0,0.0,0.0
0.26,50.90627092993786,45.39517930385965,45.51105459517602,50.0,50.0,50.0,50.0,50.0,50.0,50.0,50.0,50.0,50.0,6.971314845675828,-35.421697662618115,-34.530349267876815,0.0,0.0,0.0,0.0,0.0,0.0,0.0,0.0,0.0,0.0
0.27,50.97732471586494,45.03415046229834,45.159110650714965,50.0,50.0,50.0,50.0,50.0,50.0,50.0,50.0,50.0,50.0,7.2394423397402825,-36.78407064964189,-35.85843962433361,0.0,0.0,0.0,0.0,0.0,0.0,0.0,0.0,0.0,0.0
0.28,51.05105977673267,44.65949789086681,44.793885802689346,50.0,50.0,50.0,50.0,50.0,50.0,50.0,50.0,50.0,50.0,7.507569833804738,-38.146443636665666,-37.18652998079042,0.0,0.0,0.0,0.0,0.0,0.0,0.0,0.0,0.0,0.0
0.29,51.12747611254103,44.27122158956503,44.415380051099156,50.0,50.0,50.0,50.0,50.0,50.0,50.0,50.0,50.0,50.0,7.7756973278691905,-39.508816623689434,-38.51462033724721,0.0,0.0,0.0,0.0,0.0,0.0,0.0,0.0,0.0,0.0
0.3,51.20657372329005,43.86932155839302,44.023593395944395,50.0,50.0,50.0,50.0,50.0,50.0,50.0,50.0,50.0,50.0,8.043824821933645,-40.87118961071321,-39.84271069370401,0.0,0.0,0.0,0.0,0.0,0.0,0.0,0.0,0.0,0.0
0.31,51.28835260897971,43.45379779735077,43.61852583722508,50.0,50.0,50.0,50.0,50.0,50.0,50.0,50.0,50.0,50.0,8.3119523159981,-42.233562597736984,-41.17080105016081,0.0,0.0,0.0,0.0,0.0,0.0,0.0,0.0,0.0,0.0
0.32,51.37281276961001,43.024650306438275,43.20017737494118,50.0,50.0,50.0,50.0,50.0,50.0,50.0,50.0,50.0,50.0,8.580079810062557,-43.59593558476076,-42.498891406617616,0.0,0.0,0.0,0.0,0.0,0.0,0.0,0.0,0.0,0.0
0.33,51.459954205180956,42.58187908565555,42.768548009092726,50.0,50.0,50.0,50.0,50.0,50.0,50.0,50.0,50.0,50.0,8.848207304127012,-44.958308571784535,-43.826981763074414,0.0,0.0,0.0,0.0,0.0,0.0,0.0,0.0,0.0,0.0
0.34,51.54977691569255,42.12548413500259,42.32363773967969,50.0,50.0,50.0,50.0,50.0,50.0,50.0,50.0,50.0,50.0,9.116334798191467,-46.32068155880831,-45.15507211953122,0.0,0.0,0.0,0.0,0.0,0.0,0.0,0.0,0.0,0.0
0.35,51.64228090114478,41.65546545447938,41.8654465667021,50.0,50.0,50.0,50.0,50.0,50.0,50.0,50.0,50.0,50.0,9.38446229225592,-47.68305454583207,-46.48316247598801,0.0,0.0,0.0,0.0,0.0,0.0,0.0,0.0,0.0,0.0
0.36,51.73746616153767,41.17182304408595,41.393974490159934,50.0,50.0,50.0,50.0,50.0,50.0,50.0,50.0,50.0,50.0,9.652589786320375,-49.04542753285585,-47.811252832444815,0.0,0.0,0.0,0.0,0.0,0.0,0.0,0.0,0.0,0.0
0.37,51.83533269687119,40.67455690382227,40.9092215100532,50.0,50.0,50.0,50.0,50.0,50.0,50.0,50.0,50.0,50.0,9.920717280384832,-50.40780051987962,-49.13934318890161,0.0,0.0,0.0,0.0,0.0,0.0,0.0,0.0,0.0,0.0
0.38,51.93586240267044,40.16375902368616,40.41127730155173,50.0,50.0,50.0,50.0,50.0,50.0,50.0,50.0,50.0,50.0,10.157686123982394,-51.611854406296715,-50.31309837227341,0.0,0.0,0.0,0.0,0.0,0.0,0.0,0.0,0.0,0.0
0.39,52.03743926391026,39.64764047962319,39.908146317828994,50.0,50.0,50.0,50.0,50.0,50.0,50.0,50.0,50.0,50.0,10.157686123982394,-51.611854406296715,-50.31309837227341,0.0,0.0,0.0,0.0,0.0,0.0,0.0,0.0,0.0,0.0
0.4,52.13901612515008,39.13152193556022,39.40501533410625,50.0,50.0,50.0,50.0,50.0,50.0,50.0,50.0,50.0,50.0,10.157686123982394,-51.611854406296715,-50.31309837227341,0.0,0.0,0.0,0.0,0.0,0.0,0.0,0.0,0.0,0.0
0.41,52.240592986389906,38.61540339149726,38.901884350383526,50.0,50.0,50.0,50.0,50.0,50.0,50.0,50.0,50.0,50.0,10.157686123982394,-51.611854406296715,-50.31309837227341,0.0,0.0,0.0,0.0,0.0,0.0,0.0,0.0,0.0,0.0
0.42,52.342169847629734,38.09928484743429,38.39875336666079,50.0,50.0,50.0,50.0,50.0,50.0,50.0,50.0,50.0,50.0,10.157686123982394,-51.611854406296715,-50.31309837227341,0.0,0.0,0.0,0.0,0.0,0.0,0.0,0.0,0.0,0.0
0.43,52.443746708869554,37.58316630337132,37.89562238293805,50.0,50.0,50.0,50.0,50.0,50.0,50.0,50.0,50.0,50.0,10.157686123982394,-51.611854406296715,-50.31309837227341,0.0,0.0,0.0,0.0,0.0,0.0,0.0,0.0,0.0,0.0
0.44,52.545323570109375,37.06704775930835,37.39249139921532,50.0,50.0,50.0,50.0,50.0,50.0,50.0,50.0,50.0,50.0,10.157686123982394,-51.611854406296715,-50.31309837227341,0.0,0.0,0.0,0.0,0.0,0.0,0.0,0.0,0.0,0.0
0.45,52.6469004313492,36.55092921524539,36.88936041549258,50.0,50.0,50.0,50.0,50.0,50.0,50.0,50.0,50.0,50.0,10.157686123982394,-51.611854406296715,-50.31309837227341,0.0,0.0,0.0,0.0,0.0,0.0,0.0,0.0,0.0,0.0
0.46,52.74847729258903,36.03481067118242,36.386229431769856,50.0,50.0,50.0,50.0,50.0,50.0,50.0,50.0,50.0,50.0,10.157686123982394,-51.611854406296715,-50.31309837227341,0.0,0.0,0.0,0.0,0.0,0.0,0.0,0.0,0.0,0.0
0.47,52.85005415382885,35.51869212711946,35.88309844804712,50.0,50.0,50.0,50.0,50.0,50.0,50.0,50.0,50.0,50.0,10.157686123982394,-51.611854406296715,-50.31309837227341,0.0,0.0,0.0,0.0,0.0,0.0,0.0,0.0,0.0,0.0
0.48,52.95163101506867,35.00257358305649,35.37996746432438,50.0,50.0,50.0,50.0,50.0,50.0,50.0,50.0,50.0,50.0,10.157686123982394,-51.611854406296715,-50.31309837227341,0.0,0.0,0.0,0.0,0.0,0.0,0.0,0.0,0.0,0.0
0.49,53.0532078763085,34.48645503899352,34.87683648060165,50.0,50.0,50.0,50.0,50.0,50.0,50.0,50.0,50.0,50.0,10.157686123982394,-51.611854406296715,-50.31309837227341,0.0,0.0,0.0,0.0,0.0,0.0,0.0,0.0,0.0,0.0
0.5,53.15478473754832,33.97033649493055,34.37370549687891,50.0,50.0,50.0,50.0,50.0,50.0,50.0,50.0,50.0,50.0,10.157686123982394,-51.611854406296715,-50.31309837227341,0.0,0.0,0.0,0.0,0.0,0.0,0.0,0.0,0.0,0.0
0.51,53.256361598788146,33.45421795086758,33.87057451315618,50.0,50.0,50.0,50.0,50.0,50.0,50.0,50.0,50.0,50.0,10.157686123982394,-51.611854406296715,-50.31309837227341,0.0,0.0,0.0,0.0,0.0,0.0,0.0,0.0,0.0,0.0
0.52,53.35793846002797,32.93809940680462,33.367443529433444,50.0,50.0,50.0,50.0,50.0,50.0,50.0,50.0,50.0,50.0,10.157686123982394,-51.611854406296715,-50.31309837227341,0.0,0.0,0.0,0.0,0.0,0.0,0.0,0.0,0.0,0.0
0.53,53.4595153212678,32.421980862741655,32.86431254571072,50.0,50.0,50.0,50.0,50.0,50.0,50.0,50.0,50.0,50.0,10.157686123982394,-51.611854406296715,-50.31309837227341,0.0,0.0,0.0,0.0,0.0,0.0,0.0,0.0,0.0,0.0
0.54,53.561092182507615,31.90586231867868,32.361181561987976,50.0,50.0,50.0,50.0,50.0,50.0,50.0,50.0,50.0,50.0,10.157686123982394,-51.611854406296715,-50.31309837227341,0.0,0.0,0.0,0.0,0.0,0.0,0.0,0.0,0.0,0.0
0.55,53.66266904374744,31.389743774615713,31.858050578265242,50.0,50.0,50.0,50.0,50.0,50.0,50.0,50.0,50.0,50.0,10.157686123982394,-51.611854406296715,-50.31309837227341,0.0,0.0,0.0,0.0,0.0,0.0,0.0,0.0,0.0,0.0
0.56,53.76424590498726,30.873625230552747,31.35491959454251,50.0,50.0,50.0,50.0,50.0,50.0,50.0,50.0,50.0,50.0,10.157686123982394,-51.611854406296715,-50.31309837227341,0.0,0.0,0.0,0.0,0.0,0.0,0.0,0.0,0.0,0.0
0.57,53.86582276622708,30.357506686489785,30.85178861081978,50.0,50.0,50.0,50.0,50.0,50.0,50.0,50.0,50.0,50.0,10.157686123982394,-51.611854406296715,-50.31309837227341,0.0,0.0,0.0,0.0,0.0,0.0,0.0,0.0,0.0,0.0
0.58,53.96739962746691,29.841388142426815,30.34865762709704,50.0,50.0,50.0,50.0,50.0,50.0,50.0,50.0,50.0,50.0,10.157686123982394,-51.611854406296715,-50.31309837227341,0.0,0.0,0.0,0.0,0.0,0.0,0.0,0.0,0.0,0.0
0.59,54.06897648870674,29.32526959836385,29.84552664337431,50.0,50.0,50.0,50.0,50.0,50.0,50.0,50.0,50.0,50.0,10.157686123982394,-51.611854406296715,-50.31309837227341,0.0,0.0,0.0,0.0,0.0,0.0,0.0,0.0,0.0,0.0
0.6,54.17055334994656,28.809151054300884,29.342395659651576,50.0,50.0,50.0,50.0,50.0,50.0,50.0,50.0,50.0,50.0,10.157686123982394,-51.611854406296715,-50.31309837227341,0.0,0.0,0.0,0.0,0.0,0.0,0.0,0.0,0.0,0.0
0.61,54.272130211186386,28.29303251023791,28.83926467592884,50.0,50.0,50.0,50.0,50.0,50.0,50.0,50.0,50.0,50.0,10.157686123982394,-51.611854406296715,-50.31309837227341,0.0,0.0,0.0,0.0,0.0,0.0,0.0,0.0,0.0,0.0
0.62,54.37370707242621,27.776913966174945,28.336133692206104,50.0,50.0,50.0,50.0,50.0,50.0,50.0,50.0,50.0,50.0,10.157686123982394,-51.611854406296715,-50.31309837227341,0.0,0.0,0.0,0.0,0.0,0.0,0.0,0.0,0.0,0.0
0.63,54.475283933666034,27.260795422111975,27.83300270848337,50.0,50.0,50.0,50.0,50.0,50.0,50.0,50.0,50.0,50.0,10.157686123982394,-51.611854406296715,-50.31309837227341,0.0,0.0,0.0,0.0,0.0,0.0,0.0,0.0,0.0,0.0
0.64,54.576860794905855,26.74467687804901,27.329871724760636,50.0,50.0,50.0,50.0,50.0,50.0,50.0,50.0,50.0,50.0,10.157686123982394,-51.611854406296715,-50.31309837227341,0.0,0.0,0.0,0.0,0.0,0.0,0.0,0.0,0.0,0.0
0.65,54.678437656145675,26.228558333986044,26.826740741037902,50.0,50.0,50.0,50.0,50.0,50.0,50.0,50.0,50.0,50.0,10.157686123982394,-51.611854406296715,-50.31309837227341,0.0,0.0,0.0,0.0,0.0,0.0,0.0,0.0,0.0,0.0
0.66,54.78001451738551,25.712439789923078,26.323609757315168,50.0,50.0,50.0,50.0,50.0,50.0,50.0,50.0,50.0,50.0,10.157686123982394,-51.611854406296715,-50.31309837227341,0.0,0.0,0.0,0.0,0.0,0.0,0.0,0.0,0.0,0.0
0.67,54.88159137862533,25.19632124586011,25.820478773592434,50.0,50.0,50.0,50.0,50.0,50.0,50.0,50.0,50.0,50.0,10.157686123982394,-51.611854406296715,-50.31309837227341,0.0,0.0,0.0,0.0,0.0,0.0,0.0,0.0,0.0,0.0
0.68,54.98316823986515,24.680202701797143,25.3173477898697,50.0,50.0,50.0,50.0,50.0,50.0,50.0,50.0,50.0,50.0,10.157686123982394,-51.611854406296715,-50.31309837227341,0.0,0.0,0.0,0.0,0.0,0.0,0.0,0.0,0.0,0.0
0.69,55.08474510110497,24.164084157734177,24.814216806146966,50.0,50.0,50.0,50.0,50.0,50.0,50.0,50.0,50.0,50.0,10.157686123982394,-51.611854406296715,-50.31309837227341,0.0,0.0,0.0,0.0,0.0,0.0,0.0,0.0,0.0,0.0
0.7,55.186321962344806,23.64796561367121,24.311085822424236,50.0,50.0,50.0,50.0,50.0,50.0,50.0,50.0,50.0,50.0,10.157686123982394,-51.611854406296715,-50.31309837227341,0.0,0.0,0.0,0.0,0.0,0.0,0.0,0.0,0.0,0.0
0.71,55.28789882358463,23.13184706960824,23.807954838701498,50.0,50.0,50.0,50.0,50.0,50.0,50.0,50.0,50.0,50.0,10.157686123982394,-51.611854406296715,-50.31309837227341,0.0,0.0,0.0,0.0,0.0,0.0,0.0,0.0,0.0,0.0
0.72,55.38947568482445,22.615728525545276,23.304823854978764,50.0,50.0,50.0,50.0,50.0,50.0,50.0,50.0,50.0,50.0,10.157686123982394,-51.611854406296715,-50.31309837227341,0.0,0.0,0.0,0.0,0.0,0.0,0.0,0.0,0.0,0.0
0.73,55.491052546064275,22.099609981482306,22.80169287125603,50.0,50.0,50.0,50.0,50.0,50.0,50.0,50.0,50.0,50.0,10.157686123982394,-51.611854406296715,-50.31309837227341,0.0,0.0,0.0,0.0,0.0,0.0,0.0,0.0,0.0,0.0
0.74,55.592629407304095,21.58349143741934,22.298561887533296,50.0,50.0,50.0,50.0,50.0,50.0,50.0,50.0,50.0,50.0,10.157686123982394,-51.611854406296715,-50.31309837227341,0.0,0.0,0.0,0.0,0.0,0.0,0.0,0.0,0.0,0.0
0.75,55.69420626854392,21.06737289335637,21.795430903810562,50.0,50.0,50.0,50.0,50.0,50.0,50.0,50.0,50.0,50.0,10.157686123982394,-51.611854406296715,-50.31309837227341,0.0,0.0,0.0,0.0,0.0,0.0,0.0,0.0,0.0,0.0
0.76,55.79571071188402,20.551622309284625,21.29265862076712,50.0,50.0,50.0,50.0,50.0,50.0,50.0,50.0,50.0,50.0,10.095368823048613,-51.295216205083356,-50.004428026103405,0.0,0.0,0.0,0.0,0.0,0.0,0.0,0.0,0.0,0.0
0.77,55.89532376264418,20.045482012168907,20.799254792288373,50.0,50.0,50.0,50.0,50.0,50.0,50.0,50.0,50.0,50.0,9.827241328984158,-49.93284321805958,-48.6763376696466,0.0,0.0,0.0,0.0,0.0,0.0,0.0,0.0,0.0,0.0
0.78,55.9922555384637,19.55296544492343,20.31913186737419,50.0,50.0,50.0,50.0,50.0,50.0,50.0,50.0,50.0,50.0,9.559113834919703,-48.570470231035806,-47.3482473131898,0.0,0.0,0.0,0.0,0.0,0.0,0.0,0.0,0.0,0.0
0.79,56.086506039342574,19.07407260754819,19.852289846024576,50.0,50.0,50.0,50.0,50.0,50.0,50.0,50.0,50.0,50.0,9.290986340855246,-47.20809724401203,-46.020156956733,0.0,0.0,0.0,0.0,0.0,0.0,0.0,0.0,0.0,0.0
0.8,56.17807526528081,18.608803500043187,19.398728728239526,50.0,50.0,50.0,50.0,50.0,50.0,50.0,50.0,50.0,50.0,9.022858846790792,-45.845724256988255,-44.69206660027619,0.0,0.0,0.0,0.0,0.0,0.0,0.0,0.0,0.0,0.0
0.81,56.26696321627839,18.157158122408426,18.95844851401905,50.0,50.0,50.0,50.0,50.0,50.0,50.0,50.0,50.0,50.0,8.754731352726337,-44.48335126996448,-43.363976243819394,0.0,0.0,0.0,0.0,0.0,0.0,0.0,0.0,0.0,0.0
0.82,56.35316989233534,17.719136474643904,18.531449203363145,50.0,50.0,50.0,50.0,50.0,50.0,50.0,50.0,50.0,50.0,8.486603858661885,-43.12097828294072,-42.03588588736261,0.0,0.0,0.0,0.0,0.0,0.0,0.0,0.0,0.0,0.0
0.83,56.43669529345163,17.294738556749614,18.1177307962718,50.0,50.0,50.0,50.0,50.0,50.0,50.0,50.0,50.0,50.0,8.21847636459743,-41.758605295916944,-40.707795530905805,0.0,0.0,0.0,0.0,0.0,0.0,0.0,0.0,0.0,0.0
0.84,56.51753941962728,16.883964368725564,17.717293292745026,50.0,50.0,50.0,50.0,50.0,50.0,50.0,50.0,50.0,50.0,7.950348870532975,-40.39623230889317,-39.37970517444901,0.0,0.0,0.0,0.0,0.0,0.0,0.0,0.0,0.0,0.0
0.85,56.59570227086229,16.48681391057175,17.330136692782823,50.0,50.0,50.0,50.0,50.0,50.0,50.0,50.0,50.0,50.0,7.68222137646852,-39.03385932186939,-38.0516148179922,0.0,0.0,0.0,0.0,0.0,0.0,0.0,0.0,0.0,0.0
0.86,56.67118384715665,16.10328718228817,16.956260996385183,50.0,50.0,50.0,50.0,50.0,50.0,50.0,50.0,50.0,50.0,7.414093882404065,-37.671486334845625,-36.723524461535405,0.0,0.0,0.0,0.0,0.0,0.0,0.0,0.0,0.0,0.0
0.87,56.74398414851037,15.733384183874838,16.595666203552113,50.0,50.0,50.0,50.0,50.0,50.0,50.0,50.0,50.0,50.0,7.14596638833961,-36.30911334782185,-35.3954341050786,0.0,0.0,0.0,0.0,0.0,0.0,0.0,0.0,0.0,0.0
0.88,56.814103174923446,15.377104915331739,16.24835231428361,50.0,50.0,50.0,50.0,50.0,50.0,50.0,50.0,50.0,50.0,6.877838894275155,-34.946740360798074,-34.0673437486218,0.0,0.0,0.0,0.0,0.0,0.0,0.0,0.0,0.0,0.0
0.89,56.88154092639587,15.034449376658877,15.914319328579678,50.0,50.0,50.0,50.0,50.0,50.0,50.0,50.0,50.0,50.0,6.609711400210699,-33.5843673737743,-32.739253392165,0.0,0.0,0.0,0.0,0.0,0.0,0.0,0.0,0.0,0.0
0.9,56.946297402927655,14.70541756785625,15.593567246440308,50.0,50.0,50.0,50.0,50.0,50.0,50.0,50.0,50.0,50.0,6.341583906146244,-32.221994386750524,-31.411163035708196,0.0,0.0,0.0,0.0,0.0,0.0,0.0,0.0,0.0,0.0
0.91,57.008372604518804,14.390009488923866,15.286096067865513,50.0,50.0,50.0,50.0,50.0,50.0,50.0,50.0,50.0,50.0,6.073456412081789,-30.859621399726745,-30.083072679251394,0.0,0.0,0.0,0.0,0.0,0.0,0.0,0.0,0.0,0.0
0.92,57.0677665311693,14.088225139861716,14.991905792855283,50.0,50.0,50.0,50.0,50.0,50.0,50.0,50.0,50.0,50.0,5.8053289180173335,-29.49724841270297,-28.754982322794593,0.0,0.0,0.0,0.0,0.0,0.0,0.0,0.0,0.0,0.0
0.93,57.12447918287914,13.800064520669807,14.710996421409622,50.0,50.0,50.0,50.0,50.0,50.0,50.0,50.0,50.0,50.0,5.537201423952879,-28.134875425679194,-27.42689196633779,0.0,0.0,0.0,0.0,0.0,0.0,0.0,0.0,0.0,0.0
0.94,57.17851055964835,13.525527631348135,14.443367953528528,50.0,50.0,50.0,50.0,50.0,50.0,50.0,50.0,50.0,50.0,5.269073929888427,-26.772502438655437,-26.098801609881004,0.0,0.0,0.0,0.0,0.0,0.0,0.0,0.0,0.0,0.0
0.95,57.22986066147691,13.2646144718967,14.189020389212004,50.0,50.0,50.0,50.0,50.0,50.0,50.0,50.0,50.0,50.0,5.0009464358239715,-25.41012945163166,-24.770711253424203,0.0,0.0,0.0,0.0,0.0,0.0,0.0,0.0,0.0,0.0
0.96,57.27852948836483,13.017325042315502,13.947953728460046,50.0,50.0,50.0,50.0,50.0,50.0,50.0,50.0,50.0,50.0,4.732818941759517,-24.047756464607886,-23.4426208969674,0.0,0.0,0.0,0.0,0.0,0.0,0.0,0.0,0.0,0.0
0.97,57.3245170403121,12.783659342604542,13.720167971272653,50.0,50.0,50.0,50.0,50.0,50.0,50.0,50.0,50.0,50.0,4.464691447695062,-22.68538347758411,-22.1145305405106,0.0,0.0,0.0,0.0,0.0,0.0,0.0,0.0,0.0,0.0
0.98,57.36782331731874,12.56361737276382,13.505663117649833,50.0,50.0,50.0,50.0,50.0,50.0,50.0,50.0,50.0,50.0,4.196563953630606,-21.323010490560335,-20.7864401840538,0.0,0.0,0.0,0.0,0.0,0.0,0.0,0.0,0.0,0.0
0.99,57.40844831938472,12.357199132793331,13.304439167591575,50.0,50.0,50.0,50.0,50.0,50.0,50.0,50.0,50.0,50.0,3.928436459566151,-19.96063750353656,-19.458349827596997,0.0,0.0,0.0,0.0,0.0,0.0,0.0,0.0,0.0,0.0
1.0,57.446392046510056,12.164404622693088,13.116496121097892,50.0,50.0,50.0,50.0,50.0,50.0,50.0,50.0,50.0,50.0,3.6603089655016956,-18.598264516512785,-18.130259471140192,0.0,0.0,0.0,0.0,0.0,0.0,0.0,0.0,0.0,0.0
1.01,57.48165449869475,11.985233842463078,12.941833978168775,50.0,50.0,50.0,50.0,50.0,50.0,50.0,50.0,50.0,50.0,3.3921814714372407,-17.235891529489013,-16.802169114683394,0.0,0.0,0.0,0.0,0.0,0.0,0.0,0.0,0.0,0.0
1.02,57.5142356759388,11.819686792103308,12.780452738804225,50.0,50.0,50.0,50.0,50.0,50.0,50.0,50.0,50.0,50.0,3.124053977372786,-15.873518542465238,-15.474078758226591,0.0,0.0,0.0,0.0,0.0,0.0,0.0,0.0,0.0,0.0
1.03,57.54413557824221,11.667763471613771,12.632352403004239,50.0,50.0,50.0,50.0,50.0,50.0,50.0,50.0,50.0,50.0,2.8559264833083304,-14.511145555441463,-14.14598840176979,0.0,0.0,0.0,0.0,0.0,0.0,0.0,0.0,0.0,0.0
1.04,57.57135420560497,11.529463880994477,12.497532970768827,50.0,50.0,50.0,50.0,50.0,50.0,50.0,50.0,50.0,50.0,2.587798989243875,-13.148772568417687,-12.817898045312988,0.0,0.0,0.0,0.0,0.0,0.0,0.0,0.0,0.0,0.0
1.05,57.595891558027084,11.404788020245418,12.37599444209798,50.0,50.0,50.0,50.0,50.0,50.0,50.0,50.0,50.0,50.0,2.31967149517942,-11.786399581393912,-11.489807688856185,0.0,0.0,0.0,0.0,0.0,0.0,0.0,0.0,0.0,0.0
1.06,57.61774763550856,11.293735889366598,12.267736816991702,50.0,50.0,50.0,50.0,50.0,50.0,50.0,50.0,50.0,50.0,2.051544001114965,-10.424026594370137,-10.161717332399384,0.0,0.0,0.0,0.0,0.0,0.0,0.0,0.0,0.0,0.0
1.07,57.63692243804938,11.196307488358014,12.172760095449993,50.0,50.0,50.0,50.0,50.0,50.0,50.0,50.0,50.0,50.0,1.78341650705051,-9.061653607346361,-8.833626975942583,0.0,0.0,0.0,0.0,0.0,0.0,0.0,0.0,0.0,0.0
1.08,57.653415965649565,11.112502817219672,12.091064277472853,50.0,50.0,50.0,50.0,50.0,50.0,50.0,50.0,50.0,50.0,1.5152890129860546,-7.699280620322587,-7.505536619485781,0.0,0.0,0.0,0.0,0.0,0.0,0.0,0.0,0.0,0.0
1.09,57.6672282183091,11.042321875951563,12.022649363060276,50.0,50.0,50.0,50.0,50.0,50.0,50.0,50.0,50.0,50.0,1.2471615189215997,-6.336907633298813,-6.17744626302898,0.0,0.0,0.0,0.0,0.0,0.0,0.0,0.0,0.0,0.0
1.1,57.678359196028,10.985764664553692,11.96751535221227,50.0,50.0,50.0,50.0,50.0,50.0,50.0,50.0,50.0,50.0,0.9790340248571444,-4.974534646275037,-4.849355906572178,0.0,0.0,0.0,0.0,0.0,0.0,0.0,0.0,0.0,0.0
1.11,57.68680889880625,10.942831183026062,11.925662244928832,50.0,50.0,50.0,50.0,50.0,50.0,50.0,50.0,50.0,50.0,0.7109065307926893,-3.612161659251263,-3.5212655501153765,0.0,0.0,0.0,0.0,0.0,0.0,0.0,0.0,0.0,0.0
1.12,57.69257732664386,10.913521431368668,11.897090041209962,50.0,50.0,50.0,50.0,50.0,50.0,50.0,50.0,50.0,50.0,0.44277903672823415,-2.2497886722274876,-2.1931751936585746,0.0,0.0,0.0,0.0,0.0,0.0,0.0,0.0,0.0,0.0
1.13,57.69566447954081,10.897835409581514,11.881798741055663,50.0,50.0,50.0,50.0,50.0,50.0,50.0,50.0,50.0,50.0,0.17465154266378494,-0.8874156852037429,-0.8650848372018025,0.0,0.0,0.0,0.0,0.0,0.0,0.0,0.0,0.0,0.0
1.14,57.696113473465246,10.896194146466334,11.88015298570705,50.0,50.0,50.0,50.0,50.0,50.0,50.0,50.0,50.0,50.0,-0.06874108363807636,0.7164940732524706,0.6721937452087083,0.0,0.0,0.0,0.0,0.0,0.0,0.0,0.0,0.0,0.0
1.15,57.69444017405437,10.913635086399433,11.896515564507416,50.0,50.0,50.0,50.0,50.0,50.0,50.0,50.0,50.0,50.0,-0.26591879853663136,2.7716939133670873,2.600322014864593,0.0,0.0,0.0,0.0,0.0,0.0,0.0,0.0,0.0,0.0
1.16,57.69079509749451,10.951628024733676,11.93215942600434,50.0,50.0,50.0,50.0,50.0,50.0,50.0,50.0,50.0,50.0,-0.4630965134351864,4.826893753481705,4.528450284520478,0.0,0.0,0.0,0.0,0.0,0.0,0.0,0.0,0.0,0.0
1.17,57.685178243785664,11.010172961469067,11.987084570197826,50.0,50.0,50.0,50.0,50.0,50.0,50.0,50.0,50.0,50.0,-0.6602742283337414,6.882093593596322,6.456578554176363,0.0,0.0,0.0,0.0,0.0,0.0,0.0,0.0,0.0,0.0
1.18,57.677589612927825,11.089269896605602,12.061290997087868,50.0,50.0,50.0,50.0,50.0,50.0,50.0,50.0,50.0,50.0,-0.8574519432322963,8.937293433710938,8.384706823832246,0.0,0.0,0.0,0.0,0.0,0.0,0.0,0.0,0.0,0.0
1.19,57.66802920492102,11.188918830143285,12.15477870667447,50.0,50.0,50.0,50.0,50.0,50.0,50.0,50.0,50.0,50.0,-1.0546296581308514,10.992493273825556,10.312835093488133,0.0,0.0,0.0,0.0,0.0,0.0,0.0,0.0,0.0,0.0
1.2,57.65649701976522,11.309119762082114,12.26754769895763,50.0,50.0,50.0,50.0,50.0,50.0,50.0,50.0,50.0,50.0,-1.2518073730294064,13.047693113940172,12.240963363144017,0.0,0.0,0.0,0.0,0.0,0.0,0.0,0.0,0.0,0.0
1.21,57.64299305746042,11.449872692422089,12.39959797393735,50.0,50.0,50.0,50.0,50.0,50.0,50.0,50.0,50.0,50.0,-1.4489850879279615,15.10289295405479,14.169091632799903,0.0,0.0,0.0,0.0,0.0,0.0,0.0,0.0,0.0,0.0
1.22,57.62751731800665,11.61117762116321,12.550929531613628,50.0,50.0,50.0,50.0,50.0,50.0,50.0,50.0,50.0,50.0,-1.6461628028265165,17.158092794169406,16.097219902455787,0.0,0.0,0.0,0.0,0.0,0.0,0.0,0.0,0.0,0.0
1.23,57.610069801403895,11.793034548305476,12.721542371986466,50.0,50.0,50.0,50.0,50.0,50.0,50.0,50.0,50.0,50.0,-1.8433405177250715,19.213292634284024,18.02534817211167,0.0,0.0,0.0,0.0,0.0,0.0,0.0,0.0,0.0,0.0
1.24,57.59065050765216,11.99544347384889,12.911436495055863,50.0,50.0,50.0,50.0,50.0,50.0,50.0,50.0,50.0,50.0,-2.0405182326236266,21.268492474398638,19.953476441767556,0.0,0.0,0.0,0.0,0.0,0.0,0.0,0.0,0.0,0.0
1.25,57.56925943675143,12.21840439779345,13.120611900821817,50.0,50.0,50.0,50.0,50.0,50.0,50.0,50.0,50.0,50.0,-2.2376959475221816,23.323692314513256,21.88160471142344,0.0,0.0,0.0,0.0,0.0,0.0,0.0,0.0,0.0,0.0
1.26,57.545896588701716,12.461917320139158,13.349068589284332,50.0,50.0,50.0,50.0,50.0,50.0,50.0,50.0,50.0,50.0,-2.4348736624207366,25.378892154627874,23.809732981079325,0.0,0.0,0.0,0.0,0.0,0.0,0.0,0.0,0.0,0.0
1.27,57.520561963503006,12.725982240886008,13.596806560443405,50.0,50.0,50.0,50.0,50.0,50.0,50.0,50.0,50.0,50.0,-2.6320513773192915,27.43409199474249,25.73786125073521,0.0,0.0,0.0,0.0,0.0,0.0,0.0,0.0,0.0,0.0
1.28,57.49325556115532,13.010599160034005,13.863825814299036,50.0,50.0,50.0,50.0,50.0,50.0,50.0,50.0,50.0,50.0,-2.8292290922178465,29.48929183485711,27.665989520391093,0.0,0.0,0.0,0.0,0.0,0.0,0.0,0.0,0.0,0.0
1.29,57.46397738165865,13.31576807758315,14.150126350851227,50.0,50.0,50.0,50.0,50.0,50.0,50.0,50.0,50.0,50.0,-3.0264068071164014,31.544491674971724,29.59411779004698,0.0,0.0,0.0,0.0,0.0,0.0,0.0,0.0,0.0,0.0
1.3,57.432727425013,13.641488993533441,14.455708170099978,50.0,50.0,50.0,50.0,50.0,50.0,50.0,50.0,50.0,50.0,-3.2235845220149564,33.59969151508634,31.522246059702862,0.0,0.0,0.0,0.0,0.0,0.0,0.0,0.0,0.0,0.0
1.31,57.39950569121836,13.987761907884877,14.780571272045286,50.0,50.0,50.0,50.0,50.0,50.0,50.0,50.0,50.0,50.0,-3.4207622369135113,35.65489135520096,33.450374329358745,0.0,0.0,0.0,0.0,0.0,0.0,0.0,0.0,0.0,0.0
1.32,57.36431218027472,14.35458682063746,15.124715656687151,50.0,50.0,50.0,50.0,50.0,50.0,50.0,50.0,50.0,50.0,-3.6179399518120663,37.71009119531557,35.37850259901463,0.0,0.0,0.0,0.0,0.0,0.0,0.0,0.0,0.0,0.0
1.33,57.327146892182114,14.741963731791191,15.488141324025577,50.0,50.0,50.0,50.0,50.0,50.0,50.0,50.0,50.0,50.0,-3.8151176667106212,39.76529103543019,37.30663086867052,0.0,0.0,0.0,0.0,0.0,0.0,0.0,0.0,0.0,0.0
1.34,57.28800982694052,15.149892641346067,15.870848274060563,50.0,50.0,50.0,50.0,50.0,50.0,50.0,50.0,50.0,50.0,-4.012295381609177,41.82049087554481,39.2347591383264,0.0,0.0,0.0,0.0,0.0,0.0,0.0,0.0,0.0,0.0
1.35,57.24690098454994,15.57837354930209,16.27283650679211,50.0,50.0,50.0,50.0,50.0,50.0,50.0,50.0,50.0,50.0,-4.209473096507732,43.87569071565943,41.16288740798229,0.0,0.0,0.0,0.0,0.0,0.0,0.0,0.0,0.0,0.0
1.36,57.203820365010365,16.027406455659257,16.69410602222021,50.0,50.0,50.0,50.0,50.0,50.0,50.0,50.0,50.0,50.0,-4.406650811406287,45.93089055577404,43.091015677638175,0.0,0.0,0.0,0.0,0.0,0.0,0.0,0.0,0.0,0.0
1.37,57.15876796832181,16.496991360417567,17.134656820344873,50.0,50.0,50.0,50.0,50.0,50.0,50.0,50.0,50.0,50.0,-4.6038285263048415,47.98609039588866,45.019143947294054,0.0,0.0,0.0,0.0,0.0,0.0,0.0,0.0,0.0,0.0
1.38,57.11174379448426,16.98712826357702,17.59448890116608,50.0,50.0,50.0,50.0,50.0,50.0,50.0,50.0,50.0,50.0,-4.8010062412033925,50.041290236003235,46.947272216949905,0.0,0.0,0.0,0.0,0.0,0.0,0.0,0.0,0.0,0.0
1.39,57.06274784349773,17.497817165137626,18.07360226468386,50.0,50.0,50.0,50.0,50.0,50.0,50.0,50.0,50.0,50.0,-4.998183956101948,52.09649007611785,48.875400486605784,0.0,0.0,0.0,0.0,0.0,0.0,0.0,0.0,0.0,0.0
1.4,57.01188802751502,18.027933287690985,18.570941677691252,50.0,50.0,50.0,50.0,50.0,50.0,50.0,50.0,50.0,50.0,-5.130126907727303,53.471742513870225,50.16562202681165,0.0,0.0,0.0,0.0,0.0,0.0,0.0,0.0,0.0,0.0
1.41,56.96058675843774,18.562650712829686,19.072597897959373,50.0,50.0,50.0,50.0,50.0,50.0,50.0,50.0,50.0,50.0,-5.130126907727303,53.471742513870225,50.16562202681165,0.0,0.0,0.0,0.0,0.0,0.0,0.0,0.0,0.0,0.0
1.42,56.909285489360464,19.097368137968388,19.574254118227486,50.0,50.0,50.0,50.0,50.0,50.0,50.0,50.0,50.0,50.0,-5.130126907727303,53.471742513870225,50.16562202681165,0.0,0.0,0.0,0.0,0.0,0.0,0.0,0.0,0.0,0.0
1.43,56.8579842202832,19.63208556310709,20.075910338495603,50.0,50.0,50.0,50.0,50.0,50.0,50.0,50.0,50.0,50.0,-5.130126907727303,53.471742513870225,50.16562202681165,0.0,0.0,0.0,0.0,0.0,0.0,0.0,0.0,0.0,0.0
1.44,56.806682951205914,20.16680298824579,20.57756655876372,50.0,50.0,50.0,50.0,50.0,50.0,50.0,50.0,50.0,50.0,-5.130126907727303,53.471742513870225,50.16562202681165,0.0,0.0,0.0,0.0,0.0,0.0,0.0,0.0,0.0,0.0
1.45,56.75538168212864,20.701520413384497,21.079222779031838,50.0,50.0,50.0,50.0,50.0,50.0,50.0,50.0,50.0,50.0,-5.130126907727303,53.471742513870225,50.16562202681165,0.0,0.0,0.0,0.0,0.0,0.0,0.0,0.0,0.0,0.0
1.46,56.70408041305138,21.2362378385232,21.580878999299955,50.0,50.0,50.0,50.0,50.0,50.0,50.0,50.0,50.0,50.0,-5.130126907727303,53.471742513870225,50.16562202681165,0.0,0.0,0.0,0.0,0.0,0.0,0.0,0.0,0.0,0.0
1.47,56.6527791439741,21.7709552636619,22.082535219568072,50.0,50.0,50.0,50.0,50.0,50.0,50.0,50.0,50.0,50.0,-5.130126907727303,53.471742513870225,50.16562202681165,0.0,0.0,0.0,0.0,0.0,0.0,0.0,0.0,0.0,0.0
1.48,56.60147787489683,22.305672688800605,22.58419143983619,50.0,50.0,50.0,50.0,50.0,50.0,50.0,50.0,50.0,50.0,-5.130126907727303,53.471742513870225,50.16562202681165,0.0,0.0,0.0,0.0,0.0,0.0,0.0,0.0,0.0,0.0
1.49,56.55017660581956,22.840390113939307,23.085847660104307,50.0,50.0,50.0,50.0,50.0,50.0,50.0,50.0,50.0,50.0,-5.130126907727303,53.471742513870225,50.16562202681165,0.0,0.0,0.0,0.0,0.0,0.0,0.0,0.0,0.0,0.0
1.5,56.49887533674229,23.37510753907801,23.587503880372424,50.0,50.0,50.0,50.0,50.0,50.0,50.0,50.0,50.0,50.0,-5.130126907727303,53.471742513870225,50.16562202681165,0.0,0.0,0.0,0.0,0.0,0.0,0.0,0.0,0.0,0.0
1.51,56.44757406766501,23.90982496421671,24.08916010064054,50.0,50.0,50.0,50.0,50.0,50.0,50.0,50.0,50.0,50.0,-5.130126907727303,53.471742513870225,50.16562202681165,0.0,0.0,0.0,0.0,0.0,0.0,0.0,0.0,0.0,0.0
1.52,56.39627279858773,24.444542389355416,24.590816320908658,50.0,50.0,50.0,50.0,50.0,50.0,50.0,50.0,50.0,50.0,-5.130126907727303,53.471742513870225,50.16562202681165,0.0,0.0,0.0,0.0,0.0,0.0,0.0,0.0,0.0,0.0
1.53,56.34497152951046,24.979259814494114,25.092472541176775,50.0,50.0,50.0,50.0,50.0,50.0,50.0,50.0,50.0,50.0,-5.130126907727303,53.471742513870225,50.16562202681165,0.0,0.0,0.0,0.0,0.0,0.0,0.0,0.0,0.0,0.0
1.54,56.29367026043319,25.51397723963282,25.594128761444892,50.0,50.0,50.0,50.0,50.0,50.0,50.0,50.0,50.0,50.0,-5.130126907727303,53.471742513870225,50.16562202681165,0.0,0.0,0.0,0.0,0.0,0.0,0.0,0.0,0.0,0.0
1.55,56.24236899135592,26.048694664771524,26.09578498171301,50.0,50.0,50.0,50.0,50.0,50.0,50.0,50.0,50.0,50.0,-5.130126907727303,53.471742513870225,50.16562202681165,0.0,0.0,0.0,0.0,0.0,0.0,0.0,0.0,0.0,0.0
1.56,56.191067722278646,26.583412089910226,26.597441201981127,50.0,50.0,50.0,50.0,50.0,50.0,50.0,50.0,50.0,50.0,-5.130126907727303,53.471742513870225,50.16562202681165,0.0,0.0,0.0,0.0,0.0,0.0,0.0,0.0,0.0,0.0
1.57,56.139766453201375,27.118129515048928,27.099097422249237,50.0,50.0,50.0,50.0,50.0,50.0,50.0,50.0,50.0,50.0,-5.130126907727303,53.471742513870225,50.16562202681165,0.0,0.0,0.0,0.0,0.0,0.0,0.0,0.0,0.0,0.0
1.58,56.0884651841241,27.65284694018763,27.60075364251736,50.0,50.0,50.0,50.0,50.0,50.0,50.0,50.0,50.0,50.0,-5.130126907727303,53.471742513870225,50.16562202681165,0.0,0.0,0.0,0.0,0.0,0.0,0.0,0.0,0.0,0.0
1.59,56.03716391504683,28.187564365326335,28.102409862785475,50.0,50.0,50.0,50.0,50.0,50.0,50.0,50.0,50.0,50.0,-5.130126907727303,53.471742513870225,50.16562202681165,0.0,0.0,0.0,0.0,0.0,0.0,0.0,0.0,0.0,0.0
1.6,55.985862645969554,28.722281790465036,28.604066083053592,50.0,50.0,50.0,50.0,50.0,50.0,50.0,50.0,50.0,50.0,-5.130126907727303,53.471742513870225,50.16562202681165,0.0,0.0,0.0,0.0,0.0,0.0,0.0,0.0,0.0,0.0
1.61,55.934561376892276,29.256999215603738,29.105722303321706,50.0,50.0,50.0,50.0,50.0,50.0,50.0,50.0,50.0,50.0,-5.130126907727303,53.471742513870225,50.16562202681165,0.0,0.0,0.0,0.0,0.0,0.0,0.0,0.0,0.0,0.0
1.62,55.883260107815005,29.791716640742443,29.607378523589826,50.0,50.0,50.0,50.0,50.0,50.0,50.0,50.0,50.0,50.0,-5.130126907727303,53.471742513870225,50.16562202681165,0.0,0.0,0.0,0.0,0.0,0.0,0.0,0.0,0.0,0.0
1.63,55.831958838737734,30.326434065881134,30.109034743857933,50.0,50.0,50.0,50.0,50.0,50.0,50.0,50.0,50.0,50.0,-5.130126907727303,53.471742513870225,50.16562202681165,0.0,0.0,0.0,0.0,0.0,0.0,0.0,0.0,0.0,0.0
1.64,55.78065756966046,30.861151491019836,30.610690964126047,50.0,50.0,50.0,50.0,50.0,50.0,50.0,50.0,50.0,50.0,-5.130126907727303,53.471742513870225,50.16562202681165,0.0,0.0,0.0,0.0,0.0,0.0,0.0,0.0,0.0,0.0
1.65,55.72935630058319,31.395868916158538,31.112347184394167,50.0,50.0,50.0,50.0,50.0,50.0,50.0,50.0,50.0,50.0,-5.130126907727303,53.471742513870225,50.16562202681165,0.0,0.0,0.0,0.0,0.0,0.0,0.0,0.0,0.0,0.0
1.66,55.678151655018006,31.9295792263365,31.613058558916045,50.0,50.0,50.0,50.0,50.0,50.0,50.0,50.0,50.0,50.0,-5.068398464818981,52.828341782398226,49.56200231312033,0.0,0.0,0.0,0.0,0.0,0.0,0.0,0.0,0.0,0.0
1.67,55.628453558944315,32.44758664495991,32.09903794069897,50.0,50.0,50.0,50.0,50.0,50.0,50.0,50.0,50.0,50.0,-4.871220749920425,50.77314194228361,47.63387404346444,0.0,0.0,0.0,0.0,0.0,0.0,0.0,0.0,0.0,0.0
1.68,55.5807272400196,32.94504206518217,32.565736039785335,50.0,50.0,50.0,50.0,50.0,50.0,50.0,50.0,50.0,50.0,-4.674043035021871,48.71794210216899,45.70574577380855,0.0,0.0,0.0,0.0,0.0,0.0,0.0,0.0,0.0,0.0
1.69,55.53497269824388,33.42194548700329,33.01315285617515,50.0,50.0,50.0,50.0,50.0,50.0,50.0,50.0,50.0,50.0,-4.4768653201233155,46.66274226205437,43.77761750415267,0.0,0.0,0.0,0.0,0.0,0.0,0.0,0.0,0.0,0.0
1.7,55.491189933617136,33.87829691042326,33.44128838986839,50.0,50.0,50.0,50.0,50.0,50.0,50.0,50.0,50.0,50.0,-4.279687605224761,44.607542421939755,41.84948923449679,0.0,0.0,0.0,0.0,0.0,0.0,0.0,0.0,0.0,0.0
1.71,55.449378946139376,34.31409633544209,33.85014264086508,50.0,50.0,50.0,50.0,50.0,50.0,50.0,50.0,50.0,50.0,-4.082509890326206,42.552342581825144,39.9213609648409,0.0,0.0,0.0,0.0,0.0,0.0,0.0,0.0,0.0,0.0
1.72,55.40953973581061,34.72934376205976,34.2397156091652,50.0,50.0,50.0,50.0,50.0,50.0,50.0,50.0,50.0,50.0,-3.8853321754276506,40.497142741710526,37.99323269518502,0.0,0.0,0.0,0.0,0.0,0.0,0.0,0.0,0.0,0.0
1.73,55.37167230263082,35.1240391902763,34.61000729476878,50.0,50.0,50.0,50.0,50.0,50.0,50.0,50.0,50.0,50.0,-3.6881544605290957,38.44194290159591,36.065104425529135,0.0,0.0,0.0,0.0,0.0,0.0,0.0,0.0,0.0,0.0
1.74,55.335776646600024,35.49818262009168,34.961017697675786,50.0,50.0,50.0,50.0,50.0,50.0,50.0,50.0,50.0,50.0,-3.4909767456305407,36.38674306148129,34.13697615587325,0.0,0.0,0.0,0.0,0.0,0.0,0.0,0.0,0.0,0.0
1.75,55.301852767718216,35.85177405150592,35.29274681788625,50.0,50.0,50.0,50.0,50.0,50.0,50.0,50.0,50.0,50.0,-3.2937990307319858,34.33154322136667,32.20884788621736,0.0,0.0,0.0,0.0,0.0,0.0,0.0,0.0,0.0,0.0
1.76,55.26990066598538,36.18481348451901,35.60519465540014,50.0,50.0,50.0,50.0,50.0,50.0,50.0,50.0,50.0,50.0,-3.096621315833431,32.27634338125206,30.28071961656148,0.0,0.0,0.0,0.0,0.0,0.0,0.0,0.0,0.0,0.0
1.77,55.23992034140154,36.497300919130964,35.89836121021747,50.0,50.0,50.0,50.0,50.0,50.0,50.0,50.0,50.0,50.0,-2.899443600934876,30.221143541137444,28.352591346905598,0.0,0.0,0.0,0.0,0.0,0.0,0.0,0.0,0.0,0.0
1.78,55.21191179396669,36.78923635534177,36.17224648233825,50.0,50.0,50.0,50.0,50.0,50.0,50.0,50.0,50.0,50.0,-2.7022658860363205,28.16594370102282,26.424463077249708,0.0,0.0,0.0,0.0,0.0,0.0,0.0,0.0,0.0,0.0
1.79,55.185875023680815,37.06061979315142,36.42685047176247,50.0,50.0,50.0,50.0,50.0,50.0,50.0,50.0,50.0,50.0,-2.5050881711377655,26.110743860908208,24.496334807593826,0.0,0.0,0.0,0.0,0.0,0.0,0.0,0.0,0.0,0.0
1.8,55.16181003054393,37.31145123255993,36.66217317849013,50.0,50.0,50.0,50.0,50.0,50.0,50.0,50.0,50.0,50.0,-2.3079104562392105,24.05554402079359,22.568206537937943,0.0,0.0,0.0,0.0,0.0,0.0,0.0,0.0,0.0,0.0
1.81,55.13971681455603,37.541730673567294,36.87821460252123,50.0,50.0,50.0,50.0,50.0,50.0,50.0,50.0,50.0,50.0,-2.1107327413406556,22.000344180678972,20.640078268282053,0.0,0.0,0.0,0.0,0.0,0.0,0.0,0.0,0.0,0.0
1.82,55.11959537571712,37.75145811617351,37.07497474385577,50.0,50.0,50.0,50.0,50.0,50.0,50.0,50.0,50.0,50.0,-1.9135550264421004,19.945144340564354,18.71194999862617,0.0,0.0,0.0,0.0,0.0,0.0,0.0,0.0,0.0,0.0
1.83,55.101445714027186,37.94063356037858,37.25245360249376,50.0,50.0,50.0,50.0,50.0,50.0,50.0,50.0,50.0,50.0,-1.7163773115435454,17.88994450044974,16.783821728970285,0.0,0.0,0.0,0.0,0.0,0.0,0.0,0.0,0.0,0.0
1.84,55.08526782948625,38.10925700618251,37.410651178435174,50.0,50.0,50.0,50.0,50.0,50.0,50.0,50.0,50.0,50.0,-1.5191995966449905,15.834744660335122,14.855693459314402,0.0,0.0,0.0,0.0,0.0,0.0,0.0,0.0,0.0,0.0
1.85,55.07106172209429,38.25732845358529,37.54956747168004,50.0,50.0,50.0,50.0,50.0,50.0,50.0,50.0,50.0,50.0,-1.3220218817464355,13.779544820220504,12.927565189658516,0.0,0.0,0.0,0.0,0.0,0.0,0.0,0.0,0.0,0.0
1.86,55.05882739185132,38.38484790258692,37.66920248222835,50.0,50.0,50.0,50.0,50.0,50.0,50.0,50.0,50.0,50.0,-1.1248441668478806,11.724344980105888,10.999436920002632,0.0,0.0,0.0,0.0,0.0,0.0,0.0,0.0,0.0,0.0
1.87,55.04856483875733,38.491815353187405,37.7695562100801,50.0,50.0,50.0,50.0,50.0,50.0,50.0,50.0,50.0,50.0,-0.9276664519493254,9.66914513999127,9.071308650346747,0.0,0.0,0.0,0.0,0.0,0.0,0.0,0.0,0.0,0.0
1.88,55.04027406281233,38.57823080538674,37.850628655235276,50.0,50.0,50.0,50.0,50.0,50.0,50.0,50.0,50.0,50.0,-0.7304887370507748,7.613945299876699,7.143180380690905,0.0,0.0,0.0,0.0,0.0,0.0,0.0,0.0,0.0,0.0
1.89,55.03395506401632,38.64409425918493,37.91241981769391,50.0,50.0,50.0,50.0,50.0,50.0,50.0,50.0,50.0,50.0,-0.5333110221522198,5.558745459762083,5.21505211103502,0.0,0.0,0.0,0.0,0.0,0.0,0.0,0.0,0.0,0.0
1.9,55.02960784236929,38.68940571458199,37.95492969745598,50.0,50.0,50.0,50.0,50.0,50.0,50.0,50.0,50.0,50.0,-0.33613330725366475,3.5035456196474652,3.2869238413791355,0.0,0.0,0.0,0.0,0.0,0.0,0.0,0.0,0.0,0.0
1.91,55.027232397871245,38.71416517157788,37.97815829452149,50.0,50.0,50.0,50.0,50.0,50.0,50.0,50.0,50.0,50.0,-0.13895559235510976,1.4483457795328487,1.358795571723251,0.0,0.0,0.0,0.0,0.0,0.0,0.0,0.0,0.0,0.0
1.92,55.02656275111062,38.71975433412026,37.98340890380981,50.0,50.0,50.0,50.0,50.0,50.0,50.0,50.0,50.0,50.0,-0.12193349628637896,0.32901435217239655,0.31342699138425306,0.0,0.0,0.0,0.0,0.0,0.0,0.0,0.0,0.0,0.0
1.93,55.023278688247345,38.72861575324104,37.9918505049621,50.0,50.0,50.0,50.0,50.0,50.0,50.0,50.0,50.0,50.0,-0.5348790763689174,1.4432694719814083,1.3748932390731865,0.0,0.0,0.0,0.0,0.0,0.0,0.0,0.0,0.0,0.0
1.94,55.01586516958324,38.74861972355989,38.010906768591276,50.0,50.0,50.0,50.0,50.0,50.0,50.0,50.0,50.0,50.0,-0.9478246564514559,2.55752459179042,2.43635948676212,0.0,0.0,0.0,0.0,0.0,0.0,0.0,0.0,0.0,0.0
1.95,55.00432219511831,38.77976624507684,38.04057769469733,50.0,50.0,50.0,50.0,50.0,50.0,50.0,50.0,50.0,50.0,-1.3607702365339944,3.671779711599432,3.4978257344510535,0.0,0.0,0.0,0.0,0.0,0.0,0.0,0.0,0.0,0.0
1.96,54.98864976485257,38.82205531779188,38.080863283280294,50.0,50.0,50.0,50.0,50.0,50.0,50.0,50.0,50.0,50.0,-1.773715816616533,4.786034831408444,4.559291982139987,0.0,0.0,0.0,0.0,0.0,0.0,0.0,0.0,0.0,0.0
1.97,54.968847878785986,38.875486941705006,38.13176353434014,50.0,50.0,50.0,50.0,50.0,50.0,50.0,50.0,50.0,50.0,-2.1866613966990713,5.900289951217456,5.62075822982892,0.0,0.0,0.0,0.0,0.0,0.0,0.0,0.0,0.0,0.0
1.98,54.94491653691858,38.94006111681623,38.19327844787687,50.0,50.0,50.0,50.0,50.0,50.0,50.0,50.0,50.0,50.0,-2.59960697678161,7.014545071026467,6.682224477517853,0.0,0.0,0.0,0.0,0.0,0.0,0.0,0.0,0.0,0.0
1.99,54.91685573925035,39.01577784312555,38.2654080238905,50.0,50.0,50.0,50.0,50.0,50.0,50.0,50.0,50.0,50.0,-3.0125525568641485,8.128800190835479,7.743690725206787,0.0,0.0,0.0,0.0,0.0,0.0,0.0,0.0,0.0,0.0
2.0,54.8846654857813,39.10263712063294,38.34815226238101,50.0,50.0,50.0,50.0,50.0,50.0,50.0,50.0,50.0,50.0,-3.4254981369466866,9.243055310644491,8.80515697289572,0.0,0.0,0.0,0.0,0.0,0.0,0.0,0.0,0.0,0.0
2.01,54.84834577651142,39.20063894933843,38.44151116334841,50.0,50.0,50.0,50.0,50.0,50.0,50.0,50.0,50.0,50.0,-3.8384437170292163,10.357310430453479,9.86662322058463,0.0,0.0,0.0,0.0,0.0,0.0,0.0,0.0,0.0,0.0
2.02,54.80789661144072,39.30978332924201,38.5454847267927,50.0,50.0,50.0,50.0,50.0,50.0,50.0,50.0,50.0,50.0,-4.251389297111764,11.471565550262515,10.928089468273587,0.0,0.0,0.0,0.0,0.0,0.0,0.0,0.0,0.0,0.0
2.03,54.76331799056919,39.43007026034368,38.660072952713875,50.0,50.0,50.0,50.0,50.0,50.0,50.0,50.0,50.0,50.0,-4.6643348771942925,12.585820670071502,11.989555715962496,0.0,0.0,0.0,0.0,0.0,0.0,0.0,0.0,0.0,0.0
2.04,54.71460991389683,39.56149974264345,38.785275841111954,50.0,50.0,50.0,50.0,50.0,50.0,50.0,50.0,50.0,50.0,-5.077280457276841,13.70007578988054,13.051021963651454,0.0,0.0,0.0,0.0,0.0,0.0,0.0,0.0,0.0,0.0
2.05,54.661772381423646,39.70407177614129,38.92109339198691,50.0,50.0,50.0,50.0,50.0,50.0,50.0,50.0,50.0,50.0,-5.4902260373593705,14.814330909689527,14.112488211340365,0.0,0.0,0.0,0.0,0.0,0.0,0.0,0.0,0.0,0.0
2.06,54.60480539314964,39.85778636083723,39.06752560533876,50.0,50.0,50.0,50.0,50.0,50.0,50.0,50.0,50.0,50.0,-5.9031716174419175,15.928586029498563,15.17395445902932,0.0,0.0,0.0,0.0,0.0,0.0,0.0,0.0,0.0,0.0
2.07,54.543708949074805,40.022643496731256,39.22457248116749,50.0,50.0,50.0,50.0,50.0,50.0,50.0,50.0,50.0,50.0,-6.316117197524448,17.04284114930755,16.23542070671823,0.0,0.0,0.0,0.0,0.0,0.0,0.0,0.0,0.0,0.0
2.08,54.47848304919915,40.198643183823386,39.39223401947313,50.0,50.0,50.0,50.0,50.0,50.0,50.0,50.0,50.0,50.0,-6.729062777606996,18.15709626911659,17.29688695440719,0.0,0.0,0.0,0.0,0.0,0.0,0.0,0.0,0.0,0.0
2.09,54.40912769352267,40.38578542211359,39.57051022025564,50.0,50.0,50.0,50.0,50.0,50.0,50.0,50.0,50.0,50.0,-7.142008357689524,19.271351388925574,18.358353202096097,0.0,0.0,0.0,0.0,0.0,0.0,0.0,0.0,0.0,0.0
2.1,54.33564288204536,40.5840702116019,39.75940108351505,50.0,50.0,50.0,50.0,50.0,50.0,50.0,50.0,50.0,50.0,-7.554953937772072,20.38560650873461,19.419819449785056,0.0,0.0,0.0,0.0,0.0,0.0,0.0,0.0,0.0,0.0
2.11,54.258028614767234,40.79349755228829,39.95890660925134,50.0,50.0,50.0,50.0,50.0,50.0,50.0,50.0,50.0,50.0,-7.967899517854602,21.4998616285436,20.481285697473965,0.0,0.0,0.0,0.0,0.0,0.0,0.0,0.0,0.0,0.0
2.12,54.17628489168827,41.01406744417277,40.16902679746453,50.0,50.0,50.0,50.0,50.0,50.0,50.0,50.0,50.0,50.0,-8.380845097937149,22.614116748352632,21.54275194516292,0.0,0.0,0.0,0.0,0.0,0.0,0.0,0.0,0.0,0.0
2.13,54.09041171280849,41.24577988725534,40.389761648154604,50.0,50.0,50.0,50.0,50.0,50.0,50.0,50.0,50.0,50.0,-8.793790678019677,23.72837186816162,22.60421819285183,0.0,0.0,0.0,0.0,0.0,0.0,0.0,0.0,0.0,0.0
2.14,54.00040907812788,41.48863488153601,40.621111161321565,50.0,50.0,50.0,50.0,50.0,50.0,50.0,50.0,50.0,50.0,-9.206736258102227,24.842626987970657,23.66568444054079,0.0,0.0,0.0,0.0,0.0,0.0,0.0,0.0,0.0,0.0
2.15,53.90627698764644,41.742632427014755,40.86307533696541,50.0,50.0,50.0,50.0,50.0,50.0,50.0,50.0,50.0,50.0,-9.619681838184755,25.956882107779645,24.727150688229695,0.0,0.0,0.0,0.0,0.0,0.0,0.0,0.0,0.0,0.0
2.16,53.80801544136418,42.00777252369159,41.11565417508616,50.0,50.0,50.0,50.0,50.0,50.0,50.0,50.0,50.0,50.0,-10.032627418267303,27.071137227588682,25.788616935918654,0.0,0.0,0.0,0.0,0.0,0.0,0.0,0.0,0.0,0.0
2.17,53.705624439281095,42.28405517156652,41.37884767568379,50.0,50.0,50.0,50.0,50.0,50.0,50.0,50.0,50.0,50.0,-10.445572998349833,28.18539234739767,26.850083183607566,0.0,0.0,0.0,0.0,0.0,0.0,0.0,0.0,0.0,0.0
2.18,53.59910398139719,42.57148037063956,41.652655838758314,50.0,50.0,50.0,50.0,50.0,50.0,50.0,50.0,50.0,50.0,-10.858518578432381,29.299647467206707,27.911549431296525,0.0,0.0,0.0,0.0,0.0,0.0,0.0,0.0,0.0,0.0
2.19,53.488454067712446,42.87004812091066,41.937078664309716,50.0,50.0,50.0,50.0,50.0,50.0,50.0,50.0,50.0,50.0,-11.27146415851491,30.413902587015695,28.973015678985433,0.0,0.0,0.0,0.0,0.0,0.0,0.0,0.0,0.0,0.0
2.2,53.373674698226885,43.17975842237986,42.23211615233802,50.0,50.0,50.0,50.0,50.0,50.0,50.0,50.0,50.0,50.0,-11.684409738597456,31.528157706824725,30.03448192667439,0.0,0.0,0.0,0.0,0.0,0.0,0.0,0.0,0.0,0.0
2.21,53.254765872940496,43.500611275047156,42.537768302843205,50.0,50.0,50.0,50.0,50.0,50.0,50.0,50.0,50.0,50.0,-12.097355318679986,32.642412826633716,31.095948174363297,0.0,0.0,0.0,0.0,0.0,0.0,0.0,0.0,0.0,0.0
2.22,53.131727591853284,43.83260667891254,42.85403511582529,50.0,50.0,50.0,50.0,50.0,50.0,50.0,50.0,50.0,50.0,-12.510300898762534,33.756667946442754,32.157414422052256,0.0,0.0,0.0,0.0,0.0,0.0,0.0,0.0,0.0,0.0
2.23,53.004559854965244,44.17574463397601,43.180916591284245,50.0,50.0,50.0,50.0,50.0,50.0,50.0,50.0,50.0,50.0,-12.923246478845064,34.87092306625174,33.21888066974117,0.0,0.0,0.0,0.0,0.0,0.0,0.0,0.0,0.0,0.0
2.24,52.87326266227638,44.53002514023758,43.51841272922012,50.0,50.0,50.0,50.0,50.0,50.0,50.0,50.0,50.0,50.0,-13.336192058927612,35.98517818606078,34.28034691743012,0.0,0.0,0.0,0.0,0.0,0.0,0.0,0.0,0.0,0.0
2.25,52.7378360137867,44.89544819769723,43.86652352963286,50.0,50.0,50.0,50.0,50.0,50.0,50.0,50.0,50.0,50.0,-13.749137639010142,37.099433305869766,35.341813165119035,0.0,0.0,0.0,0.0,0.0,0.0,0.0,0.0,0.0,0.0
2.26,52.598279909496185,45.272013806354956,44.22524899252248,50.0,50.0,50.0,50.0,50.0,50.0,50.0,50.0,50.0,50.0,-14.162083219092668,38.21368842567875,36.40327941280794,0.0,0.0,0.0,0.0,0.0,0.0,0.0,0.0,0.0,0.0
2.27,52.45459434940484,45.659721966210796,44.594589117889015,50.0,50.0,50.0,50.0,50.0,50.0,50.0,50.0,50.0,50.0,-14.575028799175216,39.327943545487784,37.464745660496895,0.0,0.0,0.0,0.0,0.0,0.0,0.0,0.0,0.0,0.0
2.28,52.30777639658089,46.05588229218223,44.971980980144224,50.0,50.0,50.0,50.0,50.0,50.0,50.0,50.0,50.0,50.0,-14.701013480499013,39.667889250087626,37.78858612132548,0.0,0.0,0.0,0.0,0.0,0.0,0.0,0.0,0.0,0.0
2.29,52.1607662617759,46.45256118468312,45.34986684135748,50.0,50.0,50.0,50.0,50.0,50.0,50.0,50.0,50.0,50.0,-14.701013480499013,39.667889250087626,37.78858612132548,0.0,0.0,0.0,0.0,0.0,0.0,0.0,0.0,0.0,0.0
2.3,52.01375612697091,46.84924007718399,45.72775270257073,50.0,50.0,50.0,50.0,50.0,50.0,50.0,50.0,50.0,50.0,-14.701013480499013,39.667889250087626,37.78858612132548,0.0,0.0,0.0,0.0,0.0,0.0,0.0,0.0,0.0,0.0
2.31,51.86674599216592,47.24591896968488,46.105638563784,50.0,50.0,50.0,50.0,50.0,50.0,50.0,50.0,50.0,50.0,-14.701013480499013,39.667889250087626,37.78858612132548,0.0,0.0,0.0,0.0,0.0,0.0,0.0,0.0,0.0,0.0
2.32,51.71973585736093,47.642597862185745,46.48352442499724,50.0,50.0,50.0,50.0,50.0,50.0,50.0,50.0,50.0,50.0,-14.701013480499013,39.667889250087626,37.78858612132548,0.0,0.0,0.0,0.0,0.0,0.0,0.0,0.0,0.0,0.0
2.33,51.57272572255594,48.039276754686625,46.86141028621051,50.0,50.0,50.0,50.0,50.0,50.0,50.0,50.0,50.0,50.0,-14.701013480499013,39.667889250087626,37.78858612132548,0.0,0.0,0.0,0.0,0.0,0.0,0.0,0.0,0.0,0.0
2.34,51.42571558775096,48.4359556471875,47.23929614742376,50.0,50.0,50.0,50.0,50.0,50.0,50.0,50.0,50.0,50.0,-14.701013480499013,39.667889250087626,37.78858612132548,0.0,0.0,0.0,0.0,0.0,0.0,0.0,0.0,0.0,0.0
2.35,51.278705452945964,48.832634539688385,47.617182008637016,50.0,50.0,50.0,50.0,50.0,50.0,50.0,50.0,50.0,50.0,-14.701013480499013,39.667889250087626,37.78858612132548,0.0,0.0,0.0,0.0,0.0,0.0,0.0,0.0,0.0,0.0
2.36,51.13169531814097,49.22931343218925,47.99506786985026,50.0,50.0,50.0,50.0,50.0,50.0,50.0,50.0,50.0,50.0,-14.701013480499013,39.667889250087626,37.78858612132548,0.0,0.0,0.0,0.0,0.0,0.0,0.0,0.0,0.0,0.0
2.37,50.98468518333598,49.62599232469014,48.37295373106353,50.0,50.0,50.0,50.0,50.0,50.0,50.0,50.0,50.0,50.0,-14.701013480499013,39.667889250087626,37.78858612132548,0.0,0.0,0.0,0.0,0.0,0.0,0.0,0.0,0.0,0.0
2.38,50.837675048531,50.022671217191004,48.750839592276776,50.0,50.0,50.0,50.0,50.0,50.0,50.0,50.0,50.0,50.0,-14.701013480499013,39.667889250087626,37.78858612132548,0.0,0.0,0.0,0.0,0.0,0.0,0.0,0.0,0.0,0.0
2.39,50.690664913726,50.41935010969189,49.12872545349005,50.0,50.0,50.0,50.0,50.0,50.0,50.0,50.0,50.0,50.0,-14.701013480499013,39.667889250087626,37.78858612132548,0.0,0.0,0.0,0.0,0.0,0.0,0.0,0.0,0.0,0.0
2.4,50.54365477892101,50.816029002192764,49.50661131470329,50.0,50.0,50.0,50.0,50.0,50.0,50.0,50.0,50.0,50.0,-14.701013480499013,39.667889250087626,37.78858612132548,0.0,0.0,0.0,0.0,0.0,0.0,0.0,0.0,0.0,0.0
2.41,50.39664464411602,51.212707894693644,49.88449717591655,50.0,50.0,50.0,50.0,50.0,50.0,50.0,50.0,50.0,50.0,-14.701013480499013,39.667889250087626,37.78858612132548,0.0,0.0,0.0,0.0,0.0,0.0,0.0,0.0,0.0,0.0
2.42,50.249634509311036,51.60938678719451,50.262383037129794,50.0,50.0,50.0,50.0,50.0,50.0,50.0,50.0,50.0,50.0,-14.701013480499013,39.667889250087626,37.78858612132548,0.0,0.0,0.0,0.0,0.0,0.0,0.0,0.0,0.0,0.0
2.43,50.102624374506036,52.006065679695396,50.640268898343066,50.0,50.0,50.0,50.0,50.0,50.0,50.0,50.0,50.0,50.0,-14.701013480499013,39.667889250087626,37.78858612132548,0.0,0.0,0.0,0.0,0.0,0.0,0.0,0.0,0.0,0.0
2.44,49.95561423970105,52.402744572196255,51.01815475955631,50.0,50.0,50.0,50.0,50.0,50.0,50.0,50.0,50.0,50.0,-14.701013480499013,39.667889250087626,37.78858612132548,0.0,0.0,0.0,0.0,0.0,0.0,0.0,0.0,0.0,0.0
2.45,49.808604104896055,52.79942346469714,51.39604062076957,50.0,50.0,50.0,50.0,50.0,50.0,50.0,50.0,50.0,50.0,-14.701013480499013,39.667889250087626,37.78858612132548,0.0,0.0,0.0,0.0,0.0,0.0,0.0,0.0,0.0,0.0
2.46,49.66159397009107,53.196102357198015,51.77392648198281,50.0,50.0,50.0,50.0,50.0,50.0,50.0,50.0,50.0,50.0,-14.701013480499013,39.667889250087626,37.78858612132548,0.0,0.0,0.0,0.0,0.0,0.0,0.0,0.0,0.0,0.0
2.47,49.514583835286075,53.5927812496989,52.15181234319608,50.0,50.0,50.0,50.0,50.0,50.0,50.0,50.0,50.0,50.0,-14.701013480499013,39.667889250087626,37.78858612132548,0.0,0.0,0.0,0.0,0.0,0.0,0.0,0.0,0.0,0.0
2.48,49.36757370048109,53.989460142199775,52.52969820440933,50.0,50.0,50.0,50.0,50.0,50.0,50.0,50.0,50.0,50.0,-14.701013480499013,39.667889250087626,37.78858612132548,0.0,0.0,0.0,0.0,0.0,0.0,0.0,0.0,0.0,0.0
2.49,49.220563565676095,54.386139034700655,52.907584065622586,50.0,50.0,50.0,50.0,50.0,50.0,50.0,50.0,50.0,50.0,-14.701013480499013,39.667889250087626,37.78858612132548,0.0,0.0,0.0,0.0,0.0,0.0,0.0,0.0,0.0,0.0
2.5,49.07355343087111,54.78281792720153,53.28546992683584,50.0,50.0,50.0,50.0,50.0,50.0,50.0,50.0,50.0,50.0,-14.701013480499013,39.667889250087626,37.78858612132548,0.0,0.0,0.0,0.0,0.0,0.0,0.0,0.0,0.0,0.0
2.51,48.92654329606612,55.17949681970239,53.66335578804908,50.0,50.0,50.0,50.0,50.0,50.0,50.0,50.0,50.0,50.0,-14.701013480499013,39.667889250087626,37.78858612132548,0.0,0.0,0.0,0.0,0.0,0.0,0.0,0.0,0.0,0.0
2.52,48.77953316126113,55.57617571220327,54.041241649262346,50.0,50.0,50.0,50.0,50.0,50.0,50.0,50.0,50.0,50.0,-14.701013480499013,39.667889250087626,37.78858612132548,0.0,0.0,0.0,0.0,0.0,0.0,0.0,0.0,0.0,0.0
2.53,48.63252302645614,55.97285460470414,54.41912751047559,50.0,50.0,50.0,50.0,50.0,50.0,50.0,50.0,50.0,50.0,-14.701013480499013,39.667889250087626,37.78858612132548,0.0,0.0,0.0,0.0,0.0,0.0,0.0,0.0,0.0,0.0
2.54,48.48551289165115,56.369533497205026,54.797013371688855,50.0,50.0,50.0,50.0,50.0,50.0,50.0,50.0,50.0,50.0,-14.701013480499013,39.667889250087626,37.78858612132548,0.0,0.0,0.0,0.0,0.0,0.0,0.0,0.0,0.0,0.0
2.55,48.33850275684616,56.7662123897059,55.1748992329021,50.0,50.0,50.0,50.0,50.0,50.0,50.0,50.0,50.0,50.0,-14.701013480499013,39.667889250087626,37.78858612132548,0.0,0.0,0.0,0.0,0.0,0.0,0.0,0.0,0.0,0.0
2.56,48.19149262204117,57.162891282206786,55.55278509411537,50.0,50.0,50.0,50.0,50.0,50.0,50.0,50.0,50.0,50.0,-14.701013480499013,39.667889250087626,37.78858612132548,0.0,0.0,0.0,0.0,0.0,0.0,0.0,0.0,0.0,0.0
2.57,48.04448248723618,57.55957017470765,55.93067095532861,50.0,50.0,50.0,50.0,50.0,50.0,50.0,50.0,50.0,50.0,-14.701013480499013,39.667889250087626,37.78858612132548,0.0,0.0,0.0,0.0,0.0,0.0,0.0,0.0,0.0,0.0
2.58,47.89747235243119,57.95624906720854,56.30855681654188,50.0,50.0,50.0,50.0,50.0,50.0,50.0,50.0,50.0,50.0,-14.701013480499013,39.667889250087626,37.78858612132548,0.0,0.0,0.0,0.0,0.0,0.0,0.0,0.0,0.0,0.0
2.59,47.7504622176262,58.352927959709405,56.68644267775513,50.0,50.0,50.0,50.0,50.0,50.0,50.0,50.0,50.0,50.0,-14.701013480499013,39.667889250087626,37.78858612132548,0.0,0.0,0.0,0.0,0.0,0.0,0.0,0.0,0.0,0.0
2.6,47.60345208282121,58.74960685221029,57.0643285389684,50.0,50.0,50.0,50.0,50.0,50.0,50.0,50.0,50.0,50.0,-14.701013480499013,39.667889250087626,37.78858612132548,0.0,0.0,0.0,0.0,0.0,0.0,0.0,0.0,0.0,0.0
2.61,47.45644194801622,59.14628574471116,57.44221440018164,50.0,50.0,50.0,50.0,50.0,50.0,50.0,50.0,50.0,50.0,-14.701013480499013,39.667889250087626,37.78858612132548,0.0,0.0,0.0,0.0,0.0,0.0,0.0,0.0,0.0,0.0
2.62,47.309431813211226,59.54296463721204,57.8201002613949,50.0,50.0,50.0,50.0,50.0,50.0,50.0,50.0,50.0,50.0,-14.701013480499013,39.667889250087626,37.78858612132548,0.0,0.0,0.0,0.0,0.0,0.0,0.0,0.0,0.0,0.0
2.63,47.16244013524593,59.93959372744086,58.19793867976503,50.0,50.0,50.0,50.0,50.0,50.0,50.0,50.0,50.0,50.0,-14.661970759350453,39.5625398916507,37.688227786677984,0.0,0.0,0.0,0.0,0.0,0.0,0.0,0.0,0.0,0.0
2.64,47.01788515555283,60.32964785075833,58.56951362639337,50.0,50.0,50.0,50.0,50.0,50.0,50.0,50.0,50.0,50.0,-14.249025179267905,38.448284771841664,36.62676153898903,0.0,0.0,0.0,0.0,0.0,0.0,0.0,0.0,0.0,0.0
2.65,46.87745963166057,60.70855942287769,58.930473910544805,50.0,50.0,50.0,50.0,50.0,50.0,50.0,50.0,50.0,50.0,-13.836079599185375,37.334029652032676,35.56529529130012,0.0,0.0,0.0,0.0,0.0,0.0,0.0,0.0,0.0,0.0
2.66,46.74116356356913,61.07632844379898,59.280819532219375,50.0,50.0,50.0,50.0,50.0,50.0,50.0,50.0,50.0,50.0,-13.423134019102827,36.21977453222364,34.50382904361116,0.0,0.0,0.0,0.0,0.0,0.0,0.0,0.0,0.0,0.0
2.67,46.60899695127852,61.43295491352217,59.620550491417035,50.0,50.0,50.0,50.0,50.0,50.0,50.0,50.0,50.0,50.0,-13.010188439020299,35.10551941241465,33.44236279592225,0.0,0.0,0.0,0.0,0.0,0.0,0.0,0.0,0.0,0.0
2.68,46.480959794788724,61.77843883204728,59.94966678813782,50.0,50.0,50.0,50.0,50.0,50.0,50.0,50.0,50.0,50.0,-12.597242858937753,33.99126429260562,32.380896548233295,0.0,0.0,0.0,0.0,0.0,0.0,0.0,0.0,0.0,0.0
2.69,46.357052094099764,62.11278019937428,60.2681684223817,50.0,50.0,50.0,50.0,50.0,50.0,50.0,50.0,50.0,50.0,-12.184297278855222,32.877009172796626,31.319430300544386,0.0,0.0,0.0,0.0,0.0,0.0,0.0,0.0,0.0,0.0
2.7,46.23727384921162,62.4359790155032,60.5760553941487,50.0,50.0,50.0,50.0,50.0,50.0,50.0,50.0,50.0,50.0,-11.771351698772675,31.762754052987592,30.257964052855428,0.0,0.0,0.0,0.0,0.0,0.0,0.0,0.0,0.0,0.0
2.71,46.1216250601243,62.748035280434024,60.87332770343881,50.0,50.0,50.0,50.0,50.0,50.0,50.0,50.0,50.0,50.0,-11.358406118690144,30.648498933178605,29.19649780516652,0.0,0.0,0.0,0.0,0.0,0.0,0.0,0.0,0.0,0.0
2.72,46.010105726837814,63.04894899416678,61.15998535025204,50.0,50.0,50.0,50.0,50.0,50.0,50.0,50.0,50.0,50.0,-10.945460538607596,29.534243813369567,28.13503155747756,0.0,0.0,0.0,0.0,0.0,0.0,0.0,0.0,0.0,0.0
2.73,45.902715849352155,63.33872015670142,61.43602833458836,50.0,50.0,50.0,50.0,50.0,50.0,50.0,50.0,50.0,50.0,-10.532514958525066,28.41998869356058,27.07356530978865,0.0,0.0,0.0,0.0,0.0,0.0,0.0,0.0,0.0,0.0
2.74,45.79945542766731,63.61734876803799,61.70145665644781,50.0,50.0,50.0,50.0,50.0,50.0,50.0,50.0,50.0,50.0,-10.11956937844252,27.305733573751542,26.012099062099693,0.0,0.0,0.0,0.0,0.0,0.0,0.0,0.0,0.0,0.0
2.75,45.7003244617833,63.88483482817646,61.95627031583036,50.0,50.0,50.0,50.0,50.0,50.0,50.0,50.0,50.0,50.0,-9.70662379835999,26.191478453942555,24.950632814410785,0.0,0.0,0.0,0.0,0.0,0.0,0.0,0.0,0.0,0.0
2.76,45.60532295170012,64.14117833711683,62.20046931273602,50.0,50.0,50.0,50.0,50.0,50.0,50.0,50.0,50.0,50.0,-9.293678218277462,25.07722333413357,23.889166566721876,0.0,0.0,0.0,0.0,0.0,0.0,0.0,0.0,0.0,0.0
2.77,45.51445089741775,64.38637929485913,62.434053647164795,50.0,50.0,50.0,50.0,50.0,50.0,50.0,50.0,50.0,50.0,-8.880732638194914,23.962968214324533,22.827700319032918,0.0,0.0,0.0,0.0,0.0,0.0,0.0,0.0,0.0,0.0
2.78,45.42770829893622,64.62043770140332,62.657023319116675,50.0,50.0,50.0,50.0,50.0,50.0,50.0,50.0,50.0,50.0,-8.467787058112384,22.848713094515546,21.76623407134401,0.0,0.0,0.0,0.0,0.0,0.0,0.0,0.0,0.0,0.0
2.79,45.3450951562555,64.84335355674943,62.86937832859168,50.0,50.0,50.0,50.0,50.0,50.0,50.0,50.0,50.0,50.0,-8.054841478029838,21.73445797470651,20.704767823655054,0.0,0.0,0.0,0.0,0.0,0.0,0.0,0.0,0.0,0.0
2.8,45.26661146937562,65.05512686089745,63.07111867558977,50.0,50.0,50.0,50.0,50.0,50.0,50.0,50.0,50.0,50.0,-7.6418958979473075,20.62020285489752,19.64330157596614,0.0,0.0,0.0,0.0,0.0,0.0,0.0,0.0,0.0,0.0
2.81,45.192257238296555,65.25575761384738,63.262244360111,50.0,50.0,50.0,50.0,50.0,50.0,50.0,50.0,50.0,50.0,-7.22895031786476,19.505947735088483,18.581835328277183,0.0,0.0,0.0,0.0,0.0,0.0,0.0,0.0,0.0,0.0
2.82,45.12203246301832,65.44524581559922,63.442755382155326,50.0,50.0,50.0,50.0,50.0,50.0,50.0,50.0,50.0,50.0,-6.816004737782231,18.3916926152795,17.520369080588278,0.0,0.0,0.0,0.0,0.0,0.0,0.0,0.0,0.0,0.0
2.83,45.055937143540916,65.62359146615297,63.61265174172276,50.0,50.0,50.0,50.0,50.0,50.0,50.0,50.0,50.0,50.0,-6.4030591576996825,17.277437495470462,16.45890283289932,0.0,0.0,0.0,0.0,0.0,0.0,0.0,0.0,0.0,0.0
2.84,44.99397127986433,65.79079456550863,63.771933438813306,50.0,50.0,50.0,50.0,50.0,50.0,50.0,50.0,50.0,50.0,-5.990113577617153,16.163182375661474,15.397436585210407,0.0,0.0,0.0,0.0,0.0,0.0,0.0,0.0,0.0,0.0
2.85,44.93613487198857,65.9468551136662,63.920600473426965,50.0,50.0,50.0,50.0,50.0,50.0,50.0,50.0,50.0,50.0,-5.577167997534606,15.048927255852439,14.335970337521452,0.0,0.0,0.0,0.0,0.0,0.0,0.0,0.0,0.0,0.0
2.86,44.88242791991364,66.09177311062568,64.05865284556374,50.0,50.0,50.0,50.0,50.0,50.0,50.0,50.0,50.0,50.0,-5.164222417452077,13.934672136043451,13.274504089832542,0.0,0.0,0.0,0.0,0.0,0.0,0.0,0.0,0.0,0.0
2.87,44.83285042363953,66.22554855638707,64.18609055522363,50.0,50.0,50.0,50.0,50.0,50.0,50.0,50.0,50.0,50.0,-4.751276837369529,12.820417016234416,12.213037842143585,0.0,0.0,0.0,0.0,0.0,0.0,0.0,0.0,0.0,0.0
2.88,44.78740238316625,66.34818145095038,64.3029136024066,50.0,50.0,50.0,50.0,50.0,50.0,50.0,50.0,50.0,50.0,-4.338331257287,11.706161896425426,11.151571594454674,0.0,0.0,0.0,0.0,0.0,0.0,0.0,0.0,0.0,0.0
2.89,44.74608379849379,66.45967179431558,64.40912198711271,50.0,50.0,50.0,50.0,50.0,50.0,50.0,50.0,50.0,50.0,-3.925385677204452,10.59190677661639,10.090105346765718,0.0,0.0,0.0,0.0,0.0,0.0,0.0,0.0,0.0,0.0
2.9,44.70889466962216,66.5600195864827,64.50471570934192,50.0,50.0,50.0,50.0,50.0,50.0,50.0,50.0,50.0,50.0,-3.5124400971219223,9.477651656807403,9.028639099076807,0.0,0.0,0.0,0.0,0.0,0.0,0.0,0.0,0.0,0.0
2.91,44.67583499655135,66.64922482745175,64.58969476909425,50.0,50.0,50.0,50.0,50.0,50.0,50.0,50.0,50.0,50.0,-3.099494517039375,8.363396536998366,7.967172851387851,0.0,0.0,0.0,0.0,0.0,0.0,0.0,0.0,0.0,0.0
2.92,44.64690477928138,66.72728751722268,64.66405916636968,50.0,50.0,50.0,50.0,50.0,50.0,50.0,50.0,50.0,50.0,-2.686548936956846,7.24914141718938,6.905706603698941,0.0,0.0,0.0,0.0,0.0,0.0,0.0,0.0,0.0,0.0
2.93,44.62210401781221,66.79420765579552,64.72780890116823,50.0,50.0,50.0,50.0,50.0,50.0,50.0,50.0,50.0,50.0,-2.273603356874298,6.134886297380343,5.844240356009984,0.0,0.0,0.0,0.0,0.0,0.0,0.0,0.0,0.0,0.0
2.94,44.60143271214389,66.84998524317028,64.78094397348988,50.0,50.0,50.0,50.0,50.0,50.0,50.0,50.0,50.0,50.0,-1.8606577767917687,5.020631177571356,4.782774108321074,0.0,0.0,0.0,0.0,0.0,0.0,0.0,0.0,0.0,0.0
2.95,44.58489086227638,66.89462027934694,64.82346438333465,50.0,50.0,50.0,50.0,50.0,50.0,50.0,50.0,50.0,50.0,-1.447712196709221,3.9063760577623197,3.7213078606321175,0.0,0.0,0.0,0.0,0.0,0.0,0.0,0.0,0.0,0.0
2.96,44.5724784682097,66.92811276432553,64.85537013070252,50.0,50.0,50.0,50.0,50.0,50.0,50.0,50.0,50.0,50.0,-1.0347666166266918,2.792120937953332,2.659841612943207,0.0,0.0,0.0,0.0,0.0,0.0,0.0,0.0,0.0,0.0
2.97,44.56419552994385,66.95046269810602,64.87666121559351,50.0,50.0,50.0,50.0,50.0,50.0,50.0,50.0,50.0,50.0,-0.621821036544144,1.6778658181442956,1.5983753652542503,0.0,0.0,0.0,0.0,0.0,0.0,0.0,0.0,0.0,0.0
2.98,44.56004204747882,66.9616700806884,64.88733763800761,50.0,50.0,50.0,50.0,50.0,50.0,50.0,50.0,50.0,50.0,-0.20887545646161468,0.5636106983353083,0.5369091175653403,0.0,0.0,0.0,0.0,0.0,0.0,0.0,0.0,0.0,0.0
2.99,44.56045200278455,66.96084525193478,64.885783758665,50.0,50.0,50.0,50.0,50.0,50.0,50.0,50.0,50.0,50.0,0.3797067461125049,-0.9106983237434448,-1.1784216819455444,0.0,0.0,0.0,0.0,0.0,0.0,0.0,0.0,0.0,0.0
3.0,44.56809084335171,66.94252406230336,64.86207658084571,50.0,50.0,50.0,50.0,50.0,50.0,50.0,50.0,50.0,50.0,1.1480613673206974,-2.7535396025431154,-3.563013881912704,0.0,0.0,0.0,0.0,0.0,0.0,0.0,0.0,0.0,0.0
3.01,44.583413230130965,66.90577445988394,64.81452348102675,50.0,50.0,50.0,50.0,50.0,50.0,50.0,50.0,50.0,50.0,1.9164159885288898,-4.596380881342786,-5.947606081879864,0.0,0.0,0.0,0.0,0.0,0.0,0.0,0.0,0.0,0.0
3.02,44.606419163122304,66.8505964446765,64.74312445920812,50.0,50.0,50.0,50.0,50.0,50.0,50.0,50.0,50.0,50.0,2.6847706097371167,-6.439222160142539,-8.33219828184713,0.0,0.0,0.0,0.0,0.0,0.0,0.0,0.0,0.0,0.0
3.03,44.63710864232571,66.77699001668108,64.64787951538982,50.0,50.0,50.0,50.0,50.0,50.0,50.0,50.0,50.0,50.0,3.453125230945309,-8.28206343894221,-10.71679048181429,0.0,0.0,0.0,0.0,0.0,0.0,0.0,0.0,0.0,0.0
3.04,44.6754816677412,66.68495517589766,64.52878864957184,50.0,50.0,50.0,50.0,50.0,50.0,50.0,50.0,50.0,50.0,4.221479852153536,-10.124904717741963,-13.101382681781555,0.0,0.0,0.0,0.0,0.0,0.0,0.0,0.0,0.0,0.0
3.05,44.72153823936878,66.57449192232625,64.38585186175418,50.0,50.0,50.0,50.0,50.0,50.0,50.0,50.0,50.0,50.0,4.989834473361728,-11.967745996541634,-15.485974881748714,0.0,0.0,0.0,0.0,0.0,0.0,0.0,0.0,0.0,0.0
3.06,44.775278357208435,66.44560025596682,64.21906915193685,50.0,50.0,50.0,50.0,50.0,50.0,50.0,50.0,50.0,50.0,5.758189094569954,-13.810587275341385,-17.87056708171598,0.0,0.0,0.0,0.0,0.0,0.0,0.0,0.0,0.0,0.0
3.07,44.83670202126018,66.29828017681942,64.02844052011986,50.0,50.0,50.0,50.0,50.0,50.0,50.0,50.0,50.0,50.0,6.526543715778147,-15.653428554141056,-20.255159281683138,0.0,0.0,0.0,0.0,0.0,0.0,0.0,0.0,0.0,0.0
3.08,44.905809231524,66.132531684884,63.813965966303186,50.0,50.0,50.0,50.0,50.0,50.0,50.0,50.0,50.0,50.0,7.294898336986374,-17.49626983294081,-22.639751481650407,0.0,0.0,0.0,0.0,0.0,0.0,0.0,0.0,0.0,0.0
3.09,44.982599987999905,65.9483547801606,63.57564549048685,50.0,50.0,50.0,50.0,50.0,50.0,50.0,50.0,50.0,50.0,8.063252958194566,-19.33911111174048,-25.024343681617566,0.0,0.0,0.0,0.0,0.0,0.0,0.0,0.0,0.0,0.0
3.1,45.06707429068789,65.74574946264919,63.31347909267084,50.0,50.0,50.0,50.0,50.0,50.0,50.0,50.0,50.0,50.0,8.831607579402792,-21.181952390540232,-27.408935881584828,0.0,0.0,0.0,0.0,0.0,0.0,0.0,0.0,0.0,0.0
3.11,45.15923213958796,65.52471573234979,63.027466772855156,50.0,50.0,50.0,50.0,50.0,50.0,50.0,50.0,50.0,50.0,9.599962200610985,-23.024793669339903,-29.793528081551994,0.0,0.0,0.0,0.0,0.0,0.0,0.0,0.0,0.0,0.0
3.12,45.25907353470011,65.28525358926238,62.71760853103979,50.0,50.0,50.0,50.0,50.0,50.0,50.0,50.0,50.0,50.0,10.368316821819212,-24.867634948139656,-32.178120281519256,0.0,0.0,0.0,0.0,0.0,0.0,0.0,0.0,0.0,0.0
3.13,45.36659847602434,65.027363033387,62.38390436722477,50.0,50.0,50.0,50.0,50.0,50.0,50.0,50.0,50.0,50.0,11.136671443027405,-26.71047622693933,-34.56271248148642,0.0,0.0,0.0,0.0,0.0,0.0,0.0,0.0,0.0,0.0
3.14,45.481806963560665,64.7510440647236,62.026354281410065,50.0,50.0,50.0,50.0,50.0,50.0,50.0,50.0,50.0,50.0,11.90502606423563,-28.553317505739077,-36.94730468145368,0.0,0.0,0.0,0.0,0.0,0.0,0.0,0.0,0.0,0.0
3.15,45.60469899730906,64.45629668327223,61.64495827359569,50.0,50.0,50.0,50.0,50.0,50.0,50.0,50.0,50.0,50.0,12.673380685443822,-30.39615878453875,-39.33189688142084,0.0,0.0,0.0,0.0,0.0,0.0,0.0,0.0,0.0,0.0
3.16,45.735274577269536,64.14312088903283,61.239716343781645,50.0,50.0,50.0,50.0,50.0,50.0,50.0,50.0,50.0,50.0,13.441735306652049,-32.2390000633385,-41.716489081388104,0.0,0.0,0.0,0.0,0.0,0.0,0.0,0.0,0.0,0.0
3.17,45.8735337034421,63.811516682005454,60.81062849196794,50.0,50.0,50.0,50.0,50.0,50.0,50.0,50.0,50.0,50.0,14.210089927860242,-34.08184134213817,-44.10108128135526,0.0,0.0,0.0,0.0,0.0,0.0,0.0,0.0,0.0,0.0
3.18,46.01947637582675,63.46148406219007,60.35769471815454,50.0,50.0,50.0,50.0,50.0,50.0,50.0,50.0,50.0,50.0,14.978444549068469,-35.92468262093793,-46.485673481322536,0.0,0.0,0.0,0.0,0.0,0.0,0.0,0.0,0.0,0.0
3.19,46.17310259442346,63.09302302958669,59.88091502234148,50.0,50.0,50.0,50.0,50.0,50.0,50.0,50.0,50.0,50.0,15.746799170276661,-37.7675238997376,-48.870265681289695,0.0,0.0,0.0,0.0,0.0,0.0,0.0,0.0,0.0,0.0
3.2,46.334412359232275,62.706133584195314,59.38028940452874,50.0,50.0,50.0,50.0,50.0,50.0,50.0,50.0,50.0,50.0,16.515153791484888,-39.61036517853735,-51.25485788125696,0.0,0.0,0.0,0.0,0.0,0.0,0.0,0.0,0.0,0.0
3.21,46.503405670253166,62.30081572601595,58.85581786471635,50.0,50.0,50.0,50.0,50.0,50.0,50.0,50.0,50.0,50.0,17.28350841269308,-41.453206457337025,-53.63945008122412,0.0,0.0,0.0,0.0,0.0,0.0,0.0,0.0,0.0,0.0
3.22,46.680082527486135,61.87706945504857,58.30750040290426,50.0,50.0,50.0,50.0,50.0,50.0,50.0,50.0,50.0,50.0,18.05186303390131,-43.29604773613678,-56.024042281191385,0.0,0.0,0.0,0.0,0.0,0.0,0.0,0.0,0.0,0.0
3.23,46.86444293093119,61.43489477129321,57.73533701909252,50.0,50.0,50.0,50.0,50.0,50.0,50.0,50.0,50.0,50.0,18.8202176551095,-45.138889014936446,-58.40863448115854,0.0,0.0,0.0,0.0,0.0,0.0,0.0,0.0,0.0,0.0
3.24,47.05648688058833,60.97429167474984,57.13932771328109,50.0,50.0,50.0,50.0,50.0,50.0,50.0,50.0,50.0,50.0,19.588572276317727,-46.9817302937362,-60.793226681125816,0.0,0.0,0.0,0.0,0.0,0.0,0.0,0.0,0.0,0.0
3.25,47.25548233154153,60.49701592057622,56.5217443903282,50.0,50.0,50.0,50.0,50.0,50.0,50.0,50.0,50.0,50.0,20.021525617221634,-48.02013660559953,-62.13689942177487,0.0,0.0,0.0,0.0,0.0,0.0,0.0,0.0,0.0,0.0
3.26,47.45569758771374,60.01681455452024,55.90037539611047,50.0,50.0,50.0,50.0,50.0,50.0,50.0,50.0,50.0,50.0,20.021525617221634,-48.02013660559953,-62.13689942177487,0.0,0.0,0.0,0.0,0.0,0.0,0.0,0.0,0.0,0.0
3.27,47.65591284388597,59.53661318846423,55.27900640189271,50.0,50.0,50.0,50.0,50.0,50.0,50.0,50.0,50.0,50.0,20.021525617221634,-48.02013660559953,-62.13689942177487,0.0,0.0,0.0,0.0,0.0,0.0,0.0,0.0,0.0,0.0
3.28,47.856128100058186,59.05641182240825,54.657637407674976,50.0,50.0,50.0,50.0,50.0,50.0,50.0,50.0,50.0,50.0,20.021525617221634,-48.02013660559953,-62.13689942177487,0.0,0.0,0.0,0.0,0.0,0.0,0.0,0.0,0.0,0.0
3.29,48.0563433562304,58.57621045635224,54.036268413457215,50.0,50.0,50.0,50.0,50.0,50.0,50.0,50.0,50.0,50.0,20.021525617221634,-48.02013660559953,-62.13689942177487,0.0,0.0,0.0,0.0,0.0,0.0,0.0,0.0,0.0,0.0
3.3,48.256558612402614,58.09600909029626,53.41489941923947,50.0,50.0,50.0,50.0,50.0,50.0,50.0,50.0,50.0,50.0,20.021525617221634,-48.02013660559953,-62.13689942177487,0.0,0.0,0.0,0.0,0.0,0.0,0.0,0.0,0.0,0.0
3.31,48.45677386857483,57.615807724240256,52.79353042502171,50.0,50.0,50.0,50.0,50.0,50.0,50.0,50.0,50.0,50.0,20.021525617221634,-48.02013660559953,-62.13689942177487,0.0,0.0,0.0,0.0,0.0,0.0,0.0,0.0,0.0,0.0
3.32,48.65698912474704,57.13560635818426,52.17216143080397,50.0,50.0,50.0,50.0,50.0,50.0,50.0,50.0,50.0,50.0,20.021525617221634,-48.02013660559953,-62.13689942177487,0.0,0.0,0.0,0.0,0.0,0.0,0.0,0.0,0.0,0.0
3.33,48.85720438091926,56.655404992128254,51.55079243658621,50.0,50.0,50.0,50.0,50.0,50.0,50.0,50.0,50.0,50.0,20.021525617221634,-48.02013660559953,-62.13689942177487,0.0,0.0,0.0,0.0,0.0,0.0,0.0,0.0,0.0,0.0
3.34,49.05741963709148,56.175203626072275,50.929423442368474,50.0,50.0,50.0,50.0,50.0,50.0,50.0,50.0,50.0,50.0,20.021525617221634,-48.02013660559953,-62.13689942177487,0.0,0.0,0.0,0.0,0.0,0.0,0.0,0.0,0.0,0.0
3.35,49.2576348932637,55.69500226001627,50.30805444815071,50.0,50.0,50.0,50.0,50.0,50.0,50.0,50.0,50.0,50.0,20.021525617221634,-48.02013660559953,-62.13689942177487,0.0,0.0,0.0,0.0,0.0,0.0,0.0,0.0,0.0,0.0
3.36,49.45785014943591,55.21480089396029,49.68668545393298,50.0,50.0,50.0,50.0,50.0,50.0,50.0,50.0,50.0,50.0,20.021525617221634,-48.02013660559953,-62.13689942177487,0.0,0.0,0.0,0.0,0.0,0.0,0.0,0.0,0.0,0.0
3.37,49.65806540560813,54.73459952790428,49.06531645971522,50.0,50.0,50.0,50.0,50.0,50.0,50.0,50.0,50.0,50.0,20.021525617221634,-48.02013660559953,-62.13689942177487,0.0,0.0,0.0,0.0,0.0,0.0,0.0,0.0,0.0,0.0
3.38,49.85828066178034,54.2543981618483,48.44394746549748,50.0,50.0,50.0,50.0,50.0,50.0,50.0,50.0,50.0,50.0,20.021525617221634,-48.02013660559953,-62.13689942177487,0.0,0.0,0.0,0.0,0.0,0.0,0.0,0.0,0.0,0.0
3.39,50.05849591795257,53.774196795792285,47.82257847127971,50.0,50.0,50.0,50.0,50.0,50.0,50.0,50.0,50.0,50.0,20.021525617221634,-48.02013660559953,-62.13689942177487,0.0,0.0,0.0,0.0,0.0,0.0,0.0,0.0,0.0,0.0
3.4,50.258711174124784,53.2939954297363,47.20120947706198,50.0,50.0,50.0,50.0,50.0,50.0,50.0,50.0,50.0,50.0,20.021525617221634,-48.02013660559953,-62.13689942177487,0.0,0.0,0.0,0.0,0.0,0.0,0.0,0.0,0.0,0.0
3.41,50.458926430297,52.81379406368029,46.57984048284422,50.0,50.0,50.0,50.0,50.0,50.0,50.0,50.0,50.0,50.0,20.021525617221634,-48.02013660559953,-62.13689942177487,0.0,0.0,0.0,0.0,0.0,0.0,0.0,0.0,0.0,0.0
3.42,50.65914168646921,52.33359269762431,45.95847148862648,50.0,50.0,50.0,50.0,50.0,50.0,50.0,50.0,50.0,50.0,20.021525617221634,-48.02013660559953,-62.13689942177487,0.0,0.0,0.0,0.0,0.0,0.0,0.0,0.0,0.0,0.0
3.43,50.859356942641426,51.853391331568304,45.33710249440872,50.0,50.0,50.0,50.0,50.0,50.0,50.0,50.0,50.0,50.0,20.021525617221634,-48.02013660559953,-62.13689942177487,0.0,0.0,0.0,0.0,0.0,0.0,0.0,0.0,0.0,0.0
3.44,51.05957219881364,51.37318996551232,44.715733500190986,50.0,50.0,50.0,50.0,50.0,50.0,50.0,50.0,50.0,50.0,20.021525617221634,-48.02013660559953,-62.13689942177487,0.0,0.0,0.0,0.0,0.0,0.0,0.0,0.0,0.0,0.0
3.45,51.25978745498587,50.89298859945632,44.09436450597322,50.0,50.0,50.0,50.0,50.0,50.0,50.0,50.0,50.0,50.0,20.021525617221634,-48.02013660559953,-62.13689942177487,0.0,0.0,0.0,0.0,0.0,0.0,0.0,0.0,0.0,0.0
3.46,51.460002711158076,50.41278723340032,43.472995511755485,50.0,50.0,50.0,50.0,50.0,50.0,50.0,50.0,50.0,50.0,20.021525617221634,-48.02013660559953,-62.13689942177487,0.0,0.0,0.0,0.0,0.0,0.0,0.0,0.0,0.0,0.0
3.47,51.6602179673303,49.93258586734432,42.851626517537724,50.0,50.0,50.0,50.0,50.0,50.0,50.0,50.0,50.0,50.0,20.021525617221634,-48.02013660559953,-62.13689942177487,0.0,0.0,0.0,0.0,0.0,0.0,0.0,0.0,0.0,0.0
3.48,51.86043322350251,49.452384501288336,42.23025752331999,50.0,50.0,50.0,50.0,50.0,50.0,50.0,50.0,50.0,50.0,20.021525617221634,-48.02013660559953,-62.13689942177487,0.0,0.0,0.0,0.0,0.0,0.0,0.0,0.0,0.0,0.0
3.49,52.06064847967473,48.97218313523233,41.608888529102224,50.0,50.0,50.0,50.0,50.0,50.0,50.0,50.0,50.0,50.0,20.021525617221634,-48.02013660559953,-62.13689942177487,0.0,0.0,0.0,0.0,0.0,0.0,0.0,0.0,0.0,0.0
3.5,52.26086373584694,48.49198176917635,40.987519534884484,50.0,50.0,50.0,50.0,50.0,50.0,50.0,50.0,50.0,50.0,20.021525617221634,-48.02013660559953,-62.13689942177487,0.0,0.0,0.0,0.0,0.0,0.0,0.0,0.0,0.0,0.0
3.51,52.46052757493336,48.01310293589299,40.36786186619982,50.0,50.0,50.0,50.0,50.0,50.0,50.0,50.0,50.0,50.0,19.730429802725585,-47.32196499547034,-61.233482185084256,0.0,0.0,0.0,0.0,0.0,0.0,0.0,0.0,0.0,0.0
3.52,52.65399009985458,47.549097492332265,39.7674500053488,50.0,50.0,50.0,50.0,50.0,50.0,50.0,50.0,50.0,50.0,18.962075181517356,-45.47912371667058,-58.84888998511699,0.0,0.0,0.0,0.0,0.0,0.0,0.0,0.0,0.0,0.0
3.53,52.839769078563705,47.10352046155957,39.19088406649748,50.0,50.0,50.0,50.0,50.0,50.0,50.0,50.0,50.0,50.0,18.193720560309167,-43.63628243787091,-56.46429778514983,0.0,0.0,0.0,0.0,0.0,0.0,0.0,0.0,0.0,0.0
3.54,53.01786451106076,46.67637184357484,38.6381640496458,50.0,50.0,50.0,50.0,50.0,50.0,50.0,50.0,50.0,50.0,17.42536593910094,-41.79344115907116,-54.079705585182566,0.0,0.0,0.0,0.0,0.0,0.0,0.0,0.0,0.0,0.0
3.55,53.188276397345724,46.26765163837814,38.10928995479382,50.0,50.0,50.0,50.0,50.0,50.0,50.0,50.0,50.0,50.0,16.657011317892746,-39.95059988027149,-51.69511338521541,0.0,0.0,0.0,0.0,0.0,0.0,0.0,0.0,0.0,0.0
3.56,53.35100473741861,45.87735984596942,37.604261781941496,50.0,50.0,50.0,50.0,50.0,50.0,50.0,50.0,50.0,50.0,15.88865669668452,-38.10775860147174,-49.31052118524814,0.0,0.0,0.0,0.0,0.0,0.0,0.0,0.0,0.0,0.0
3.57,53.506049531279416,45.50549646634872,37.12307953108886,50.0,50.0,50.0,50.0,50.0,50.0,50.0,50.0,50.0,50.0,15.120302075476328,-36.26491732267207,-46.92592898528098,0.0,0.0,0.0,0.0,0.0,0.0,0.0,0.0,0.0,0.0
3.58,53.65341077892814,45.15206149951598,36.66574320223588,50.0,50.0,50.0,50.0,50.0,50.0,50.0,50.0,50.0,50.0,14.351947454268101,-34.422076043872316,-44.54133678531372,0.0,0.0,0.0,0.0,0.0,0.0,0.0,0.0,0.0,0.0
3.59,53.79308848036478,44.81705494547126,36.23225279538258,50.0,50.0,50.0,50.0,50.0,50.0,50.0,50.0,50.0,50.0,13.583592833059909,-32.57923476507264,-42.15674458534656,0.0,0.0,0.0,0.0,0.0,0.0,0.0,0.0,0.0,0.0
3.6,53.92508263558934,44.50047680421453,35.82260831052894,50.0,50.0,50.0,50.0,50.0,50.0,50.0,50.0,50.0,50.0,12.815238211851682,-30.73639348627289,-39.77215238537929,0.0,0.0,0.0,0.0,0.0,0.0,0.0,0.0,0.0,0.0
3.61,54.049393244601816,44.2023270757458,35.436809747675,50.0,50.0,50.0,50.0,50.0,50.0,50.0,50.0,50.0,50.0,12.046883590643489,-28.89355220747322,-37.387560185412134,0.0,0.0,0.0,0.0,0.0,0.0,0.0,0.0,0.0,0.0
3.62,54.166020307402206,43.92260576006506,35.0748571068207,50.0,50.0,50.0,50.0,50.0,50.0,50.0,50.0,50.0,50.0,11.278528969435262,-27.050710928673464,-35.00296798544486,0.0,0.0,0.0,0.0,0.0,0.0,0.0,0.0,0.0,0.0
3.63,54.27496382399052,43.661312857172334,34.7367503879661,50.0,50.0,50.0,50.0,50.0,50.0,50.0,50.0,50.0,50.0,10.51017434822707,-25.207869649873796,-32.6183757854777,0.0,0.0,0.0,0.0,0.0,0.0,0.0,0.0,0.0,0.0
3.64,54.37622379436675,43.41844836706759,34.422489591111145,50.0,50.0,50.0,50.0,50.0,50.0,50.0,50.0,50.0,50.0,9.741819727018845,-23.365028371074043,-30.23378358551044,0.0,0.0,0.0,0.0,0.0,0.0,0.0,0.0,0.0,0.0
3.65,54.46980021853089,43.19401228975085,34.132074716255886,50.0,50.0,50.0,50.0,50.0,50.0,50.0,50.0,50.0,50.0,8.973465105810652,-21.522187092274372,-27.849191385543282,0.0,0.0,0.0,0.0,0.0,0.0,0.0,0.0,0.0,0.0
3.66,54.55569309648296,42.988004625222096,33.865505763400286,50.0,50.0,50.0,50.0,50.0,50.0,50.0,50.0,50.0,50.0,8.205110484602425,-19.67934581347462,-25.464599185576013,0.0,0.0,0.0,0.0,0.0,0.0,0.0,0.0,0.0,0.0
3.67,54.63390242822294,42.80042537348135,33.622782732544366,50.0,50.0,50.0,50.0,50.0,50.0,50.0,50.0,50.0,50.0,7.436755863394232,-17.836504534674948,-23.080006985608854,0.0,0.0,0.0,0.0,0.0,0.0,0.0,0.0,0.0,0.0
3.68,54.70442821375085,42.6312745345286,33.403905623688104,50.0,50.0,50.0,50.0,50.0,50.0,50.0,50.0,50.0,50.0,6.668401242186006,-15.993663255875195,-20.69541478564159,0.0,0.0,0.0,0.0,0.0,0.0,0.0,0.0,0.0,0.0
3.69,54.767270453066665,42.48055210836385,33.208874436831536,50.0,50.0,50.0,50.0,50.0,50.0,50.0,50.0,50.0,50.0,5.900046620977813,-14.150821977075525,-18.31082258567443,0.0,0.0,0.0,0.0,0.0,0.0,0.0,0.0,0.0,0.0
3.7,54.8224291461704,42.34825809498709,33.03768917197462,50.0,50.0,50.0,50.0,50.0,50.0,50.0,50.0,50.0,50.0,5.131691999769586,-12.307980698275772,-15.926230385707163,0.0,0.0,0.0,0.0,0.0,0.0,0.0,0.0,0.0,0.0
3.71,54.869904293062056,42.234392494398335,32.89034982911739,50.0,50.0,50.0,50.0,50.0,50.0,50.0,50.0,50.0,50.0,4.363337378561394,-10.4651394194761,-13.541638185740004,0.0,0.0,0.0,0.0,0.0,0.0,0.0,0.0,0.0,0.0
3.72,54.90969589374163,42.138955306597566,32.76685640825982,50.0,50.0,50.0,50.0,50.0,50.0,50.0,50.0,50.0,50.0,3.5949827573531676,-8.62229814067635,-11.157045985772738,0.0,0.0,0.0,0.0,0.0,0.0,0.0,0.0,0.0,0.0
3.73,54.94180394820912,42.06194653158481,32.667208909401936,50.0,50.0,50.0,50.0,50.0,50.0,50.0,50.0,50.0,50.0,2.826628136144975,-6.779456861876678,-8.772453785805578,0.0,0.0,0.0,0.0,0.0,0.0,0.0,0.0,0.0,0.0
3.74,54.96622845646453,42.00336616936004,32.59140733254371,50.0,50.0,50.0,50.0,50.0,50.0,50.0,50.0,50.0,50.0,2.058273514936749,-4.936615583076926,-6.387861585838313,0.0,0.0,0.0,0.0,0.0,0.0,0.0,0.0,0.0,0.0
3.75,54.98296941850786,41.963214219923266,32.539451677685165,50.0,50.0,50.0,50.0,50.0,50.0,50.0,50.0,50.0,50.0,1.2899188937285562,-3.0937743042772547,-4.003269385871152,0.0,0.0,0.0,0.0,0.0,0.0,0.0,0.0,0.0,0.0
3.76,54.9920268343391,41.94149068327449,32.511341944826285,50.0,50.0,50.0,50.0,50.0,50.0,50.0,50.0,50.0,50.0,0.5215642725203637,-1.250933025477584,-1.618677185903993,0.0,0.0,0.0,0.0,0.0,0.0,0.0,0.0,0.0,0.0
3.77,54.99373768704905,41.93673002362368,32.50613645104173,50.0,50.0,50.0,50.0,50.0,50.0,50.0,50.0,50.0,50.0,-0.036958386898530864,-0.32064866213663945,0.1795497601102589,0.0,0.0,0.0,0.0,0.0,0.0,0.0,0.0,0.0,0.0
3.78,54.99279277380603,41.92853201519754,32.510726990844674,50.0,50.0,50.0,50.0,50.0,50.0,50.0,50.0,50.0,50.0,-0.15202426170630895,-1.318953023092467,0.7385582004768729,0.0,0.0,0.0,0.0,0.0,0.0,0.0,0.0,0.0,0.0
3.79,54.99069720181493,41.91035096316183,32.52090761505127,50.0,50.0,50.0,50.0,50.0,50.0,50.0,50.0,50.0,50.0,-0.26709013651409214,-2.317257384048339,1.2975666408435116,0.0,0.0,0.0,0.0,0.0,0.0,0.0,0.0,0.0,0.0
3.8,54.98745097107575,41.882186867516566,32.53667832366154,50.0,50.0,50.0,50.0,50.0,50.0,50.0,50.0,50.0,50.0,-0.3821560113218702,-3.3155617450041666,1.8565750812101254,0.0,0.0,0.0,0.0,0.0,0.0,0.0,0.0,0.0,0.0
3.81,54.98305408158849,41.84403972826175,32.558039116675474,50.0,50.0,50.0,50.0,50.0,50.0,50.0,50.0,50.0,50.0,-0.4972218861296534,-4.313866105960039,2.4155835215767643,0.0,0.0,0.0,0.0,0.0,0.0,0.0,0.0,0.0,0.0
3.82,54.97750653335316,41.79590954539737,32.58498999409307,50.0,50.0,50.0,50.0,50.0,50.0,50.0,50.0,50.0,50.0,-0.6122877609374315,-5.312170466915866,2.974591961943378,0.0,0.0,0.0,0.0,0.0,0.0,0.0,0.0,0.0,0.0
3.83,54.97080832636974,41.73779631892343,32.61753095591434,50.0,50.0,50.0,50.0,50.0,50.0,50.0,50.0,50.0,50.0,-0.7273536357452147,-6.310474827871738,3.533600402310017,0.0,0.0,0.0,0.0,0.0,0.0,0.0,0.0,0.0,0.0
3.84,54.962959460638245,41.669700048839935,32.65566200213927,50.0,50.0,50.0,50.0,50.0,50.0,50.0,50.0,50.0,50.0,-0.8424195105529928,-7.308779188827566,4.092608842676631,0.0,0.0,0.0,0.0,0.0,0.0,0.0,0.0,0.0,0.0
3.85,54.95395993615868,41.591620735146876,32.69938313276787,50.0,50.0,50.0,50.0,50.0,50.0,50.0,50.0,50.0,50.0,-0.957485385360776,-8.307083549783437,4.65161728304327,0.0,0.0,0.0,0.0,0.0,0.0,0.0,0.0,0.0,0.0
3.86,54.94380975293104,41.503558377844264,32.74869434780014,50.0,50.0,50.0,50.0,50.0,50.0,50.0,50.0,50.0,50.0,-1.072551260168554,-9.305387910739265,5.210625723409883,0.0,0.0,0.0,0.0,0.0,0.0,0.0,0.0,0.0,0.0
3.87,54.932508910955306,41.405512976932094,32.80359564723607,50.0,50.0,50.0,50.0,50.0,50.0,50.0,50.0,50.0,50.0,-1.1876171349763374,-10.303692271695137,5.769634163776523,0.0,0.0,0.0,0.0,0.0,0.0,0.0,0.0,0.0,0.0
3.88,54.92005741023151,41.297484532410365,32.86408703107567,50.0,50.0,50.0,50.0,50.0,50.0,50.0,50.0,50.0,50.0,-1.3026830097841153,-11.301996632650965,6.328642604143137,0.0,0.0,0.0,0.0,0.0,0.0,0.0,0.0,0.0,0.0
3.89,54.90645525075963,41.17947304427907,32.93016849931893,50.0,50.0,50.0,50.0,50.0,50.0,50.0,50.0,50.0,50.0,-1.4177488845918986,-12.300300993606838,6.887651044509775,0.0,0.0,0.0,0.0,0.0,0.0,0.0,0.0,0.0,0.0
3.9,54.891702432539674,41.051478512538225,33.001840051965864,50.0,50.0,50.0,50.0,50.0,50.0,50.0,50.0,50.0,50.0,-1.5328147593996768,-13.298605354562666,7.44665948487639,0.0,0.0,0.0,0.0,0.0,0.0,0.0,0.0,0.0,0.0
3.91,54.87579895557164,40.91350093718782,33.07910168901646,50.0,50.0,50.0,50.0,50.0,50.0,50.0,50.0,50.0,50.0,-1.6478806342074597,-14.296909715518536,8.005667925243028,0.0,0.0,0.0,0.0,0.0,0.0,0.0,0.0,0.0,0.0
3.92,54.858744819855524,40.765540318227856,33.16195341047072,50.0,50.0,50.0,50.0,50.0,50.0,50.0,50.0,50.0,50.0,-1.7629465090152379,-15.295214076474364,8.56467636560964,0.0,0.0,0.0,0.0,0.0,0.0,0.0,0.0,0.0,0.0
3.93,54.84054002539133,40.60759665565833,33.250395216328656,50.0,50.0,50.0,50.0,50.0,50.0,50.0,50.0,50.0,50.0,-1.8780123838230212,-16.293518437430237,9.12368480597628,0.0,0.0,0.0,0.0,0.0,0.0,0.0,0.0,0.0,0.0
3.94,54.82118457217906,40.43966994947925,33.344427106590246,50.0,50.0,50.0,50.0,50.0,50.0,50.0,50.0,50.0,50.0,-1.9930782586307991,-17.291822798386065,9.682693246342895,0.0,0.0,0.0,0.0,0.0,0.0,0.0,0.0,0.0,0.0
3.95,54.80067846021871,40.261760199690606,33.444049081255514,50.0,50.0,50.0,50.0,50.0,50.0,50.0,50.0,50.0,50.0,-2.108144133438582,-18.290127159341935,10.241701686709533,0.0,0.0,0.0,0.0,0.0,0.0,0.0,0.0,0.0,0.0
3.96,54.779021689510294,40.073867406292415,33.54926114032444,50.0,50.0,50.0,50.0,50.0,50.0,50.0,50.0,50.0,50.0,-2.2232100082463604,-19.288431520297763,10.800710127076146,0.0,0.0,0.0,0.0,0.0,0.0,0.0,0.0,0.0,0.0
3.97,54.75621426005378,39.87599156928465,33.66006328379704,50.0,50.0,50.0,50.0,50.0,50.0,50.0,50.0,50.0,50.0,-2.338275883054144,-20.286735881253637,11.359718567442787,0.0,0.0,0.0,0.0,0.0,0.0,0.0,0.0,0.0,0.0
3.98,54.7322561718492,39.668132688667335,33.7764555116733,50.0,50.0,50.0,50.0,50.0,50.0,50.0,50.0,50.0,50.0,-2.4533417578619217,-21.285040242209462,11.9187270078094,0.0,0.0,0.0,0.0,0.0,0.0,0.0,0.0,0.0,0.0
3.99,54.70714742489655,39.45029076444046,33.89843782395322,50.0,50.0,50.0,50.0,50.0,50.0,50.0,50.0,50.0,50.0,-2.568407632669705,-22.283344603165336,12.47773544817604,0.0,0.0,0.0,0.0,0.0,0.0,0.0,0.0,0.0,0.0
4.0,54.68088801919581,39.222465796604034,34.02601022063682,50.0,50.0,50.0,50.0,50.0,50.0,50.0,50.0,50.0,50.0,-2.683473507477483,-23.281648964121164,13.036743888542652,0.0,0.0,0.0,0.0,0.0,0.0,0.0,0.0,0.0,0.0
4.01,54.653477954747004,38.98465778515805,34.159172701724074,50.0,50.0,50.0,50.0,50.0,50.0,50.0,50.0,50.0,50.0,-2.798539382285261,-24.279953325076992,13.595752328909267,0.0,0.0,0.0,0.0,0.0,0.0,0.0,0.0,0.0,0.0
4.02,54.62491723155011,38.736866730102506,34.29792526721499,50.0,50.0,50.0,50.0,50.0,50.0,50.0,50.0,50.0,50.0,-2.9136052570930393,-25.278257686032816,14.15476076927588,0.0,0.0,0.0,0.0,0.0,0.0,0.0,0.0,0.0,0.0
4.03,54.59520584960514,38.47909263143738,34.4422679171096,50.0,50.0,50.0,50.0,50.0,50.0,50.0,50.0,50.0,50.0,-3.0286711319008273,-26.276562046988733,14.713769209642543,0.0,0.0,0.0,0.0,0.0,0.0,0.0,0.0,0.0,0.0
4.04,54.56434380891209,38.211335489162714,34.59220065140785,50.0,50.0,50.0,50.0,50.0,50.0,50.0,50.0,50.0,50.0,-3.1437370067086055,-27.27486640794456,15.272777650009159,0.0,0.0,0.0,0.0,0.0,0.0,0.0,0.0,0.0,0.0
4.05,54.53233110947097,37.9335953032785,34.747723470109776,50.0,50.0,50.0,50.0,50.0,50.0,50.0,50.0,50.0,50.0,-3.2588028815163836,-28.27317076890039,15.831786090375772,0.0,0.0,0.0,0.0,0.0,0.0,0.0,0.0,0.0,0.0
4.06,54.49916775128177,37.64587207378472,34.908836373215365,50.0,50.0,50.0,50.0,50.0,50.0,50.0,50.0,50.0,50.0,-3.373868756324162,-29.271475129856217,16.390794530742387,0.0,0.0,0.0,0.0,0.0,0.0,0.0,0.0,0.0,0.0
4.07,54.46485373434449,37.348165800681365,35.07553936072463,50.0,50.0,50.0,50.0,50.0,50.0,50.0,50.0,50.0,50.0,-3.48893463113195,-30.269779490812134,16.94980297110905,0.0,0.0,0.0,0.0,0.0,0.0,0.0,0.0,0.0,0.0
4.08,54.42938905865912,37.04047648396846,35.24783243263755,50.0,50.0,50.0,50.0,50.0,50.0,50.0,50.0,50.0,50.0,-3.6040005059397284,-31.268083851767962,17.508811411475666,0.0,0.0,0.0,0.0,0.0,0.0,0.0,0.0,0.0,0.0
4.09,54.39277372422569,36.722804123646014,35.425715588954134,50.0,50.0,50.0,50.0,50.0,50.0,50.0,50.0,50.0,50.0,-3.719066380747506,-32.26638821272379,18.067819851842277,0.0,0.0,0.0,0.0,0.0,0.0,0.0,0.0,0.0,0.0
4.1,54.355007731044175,36.395148719714,35.60918882967439,50.0,50.0,50.0,50.0,50.0,50.0,50.0,50.0,50.0,50.0,-3.8341322555552844,-33.26469257367962,18.62682829220889,0.0,0.0,0.0,0.0,0.0,0.0,0.0,0.0,0.0,0.0
4.11,54.316091079114585,36.05751027217241,35.79825215479833,50.0,50.0,50.0,50.0,50.0,50.0,50.0,50.0,50.0,50.0,-3.9491981303630728,-34.26299693463553,19.185836732575556,0.0,0.0,0.0,0.0,0.0,0.0,0.0,0.0,0.0,0.0
4.12,54.276023768436914,35.709888781021284,35.99290556432591,50.0,50.0,50.0,50.0,50.0,50.0,50.0,50.0,50.0,50.0,-4.06426400517085,-35.26130129559136,19.744845172942167,0.0,0.0,0.0,0.0,0.0,0.0,0.0,0.0,0.0,0.0
4.13,54.23480579901116,35.352284246260595,36.193149058257156,50.0,50.0,50.0,50.0,50.0,50.0,50.0,50.0,50.0,50.0,-4.179329879978629,-36.25960565654719,20.30385361330878,0.0,0.0,0.0,0.0,0.0,0.0,0.0,0.0,0.0,0.0
4.14,54.19243717083735,34.984696667890354,36.39898263659208,50.0,50.0,50.0,50.0,50.0,50.0,50.0,50.0,50.0,50.0,-4.2943957547864064,-37.257910017503015,20.862862053675396,0.0,0.0,0.0,0.0,0.0,0.0,0.0,0.0,0.0,0.0
4.15,54.14891788391543,34.60712604591051,36.61040629933068,50.0,50.0,50.0,50.0,50.0,50.0,50.0,50.0,50.0,50.0,-4.409461629594196,-38.256214378458935,21.42187049404206,0.0,0.0,0.0,0.0,0.0,0.0,0.0,0.0,0.0,0.0
4.16,54.10424793824546,34.21957238032116,36.82742004647292,50.0,50.0,50.0,50.0,50.0,50.0,50.0,50.0,50.0,50.0,-4.5245275044019735,-39.25451873941476,21.980878934408675,0.0,0.0,0.0,0.0,0.0,0.0,0.0,0.0,0.0,0.0
4.17,54.058427333827396,33.82203567112224,37.050023878018834,50.0,50.0,50.0,50.0,50.0,50.0,50.0,50.0,50.0,50.0,-4.639593379209751,-40.252823100370584,22.539887374775287,0.0,0.0,0.0,0.0,0.0,0.0,0.0,0.0,0.0,0.0
4.18,54.01145607066126,33.41451591831377,37.27821779396842,50.0,50.0,50.0,50.0,50.0,50.0,50.0,50.0,50.0,50.0,-4.754659254017529,-41.25112746132641,23.0988958151419,0.0,0.0,0.0,0.0,0.0,0.0,0.0,0.0,0.0,0.0
4.19,53.96333414874705,32.99701312189569,37.51200179432169,50.0,50.0,50.0,50.0,50.0,50.0,50.0,50.0,50.0,50.0,-4.869725128825318,-42.24943182228233,23.657904255508566,0.0,0.0,0.0,0.0,0.0,0.0,0.0,0.0,0.0,0.0
4.2,53.914153317156455,32.57032329109796,37.75093014740047,50.0,50.0,50.0,50.0,50.0,50.0,50.0,50.0,50.0,50.0,-4.938840623443897,-42.84907354753416,23.99367839285765,0.0,0.0,0.0,0.0,0.0,0.0,0.0,0.0,0.0,0.0
4.21,53.86476491092201,32.14183255562263,37.99086693132904,50.0,50.0,50.0,50.0,50.0,50.0,50.0,50.0,50.0,50.0,-4.938840623443897,-42.84907354753416,23.99367839285765,0.0,0.0,0.0,0.0,0.0,0.0,0.0,0.0,0.0,0.0
4.22,53.81537650468758,31.713341820147292,38.23080371525761,50.0,50.0,50.0,50.0,50.0,50.0,50.0,50.0,50.0,50.0,-4.938840623443897,-42.84907354753416,23.99367839285765,0.0,0.0,0.0,0.0,0.0,0.0,0.0,0.0,0.0,0.0
4.23,53.765988098453136,31.284851084671924,38.4707404991862,50.0,50.0,50.0,50.0,50.0,50.0,50.0,50.0,50.0,50.0,-4.938840623443897,-42.84907354753416,23.99367839285765,0.0,0.0,0.0,0.0,0.0,0.0,0.0,0.0,0.0,0.0
4.24,53.71659969221869,30.85636034919659,38.71067728311477,50.0,50.0,50.0,50.0,50.0,50.0,50.0,50.0,50.0,50.0,-4.938840623443897,-42.84907354753416,23.99367839285765,0.0,0.0,0.0,0.0,0.0,0.0,0.0,0.0,0.0,0.0
4.25,53.66721128598426,30.42786961372126,38.95061406704335,50.0,50.0,50.0,50.0,50.0,50.0,50.0,50.0,50.0,50.0,-4.938840623443897,-42.84907354753416,23.99367839285765,0.0,0.0,0.0,0.0,0.0,0.0,0.0,0.0,0.0,0.0
4.26,53.61782287974981,29.99937887824592,39.19055085097191,50.0,50.0,50.0,50.0,50.0,50.0,50.0,50.0,50.0,50.0,-4.938840623443897,-42.84907354753416,23.99367839285765,0.0,0.0,0.0,0.0,0.0,0.0,0.0,0.0,0.0,0.0
4.27,53.56843447351538,29.570888142770595,39.43048763490049,50.0,50.0,50.0,50.0,50.0,50.0,50.0,50.0,50.0,50.0,-4.938840623443897,-42.84907354753416,23.99367839285765,0.0,0.0,0.0,0.0,0.0,0.0,0.0,0.0,0.0,0.0
4.28,53.51904606728094,29.14239740729522,39.67042441882908,50.0,50.0,50.0,50.0,50.0,50.0,50.0,50.0,50.0,50.0,-4.938840623443897,-42.84907354753416,23.99367839285765,0.0,0.0,0.0,0.0,0.0,0.0,0.0,0.0,0.0,0.0
4.29,53.469657661046504,28.713906671819892,39.91036120275765,50.0,50.0,50.0,50.0,50.0,50.0,50.0,50.0,50.0,50.0,-4.938840623443897,-42.84907354753416,23.99367839285765,0.0,0.0,0.0,0.0,0.0,0.0,0.0,0.0,0.0,0.0
4.3,53.42026925481207,28.28541593634456,40.15029798668622,50.0,50.0,50.0,50.0,50.0,50.0,50.0,50.0,50.0,50.0,-4.938840623443897,-42.84907354753416,23.99367839285765,0.0,0.0,0.0,0.0,0.0,0.0,0.0,0.0,0.0,0.0
4.31,53.37088084857763,27.856925200869224,40.390234770614796,50.0,50.0,50.0,50.0,50.0,50.0,50.0,50.0,50.0,50.0,-4.938840623443897,-42.84907354753416,23.99367839285765,0.0,0.0,0.0,0.0,0.0,0.0,0.0,0.0,0.0,0.0
4.32,53.321492442343185,27.428434465393856,40.63017155454338,50.0,50.0,50.0,50.0,50.0,50.0,50.0,50.0,50.0,50.0,-4.938840623443897,-42.84907354753416,23.99367839285765,0.0,0.0,0.0,0.0,0.0,0.0,0.0,0.0,0.0,0.0
4.33,53.27210403610874,26.99994372991852,40.87010833847195,50.0,50.0,50.0,50.0,50.0,50.0,50.0,50.0,50.0,50.0,-4.938840623443897,-42.84907354753416,23.99367839285765,0.0,0.0,0.0,0.0,0.0,0.0,0.0,0.0,0.0,0.0
4.34,53.22271562987431,26.57145299444319,41.11004512240053,50.0,50.0,50.0,50.0,50.0,50.0,50.0,50.0,50.0,50.0,-4.938840623443897,-42.84907354753416,23.99367839285765,0.0,0.0,0.0,0.0,0.0,0.0,0.0,0.0,0.0,0.0
4.35,53.17332722363987,26.142962258967856,41.3499819063291,50.0,50.0,50.0,50.0,50.0,50.0,50.0,50.0,50.0,50.0,-4.938840623443897,-42.84907354753416,23.99367839285765,0.0,0.0,0.0,0.0,0.0,0.0,0.0,0.0,0.0,0.0
4.36,53.123938817405424,25.714471523492488,41.58991869025769,50.0,50.0,50.0,50.0,50.0,50.0,50.0,50.0,50.0,50.0,-4.938840623443897,-42.84907354753416,23.99367839285765,0.0,0.0,0.0,0.0,0.0,0.0,0.0,0.0,0.0,0.0
4.37,53.07455041117099,25.285980788017152,41.82985547418626,50.0,50.0,50.0,50.0,50.0,50.0,50.0,50.0,50.0,50.0,-4.938840623443897,-42.84907354753416,23.99367839285765,0.0,0.0,0.0,0.0,0.0,0.0,0.0,0.0,0.0,0.0
4.38,53.02516200493655,24.85749005254182,42.06979225811483,50.0,50.0,50.0,50.0,50.0,50.0,50.0,50.0,50.0,50.0,-4.938840623443897,-42.84907354753416,23.99367839285765,0.0,0.0,0.0,0.0,0.0,0.0,0.0,0.0,0.0,0.0
4.39,52.97577359870212,24.42899931706649,42.3097290420434,50.0,50.0,50.0,50.0,50.0,50.0,50.0,50.0,50.0,50.0,-4.938840623443897,-42.84907354753416,23.99367839285765,0.0,0.0,0.0,0.0,0.0,0.0,0.0,0.0,0.0,0.0
4.4,52.92638519246768,24.00050858159112,42.549665825972,50.0,50.0,50.0,50.0,50.0,50.0,50.0,50.0,50.0,50.0,-4.938840623443897,-42.84907354753416,23.99367839285765,0.0,0.0,0.0,0.0,0.0,0.0,0.0,0.0,0.0,0.0
4.41,52.876996786233235,23.57201784611579,42.78960260990057,50.0,50.0,50.0,50.0,50.0,50.0,50.0,50.0,50.0,50.0,-4.938840623443897,-42.84907354753416,23.99367839285765,0.0,0.0,0.0,0.0,0.0,0.0,0.0,0.0,0.0,0.0
4.42,52.82760837999879,23.143527110640456,43.02953939382914,50.0,50.0,50.0,50.0,50.0,50.0,50.0,50.0,50.0,50.0,-4.938840623443897,-42.84907354753416,23.99367839285765,0.0,0.0,0.0,0.0,0.0,0.0,0.0,0.0,0.0,0.0
4.43,52.77821997376436,22.715036375165123,43.26947617775771,50.0,50.0,50.0,50.0,50.0,50.0,50.0,50.0,50.0,50.0,-4.938840623443897,-42.84907354753416,23.99367839285765,0.0,0.0,0.0,0.0,0.0,0.0,0.0,0.0,0.0,0.0
4.44,52.728831567529916,22.28654563968975,43.50941296168631,50.0,50.0,50.0,50.0,50.0,50.0,50.0,50.0,50.0,50.0,-4.938840623443897,-42.84907354753416,23.99367839285765,0.0,0.0,0.0,0.0,0.0,0.0,0.0,0.0,0.0,0.0
4.45,52.67944316129548,21.85805490421442,43.74934974561488,50.0,50.0,50.0,50.0,50.0,50.0,50.0,50.0,50.0,50.0,-4.938840623443897,-42.84907354753416,23.99367839285765,0.0,0.0,0.0,0.0,0.0,0.0,0.0,0.0,0.0,0.0
4.46,52.63005475506104,21.429564168739084,43.98928652954345,50.0,50.0,50.0,50.0,50.0,50.0,50.0,50.0,50.0,50.0,-4.938840623443897,-42.84907354753416,23.99367839285765,0.0,0.0,0.0,0.0,0.0,0.0,0.0,0.0,0.0,0.0
4.47,52.5806663488266,21.001073433263752,44.22922331347202,50.0,50.0,50.0,50.0,50.0,50.0,50.0,50.0,50.0,50.0,-4.938840623443897,-42.84907354753416,23.99367839285765,0.0,0.0,0.0,0.0,0.0,0.0,0.0,0.0,0.0,0.0
4.48,52.53127794259216,20.572582697788384,44.46916009740061,50.0,50.0,50.0,50.0,50.0,50.0,50.0,50.0,50.0,50.0,-4.938840623443897,-42.84907354753416,23.99367839285765,0.0,0.0,0.0,0.0,0.0,0.0,0.0,0.0,0.0,0.0
4.49,52.48188953635773,20.144091962313052,44.70909688132918,50.0,50.0,50.0,50.0,50.0,50.0,50.0,50.0,50.0,50.0,-4.938840623443897,-42.84907354753416,23.99367839285765,0.0,0.0,0.0,0.0,0.0,0.0,0.0,0.0,0.0,0.0
4.5,52.432501130123285,19.71560122683772,44.94903366525775,50.0,50.0,50.0,50.0,50.0,50.0,50.0,50.0,50.0,50.0,-4.938840623443897,-42.84907354753416,23.99367839285765,0.0,0.0,0.0,0.0,0.0,0.0,0.0,0.0,0.0,0.0
4.51,52.38311272388884,19.287110491362387,45.18897044918633,50.0,50.0,50.0,50.0,50.0,50.0,50.0,50.0,50.0,50.0,-4.938840623443897,-42.84907354753416,23.99367839285765,0.0,0.0,0.0,0.0,0.0,0.0,0.0,0.0,0.0,0.0
4.52,52.33372431765441,18.858619755887055,45.4289072331149,50.0,50.0,50.0,50.0,50.0,50.0,50.0,50.0,50.0,50.0,-4.938840623443897,-42.84907354753416,23.99367839285765,0.0,0.0,0.0,0.0,0.0,0.0,0.0,0.0,0.0,0.0
4.53,52.28433591141997,18.43012902041168,45.66884401704349,50.0,50.0,50.0,50.0,50.0,50.0,50.0,50.0,50.0,50.0,-4.938840623443897,-42.84907354753416,23.99367839285765,0.0,0.0,0.0,0.0,0.0,0.0,0.0,0.0,0.0,0.0
4.54,52.23494750518553,18.001638284936348,45.90878080097206,50.0,50.0,50.0,50.0,50.0,50.0,50.0,50.0,50.0,50.0,-4.938840623443897,-42.84907354753416,23.99367839285765,0.0,0.0,0.0,0.0,0.0,0.0,0.0,0.0,0.0,0.0
4.55,52.18555909895109,17.57314754946102,46.14871758490063,50.0,50.0,50.0,50.0,50.0,50.0,50.0,50.0,50.0,50.0,-4.938840623443897,-42.84907354753416,23.99367839285765,0.0,0.0,0.0,0.0,0.0,0.0,0.0,0.0,0.0,0.0
4.56,52.13617069271665,17.144656813985684,46.3886543688292,50.0,50.0,50.0,50.0,50.0,50.0,50.0,50.0,50.0,50.0,-4.938840623443897,-42.84907354753416,23.99367839285765,0.0,0.0,0.0,0.0,0.0,0.0,0.0,0.0,0.0,0.0
4.57,52.08678228648221,16.716166078510316,46.62859115275779,50.0,50.0,50.0,50.0,50.0,50.0,50.0,50.0,50.0,50.0,-4.938840623443897,-42.84907354753416,23.99367839285765,0.0,0.0,0.0,0.0,0.0,0.0,0.0,0.0,0.0,0.0
4.58,52.03739388024777,16.287675343034984,46.86852793668637,50.0,50.0,50.0,50.0,50.0,50.0,50.0,50.0,50.0,50.0,-4.938840623443897,-42.84907354753416,23.99367839285765,0.0,0.0,0.0,0.0,0.0,0.0,0.0,0.0,0.0,0.0
4.59,51.988005474013335,15.859184607559651,47.10846472061493,50.0,50.0,50.0,50.0,50.0,50.0,50.0,50.0,50.0,50.0,-4.938840623443897,-42.84907354753416,23.99367839285765,0.0,0.0,0.0,0.0,0.0,0.0,0.0,0.0,0.0,0.0
4.6,51.9386170677789,15.43069387208432,47.34840150454351,50.0,50.0,50.0,50.0,50.0,50.0,50.0,50.0,50.0,50.0,-4.938840623443897,-42.84907354753416,23.99367839285765,0.0,0.0,0.0,0.0,0.0,0.0,0.0,0.0,0.0,0.0
4.61,51.88922866154445,15.002203136608948,47.58833828847211,50.0,50.0,50.0,50.0,50.0,50.0,50.0,50.0,50.0,50.0,-4.938840623443897,-42.84907354753416,23.99367839285765,0.0,0.0,0.0,0.0,0.0,0.0,0.0,0.0,0.0,0.0
4.62,51.83984025531002,14.573712401133614,47.82827507240067,50.0,50.0,50.0,50.0,50.0,50.0,50.0,50.0,50.0,50.0,-4.938840623443897,-42.84907354753416,23.99367839285765,0.0,0.0,0.0,0.0,0.0,0.0,0.0,0.0,0.0,0.0
4.63,51.79058302021597,14.146359698299998,48.06757460593046,50.0,50.0,50.0,50.0,50.0,50.0,50.0,50.0,50.0,50.0,-4.883898249964036,-42.37239693826285,23.726759546932872,0.0,0.0,0.0,0.0,0.0,0.0,0.0,0.0,0.0,0.0
4.64,51.74231936709036,13.727627250722154,48.30204715919795,50.0,50.0,50.0,50.0,50.0,50.0,50.0,50.0,50.0,50.0,-4.768832375156258,-41.37409257730702,23.167751106566257,0.0,0.0,0.0,0.0,0.0,0.0,0.0,0.0,0.0,0.0
4.65,51.69520637271283,13.318877846753834,48.53092962806179,50.0,50.0,50.0,50.0,50.0,50.0,50.0,50.0,50.0,50.0,-4.653766500348469,-40.3757882163511,22.608742666199593,0.0,0.0,0.0,0.0,0.0,0.0,0.0,0.0,0.0,0.0
4.66,51.64924403708339,12.920111486395111,48.75422201252195,50.0,50.0,50.0,50.0,50.0,50.0,50.0,50.0,50.0,50.0,-4.538700625540691,-39.37748385539527,22.049734225832978,0.0,0.0,0.0,0.0,0.0,0.0,0.0,0.0,0.0,0.0
4.67,51.604432360202026,12.531328169645949,48.971924312578444,50.0,50.0,50.0,50.0,50.0,50.0,50.0,50.0,50.0,50.0,-4.423634750732914,-38.37917949443945,21.490725785466367,0.0,0.0,0.0,0.0,0.0,0.0,0.0,0.0,0.0,0.0
4.68,51.56077134206873,12.15252789650634,49.18403652823127,50.0,50.0,50.0,50.0,50.0,50.0,50.0,50.0,50.0,50.0,-4.308568875925135,-37.38087513348362,20.931717345099752,0.0,0.0,0.0,0.0,0.0,0.0,0.0,0.0,0.0,0.0
4.69,51.51826098268352,11.783710666976257,49.39055865948045,50.0,50.0,50.0,50.0,50.0,50.0,50.0,50.0,50.0,50.0,-4.193503001117347,-36.38257077252771,20.372708904733088,0.0,0.0,0.0,0.0,0.0,0.0,0.0,0.0,0.0,0.0
4.7,51.476901282046384,11.424876481055769,49.59149070632594,50.0,50.0,50.0,50.0,50.0,50.0,50.0,50.0,50.0,50.0,-4.078437126309569,-35.38426641157187,19.813700464366473,0.0,0.0,0.0,0.0,0.0,0.0,0.0,0.0,0.0,0.0
4.71,51.43669224015733,11.076025338744838,49.786832668767765,50.0,50.0,50.0,50.0,50.0,50.0,50.0,50.0,50.0,50.0,-3.963371251501791,-34.38596205061605,19.25469202399986,0.0,0.0,0.0,0.0,0.0,0.0,0.0,0.0,0.0,0.0
4.72,51.39763385701635,10.737157240043459,49.97658454680593,50.0,50.0,50.0,50.0,50.0,50.0,50.0,50.0,50.0,50.0,-3.8483053766940127,-33.387657689660216,18.695683583633244,0.0,0.0,0.0,0.0,0.0,0.0,0.0,0.0,0.0,0.0
4.73,51.35972613262345,10.408272184951617,50.16074634044044,50.0,50.0,50.0,50.0,50.0,50.0,50.0,50.0,50.0,50.0,-3.7332395018862248,-32.3893533287043,18.136675143266583,0.0,0.0,0.0,0.0,0.0,0.0,0.0,0.0,0.0,0.0
4.74,51.32296906697863,10.089370173469359,50.33931804967127,50.0,50.0,50.0,50.0,50.0,50.0,50.0,50.0,50.0,50.0,-3.618173627078446,-31.391048967748475,17.57766670289997,0.0,0.0,0.0,0.0,0.0,0.0,0.0,0.0,0.0,0.0
4.75,51.28736266008188,9.780451205596663,50.51229967449843,50.0,50.0,50.0,50.0,50.0,50.0,50.0,50.0,50.0,50.0,-3.5031077522706684,-30.392744606792647,17.018658262533354,0.0,0.0,0.0,0.0,0.0,0.0,0.0,0.0,0.0,0.0
4.76,51.252906911933216,9.481515281333522,50.67969121492193,50.0,50.0,50.0,50.0,50.0,50.0,50.0,50.0,50.0,50.0,-3.38804187746289,-29.39444024583682,16.45964982216674,0.0,0.0,0.0,0.0,0.0,0.0,0.0,0.0,0.0,0.0
4.77,51.219601822532624,9.192562400679936,50.84149267094176,50.0,50.0,50.0,50.0,50.0,50.0,50.0,50.0,50.0,50.0,-3.2729760026551125,-28.396135884880994,15.900641381800126,0.0,0.0,0.0,0.0,0.0,0.0,0.0,0.0,0.0,0.0
4.78,51.187447391880106,8.913592563635888,50.99770404255794,50.0,50.0,50.0,50.0,50.0,50.0,50.0,50.0,50.0,50.0,-3.157910127847324,-27.397831523925078,15.341632941433463,0.0,0.0,0.0,0.0,0.0,0.0,0.0,0.0,0.0,0.0
4.79,51.156443619975676,8.644605770201421,51.148325329770444,50.0,50.0,50.0,50.0,50.0,50.0,50.0,50.0,50.0,50.0,-3.042844253039546,-26.39952716296925,14.782624501066849,0.0,0.0,0.0,0.0,0.0,0.0,0.0,0.0,0.0,0.0
4.8,51.12659050681932,8.385602020376515,51.293356532579274,50.0,50.0,50.0,50.0,50.0,50.0,50.0,50.0,50.0,50.0,-2.927778378231768,-25.40122280201342,14.223616060700236,0.0,0.0,0.0,0.0,0.0,0.0,0.0,0.0,0.0,0.0
4.81,51.097888052411044,8.136581314161166,51.43279765098443,50.0,50.0,50.0,50.0,50.0,50.0,50.0,50.0,50.0,50.0,-2.8127125034239895,-24.402918441057594,13.66460762033362,0.0,0.0,0.0,0.0,0.0,0.0,0.0,0.0,0.0,0.0
4.82,51.070336256750835,7.897543651555351,51.56664868498595,50.0,50.0,50.0,50.0,50.0,50.0,50.0,50.0,50.0,50.0,-2.6976466286162015,-23.404614080101677,13.105599179966957,0.0,0.0,0.0,0.0,0.0,0.0,0.0,0.0,0.0,0.0
