milky766/affetto/tests/data/rand_traj_step_sync_0-1-2.csv
t,q0,q1,q2,q3,q4,q5,q6,q7,q8,q9,q10,q11,q12,dq0,dq1,dq2,dq3,dq4,dq5,dq6,dq7,dq8,dq9,dq10,dq11,dq12
0.0,57.696233297771506,10.894945207684358,11.878981267937519,50.0,50.0,50.0,50.0,50.0,50.0,50.0,50.0,50.0,50.0,0.0,-0.0,-0.0,0.0,0.0,0.0,0.0,0.0,0.0,0.0,0.0,0.0,0.0
0.01,57.696233297771506,10.894945207684358,11.878981267937519,50.0,50.0,50.0,50.0,50.0,50.0,50.0,50.0,50.0,50.0,0.0,-0.0,-0.0,0.0,0.0,0.0,0.0,0.0,0.0,0.0,0.0,0.0,0.0
0.02,57.696233297771506,10.894945207684358,11.878981267937519,50.0,50.0,50.0,50.0,50.0,50.0,50.0,50.0,50.0,50.0,0.0,-0.0,-0.0,0.0,0.0,0.0,0.0,0.0,0.0,0.0,0.0,0.0,0.0
0.03,57.696233297771506,10.894945207684358,11.878981267937519,50.0,50.0,50.0,50.0,50.0,50.0,50.0,50.0,50.0,50.0,0.0,-0.0,-0.0,0.0,0.0,0.0,0.0,0.0,0.0,0.0,0.0,0.0,0.0
0.04,57.696233297771506,10.894945207684358,11.878981267937519,50.0,50.0,50.0,50.0,50.0,50.0,50.0,50.0,50.0,50.0,0.0,-0.0,-0.0,0.0,0.0,0.0,0.0,0.0,0.0,0.0,0.0,0.0,0.0
0.05,57.696233297771506,10.894945207684358,11.878981267937519,50.0,50.0,50.0,50.0,50.0,50.0,50.0,50.0,50.0,50.0,0.0,-0.0,-0.0,0.0,0.0,0.0,0.0,0.0,0.0,0.0,0.0,0.0,0.0
0.06,57.696233297771506,10.894945207684358,11.878981267937519,50.0,50.0,50.0,50.0,50.0,50.0,50.0,50.0,50.0,50.0,0.0,-0.0,-0.0,0.0,0.0,0.0,0.0,0.0,0.0,0.0,0.0,0.0,0.0
0.07,57.696233297771506,10.894945207684358,11.878981267937519,50.0,50.0,50.0,50.0,50.0,50.0,50.0,50.0,50.0,50.0,0.0,-0.0,-0.0,0.0,0.0,0.0,0.0,0.0,0.0,0.0,0.0,0.0,0.0
0.08,57.696233297771506,10.894945207684358,11.878981267937519,50.0,50.0,50.0,50.0,50.0,50.0,50.0,50.0,50.0,50.0,0.0,-0.0,-0.0,0.0,0.0,0.0,0.0,0.0,0.0,0.0,0.0,0.0,0.0
0.09,57.696233297771506,10.894945207684358,11.878981267937519,50.0,50.0,50.0,50.0,50.0,50.0,50.0,50.0,50.0,50.0,0.0,-0.0,-0.0,0.0,0.0,0.0,0.0,0.0,0.0,0.0,0.0,0.0,0.0
0.1,57.696233297771506,10.894945207684358,11.878981267937519,50.0,50.0,50.0,50.0,50.0,50.0,50.0,50.0,50.0,50.0,0.0,-0.0,-0.0,0.0,0.0,0.0,0.0,0.0,0.0,0.0,0.0,0.0,0.0
0.11,57.696233297771506,10.894945207684358,11.878981267937519,50.0,50.0,50.0,50.0,50.0,50.0,50.0,50.0,50.0,50.0,0.0,-0.0,-0.0,0.0,0.0,0.0,0.0,0.0,0.0,0.0,0.0,0.0,0.0
0.12,57.696233297771506,10.894945207684358,11.878981267937519,50.0,50.0,50.0,50.0,50.0,50.0,50.0,50.0,50.0,50.0,0.0,-0.0,-0.0,0.0,0.0,0.0,0.0,0.0,0.0,0.0,0.0,0.0,0.0
0.13,57.696233297771506,10.894945207684358,11.878981267937519,50.0,50.0,50.0,50.0,50.0,50.0,50.0,50.0,50.0,50.0,0.0,-0.0,-0.0,0.0,0.0,0.0,0.0,0.0,0.0,0.0,0.0,0.0,0.0
0.14,57.696233297771506,10.894945207684358,11.878981267937519,50.0,50.0,50.0,50.0,50.0,50.0,50.0,50.0,50.0,50.0,0.0,-0.0,-0.0,0.0,0.0,0.0,0.0,0.0,0.0,0.0,0.0,0.0,0.0
0.15,57.696233297771506,10.894945207684358,11.878981267937519,50.0,50.0,50.0,50.0,50.0,50.0,50.0,50.0,50.0,50.0,0.0,-0.0,-0.0,0.0,0.0,0.0,0.0,0.0,0.0,0.0,0.0,0.0,0.0
0.16,57.696233297771506,10.894945207684358,11.878981267937519,50.0,50.0,50.0,50.0,50.0,50.0,50.0,50.0,50.0,50.0,0.0,-0.0,-0.0,0.0,0.0,0.0,0.0,0.0,0.0,0.0,0.0,0.0,0.0
0.17,57.696233297771506,10.894945207684358,11.878981267937519,50.0,50.0,50.0,50.0,50.0,50.0,50.0,50.0,50.0,50.0,0.0,-0.0,-0.0,0.0,0.0,0.0,0.0,0.0,0.0,0.0,0.0,0.0,0.0
0.18,57.696233297771506,10.894945207684358,11.878981267937519,50.0,50.0,50.0,50.0,50.0,50.0,50.0,50.0,50.0,50.0,0.0,-0.0,-0.0,0.0,0.0,0.0,0.0,0.0,0.0,0.0,0.0,0.0,0.0
0.19,57.696233297771506,10.894945207684358,11.878981267937519,50.0,50.0,50.0,50.0,50.0,50.0,50.0,50.0,50.0,50.0,0.0,-0.0,-0.0,0.0,0.0,0.0,0.0,0.0,0.0,0.0,0.0,0.0,0.0
0.2,57.696233297771506,10.894945207684358,11.878981267937519,50.0,50.0,50.0,50.0,50.0,50.0,50.0,50.0,50.0,50.0,0.0,-0.0,-0.0,0.0,0.0,0.0,0.0,0.0,0.0,0.0,0.0,0.0,0.0
0.21,57.696233297771506,10.894945207684358,11.878981267937519,50.0,50.0,50.0,50.0,50.0,50.0,50.0,50.0,50.0,50.0,0.0,-0.0,-0.0,0.0,0.0,0.0,0.0,0.0,0.0,0.0,0.0,0.0,0.0
0.22,57.696233297771506,10.894945207684358,11.878981267937519,50.0,50.0,50.0,50.0,50.0,50.0,50.0,50.0,50.0,50.0,0.0,-0.0,-0.0,0.0,0.0,0.0,0.0,0.0,0.0,0.0,0.0,0.0,0.0
0.23,57.696233297771506,10.894945207684358,11.878981267937519,50.0,50.0,50.0,50.0,50.0,50.0,50.0,50.0,50.0,50.0,0.0,-0.0,-0.0,0.0,0.0,0.0,0.0,0.0,0.0,0.0,0.0,0.0,0.0
0.24,57.696233297771506,10.894945207684358,11.878981267937519,50.0,50.0,50.0,50.0,50.0,50.0,50.0,50.0,50.0,50.0,0.0,-0.0,-0.0,0.0,0.0,0.0,0.0,0.0,0.0,0.0,0.0,0.0,0.0
0.25,57.696233297771506,10.894945207684358,11.878981267937519,50.0,50.0,50.0,50.0,50.0,50.0,50.0,50.0,50.0,50.0,0.0,-0.0,-0.0,0.0,0.0,0.0,0.0,0.0,0.0,0.0,0.0,0.0,0.0
0.26,57.696233297771506,10.894945207684358,11.878981267937519,50.0,50.0,50.0,50.0,50.0,50.0,50.0,50.0,50.0,50.0,0.0,-0.0,-0.0,0.0,0.0,0.0,0.0,0.0,0.0,0.0,0.0,0.0,0.0
0.27,57.696233297771506,10.894945207684358,11.878981267937519,50.0,50.0,50.0,50.0,50.0,50.0,50.0,50.0,50.0,50.0,0.0,-0.0,-0.0,0.0,0.0,0.0,0.0,0.0,0.0,0.0,0.0,0.0,0.0
0.28,57.696233297771506,10.894945207684358,11.878981267937519,50.0,50.0,50.0,50.0,50.0,50.0,50.0,50.0,50.0,50.0,0.0,-0.0,-0.0,0.0,0.0,0.0,0.0,0.0,0.0,0.0,0.0,0.0,0.0
0.29,57.696233297771506,10.894945207684358,11.878981267937519,50.0,50.0,50.0,50.0,50.0,50.0,50.0,50.0,50.0,50.0,0.0,-0.0,-0.0,0.0,0.0,0.0,0.0,0.0,0.0,0.0,0.0,0.0,0.0
0.3,57.696233297771506,10.894945207684358,11.878981267937519,50.0,50.0,50.0,50.0,50.0,50.0,50.0,50.0,50.0,50.0,0.0,-0.0,-0.0,0.0,0.0,0.0,0.0,0.0,0.0,0.0,0.0,0.0,0.0
0.31,57.696233297771506,10.894945207684358,11.878981267937519,50.0,50.0,50.0,50.0,50.0,50.0,50.0,50.0,50.0,50.0,0.0,-0.0,-0.0,0.0,0.0,0.0,0.0,0.0,0.0,0.0,0.0,0.0,0.0
0.32,57.696233297771506,10.894945207684358,11.878981267937519,50.0,50.0,50.0,50.0,50.0,50.0,50.0,50.0,50.0,50.0,0.0,-0.0,-0.0,0.0,0.0,0.0,0.0,0.0,0.0,0.0,0.0,0.0,0.0
0.33,57.696233297771506,10.894945207684358,11.878981267937519,50.0,50.0,50.0,50.0,50.0,50.0,50.0,50.0,50.0,50.0,0.0,-0.0,-0.0,0.0,0.0,0.0,0.0,0.0,0.0,0.0,0.0,0.0,0.0
0.34,57.696233297771506,10.894945207684358,11.878981267937519,50.0,50.0,50.0,50.0,50.0,50.0,50.0,50.0,50.0,50.0,0.0,-0.0,-0.0,0.0,0.0,0.0,0.0,0.0,0.0,0.0,0.0,0.0,0.0
0.35,57.696233297771506,10.894945207684358,11.878981267937519,50.0,50.0,50.0,50.0,50.0,50.0,50.0,50.0,50.0,50.0,0.0,-0.0,-0.0,0.0,0.0,0.0,0.0,0.0,0.0,0.0,0.0,0.0,0.0
0.36,57.696233297771506,10.894945207684358,11.878981267937519,50.0,50.0,50.0,50.0,50.0,50.0,50.0,50.0,50.0,50.0,0.0,-0.0,-0.0,0.0,0.0,0.0,0.0,0.0,0.0,0.0,0.0,0.0,0.0
0.37,57.696233297771506,10.894945207684358,11.878981267937519,50.0,50.0,50.0,50.0,50.0,50.0,50.0,50.0,50.0,50.0,0.0,-0.0,-0.0,0.0,0.0,0.0,0.0,0.0,0.0,0.0,0.0,0.0,0.0
0.38,57.696233297771506,10.894945207684358,11.878981267937519,50.0,50.0,50.0,50.0,50.0,50.0,50.0,50.0,50.0,50.0,0.0,-0.0,-0.0,0.0,0.0,0.0,0.0,0.0,0.0,0.0,0.0,0.0,0.0
0.39,57.696233297771506,10.894945207684358,11.878981267937519,50.0,50.0,50.0,50.0,50.0,50.0,50.0,50.0,50.0,50.0,0.0,-0.0,-0.0,0.0,0.0,0.0,0.0,0.0,0.0,0.0,0.0,0.0,0.0
0.4,57.696233297771506,10.894945207684358,11.878981267937519,50.0,50.0,50.0,50.0,50.0,50.0,50.0,50.0,50.0,50.0,0.0,-0.0,-0.0,0.0,0.0,0.0,0.0,0.0,0.0,0.0,0.0,0.0,0.0
0.41,57.696233297771506,10.894945207684358,11.878981267937519,50.0,50.0,50.0,50.0,50.0,50.0,50.0,50.0,50.0,50.0,0.0,-0.0,-0.0,0.0,0.0,0.0,0.0,0.0,0.0,0.0,0.0,0.0,0.0
0.42,57.696233297771506,10.894945207684358,11.878981267937519,50.0,50.0,50.0,50.0,50.0,50.0,50.0,50.0,50.0,50.0,0.0,-0.0,-0.0,0.0,0.0,0.0,0.0,0.0,0.0,0.0,0.0,0.0,0.0
0.43,57.696233297771506,10.894945207684358,11.878981267937519,50.0,50.0,50.0,50.0,50.0,50.0,50.0,50.0,50.0,50.0,0.0,-0.0,-0.0,0.0,0.0,0.0,0.0,0.0,0.0,0.0,0.0,0.0,0.0
0.44,57.696233297771506,10.894945207684358,11.878981267937519,50.0,50.0,50.0,50.0,50.0,50.0,50.0,50.0,50.0,50.0,0.0,-0.0,-0.0,0.0,0.0,0.0,0.0,0.0,0.0,0.0,0.0,0.0,0.0
0.45,57.696233297771506,10.894945207684358,11.878981267937519,50.0,50.0,50.0,50.0,50.0,50.0,50.0,50.0,50.0,50.0,0.0,-0.0,-0.0,0.0,0.0,0.0,0.0,0.0,0.0,0.0,0.0,0.0,0.0
0.46,57.696233297771506,10.894945207684358,11.878981267937519,50.0,50.0,50.0,50.0,50.0,50.0,50.0,50.0,50.0,50.0,0.0,-0.0,-0.0,0.0,0.0,0.0,0.0,0.0,0.0,0.0,0.0,0.0,0.0
0.47,57.696233297771506,10.894945207684358,11.878981267937519,50.0,50.0,50.0,50.0,50.0,50.0,50.0,50.0,50.0,50.0,0.0,-0.0,-0.0,0.0,0.0,0.0,0.0,0.0,0.0,0.0,0.0,0.0,0.0
0.48,57.696233297771506,10.894945207684358,11.878981267937519,50.0,50.0,50.0,50.0,50.0,50.0,50.0,50.0,50.0,50.0,0.0,-0.0,-0.0,0.0,0.0,0.0,0.0,0.0,0.0,0.0,0.0,0.0,0.0
0.49,57.696233297771506,10.894945207684358,11.878981267937519,50.0,50.0,50.0,50.0,50.0,50.0,50.0,50.0,50.0,50.0,0.0,-0.0,-0.0,0.0,0.0,0.0,0.0,0.0,0.0,0.0,0.0,0.0,0.0
0.5,57.696233297771506,10.894945207684358,11.878981267937519,50.0,50.0,50.0,50.0,50.0,50.0,50.0,50.0,50.0,50.0,0.0,-0.0,-0.0,0.0,0.0,0.0,0.0,0.0,0.0,0.0,0.0,0.0,0.0
0.51,57.696233297771506,10.894945207684358,11.878981267937519,50.0,50.0,50.0,50.0,50.0,50.0,50.0,50.0,50.0,50.0,0.0,-0.0,-0.0,0.0,0.0,0.0,0.0,0.0,0.0,0.0,0.0,0.0,0.0
0.52,57.696233297771506,10.894945207684358,11.878981267937519,50.0,50.0,50.0,50.0,50.0,50.0,50.0,50.0,50.0,50.0,0.0,-0.0,-0.0,0.0,0.0,0.0,0.0,0.0,0.0,0.0,0.0,0.0,0.0
0.53,57.696233297771506,10.894945207684358,11.878981267937519,50.0,50.0,50.0,50.0,50.0,50.0,50.0,50.0,50.0,50.0,0.0,-0.0,-0.0,0.0,0.0,0.0,0.0,0.0,0.0,0.0,0.0,0.0,0.0
0.54,57.696233297771506,10.894945207684358,11.878981267937519,50.0,50.0,50.0,50.0,50.0,50.0,50.0,50.0,50.0,50.0,0.0,-0.0,-0.0,0.0,0.0,0.0,0.0,0.0,0.0,0.0,0.0,0.0,0.0
0.55,57.696233297771506,10.894945207684358,11.878981267937519,50.0,50.0,50.0,50.0,50.0,50.0,50.0,50.0,50.0,50.0,0.0,-0.0,-0.0,0.0,0.0,0.0,0.0,0.0,0.0,0.0,0.0,0.0,0.0
0.56,57.696233297771506,10.894945207684358,11.878981267937519,50.0,50.0,50.0,50.0,50.0,50.0,50.0,50.0,50.0,50.0,0.0,-0.0,-0.0,0.0,0.0,0.0,0.0,0.0,0.0,0.0,0.0,0.0,0.0
0.57,57.696233297771506,10.894945207684358,11.878981267937519,50.0,50.0,50.0,50.0,50.0,50.0,50.0,50.0,50.0,50.0,0.0,-0.0,-0.0,0.0,0.0,0.0,0.0,0.0,0.0,0.0,0.0,0.0,0.0
0.58,57.696233297771506,10.894945207684358,11.878981267937519,50.0,50.0,50.0,50.0,50.0,50.0,50.0,50.0,50.0,50.0,0.0,-0.0,-0.0,0.0,0.0,0.0,0.0,0.0,0.0,0.0,0.0,0.0,0.0
0.59,57.696233297771506,10.894945207684358,11.878981267937519,50.0,50.0,50.0,50.0,50.0,50.0,50.0,50.0,50.0,50.0,0.0,-0.0,-0.0,0.0,0.0,0.0,0.0,0.0,0.0,0.0,0.0,0.0,0.0
0.6,57.696233297771506,10.894945207684358,11.878981267937519,50.0,50.0,50.0,50.0,50.0,50.0,50.0,50.0,50.0,50.0,0.0,-0.0,-0.0,0.0,0.0,0.0,0.0,0.0,0.0,0.0,0.0,0.0,0.0
0.61,57.696233297771506,10.894945207684358,11.878981267937519,50.0,50.0,50.0,50.0,50.0,50.0,50.0,50.0,50.0,50.0,0.0,-0.0,-0.0,0.0,0.0,0.0,0.0,0.0,0.0,0.0,0.0,0.0,0.0
0.62,57.696233297771506,10.894945207684358,11.878981267937519,50.0,50.0,50.0,50.0,50.0,50.0,50.0,50.0,50.0,50.0,0.0,-0.0,-0.0,0.0,0.0,0.0,0.0,0.0,0.0,0.0,0.0,0.0,0.0
0.63,57.696233297771506,10.894945207684358,11.878981267937519,50.0,50.0,50.0,50.0,50.0,50.0,50.0,50.0,50.0,50.0,0.0,-0.0,-0.0,0.0,0.0,0.0,0.0,0.0,0.0,0.0,0.0,0.0,0.0
0.64,57.696233297771506,10.894945207684358,11.878981267937519,50.0,50.0,50.0,50.0,50.0,50.0,50.0,50.0,50.0,50.0,0.0,-0.0,-0.0,0.0,0.0,0.0,0.0,0.0,0.0,0.0,0.0,0.0,0.0
0.65,57.696233297771506,10.894945207684358,11.878981267937519,50.0,50.0,50.0,50.0,50.0,50.0,50.0,50.0,50.0,50.0,0.0,-0.0,-0.0,0.0,0.0,0.0,0.0,0.0,0.0,0.0,0.0,0.0,0.0
0.66,57.696233297771506,10.894945207684358,11.878981267937519,50.0,50.0,50.0,50.0,50.0,50.0,50.0,50.0,50.0,50.0,0.0,-0.0,-0.0,0.0,0.0,0.0,0.0,0.0,0.0,0.0,0.0,0.0,0.0
0.67,57.696233297771506,10.894945207684358,11.878981267937519,50.0,50.0,50.0,50.0,50.0,50.0,50.0,50.0,50.0,50.0,0.0,-0.0,-0.0,0.0,0.0,0.0,0.0,0.0,0.0,0.0,0.0,0.0,0.0
0.68,57.696233297771506,10.894945207684358,11.878981267937519,50.0,50.0,50.0,50.0,50.0,50.0,50.0,50.0,50.0,50.0,0.0,-0.0,-0.0,0.0,0.0,0.0,0.0,0.0,0.0,0.0,0.0,0.0,0.0
0.69,57.696233297771506,10.894945207684358,11.878981267937519,50.0,50.0,50.0,50.0,50.0,50.0,50.0,50.0,50.0,50.0,0.0,-0.0,-0.0,0.0,0.0,0.0,0.0,0.0,0.0,0.0,0.0,0.0,0.0
0.7,57.696233297771506,10.894945207684358,11.878981267937519,50.0,50.0,50.0,50.0,50.0,50.0,50.0,50.0,50.0,50.0,0.0,-0.0,-0.0,0.0,0.0,0.0,0.0,0.0,0.0,0.0,0.0,0.0,0.0
0.71,57.696233297771506,10.894945207684358,11.878981267937519,50.0,50.0,50.0,50.0,50.0,50.0,50.0,50.0,50.0,50.0,0.0,-0.0,-0.0,0.0,0.0,0.0,0.0,0.0,0.0,0.0,0.0,0.0,0.0
0.72,57.696233297771506,10.894945207684358,11.878981267937519,50.0,50.0,50.0,50.0,50.0,50.0,50.0,50.0,50.0,50.0,0.0,-0.0,-0.0,0.0,0.0,0.0,0.0,0.0,0.0,0.0,0.0,0.0,0.0
0.73,57.696233297771506,10.894945207684358,11.878981267937519,50.0,50.0,50.0,50.0,50.0,50.0,50.0,50.0,50.0,50.0,0.0,-0.0,-0.0,0.0,0.0,0.0,0.0,0.0,0.0,0.0,0.0,0.0,0.0
0.74,57.696233297771506,10.894945207684358,11.878981267937519,50.0,50.0,50.0,50.0,50.0,50.0,50.0,50.0,50.0,50.0,0.0,-0.0,-0.0,0.0,0.0,0.0,0.0,0.0,0.0,0.0,0.0,0.0,0.0
0.75,57.696233297771506,10.894945207684358,11.878981267937519,50.0,50.0,50.0,50.0,50.0,50.0,50.0,50.0,50.0,50.0,0.0,-0.0,-0.0,0.0,0.0,0.0,0.0,0.0,0.0,0.0,0.0,0.0,0.0
0.76,57.696233297771506,10.894945207684358,11.878981267937519,50.0,50.0,50.0,50.0,50.0,50.0,50.0,50.0,50.0,50.0,0.0,-0.0,-0.0,0.0,0.0,0.0,0.0,0.0,0.0,0.0,0.0,0.0,0.0
0.77,57.696233297771506,10.894945207684358,11.878981267937519,50.0,50.0,50.0,50.0,50.0,50.0,50.0,50.0,50.0,50.0,0.0,-0.0,-0.0,0.0,0.0,0.0,0.0,0.0,0.0,0.0,0.0,0.0,0.0
0.78,57.696233297771506,10.894945207684358,11.878981267937519,50.0,50.0,50.0,50.0,50.0,50.0,50.0,50.0,50.0,50.0,0.0,-0.0,-0.0,0.0,0.0,0.0,0.0,0.0,0.0,0.0,0.0,0.0,0.0
0.79,57.696233297771506,10.894945207684358,11.878981267937519,50.0,50.0,50.0,50.0,50.0,50.0,50.0,50.0,50.0,50.0,0.0,-0.0,-0.0,0.0,0.0,0.0,0.0,0.0,0.0,0.0,0.0,0.0,0.0
0.8,57.696233297771506,10.894945207684358,11.878981267937519,50.0,50.0,50.0,50.0,50.0,50.0,50.0,50.0,50.0,50.0,0.0,-0.0,-0.0,0.0,0.0,0.0,0.0,0.0,0.0,0.0,0.0,0.0,0.0
0.81,57.696233297771506,10.894945207684358,11.878981267937519,50.0,50.0,50.0,50.0,50.0,50.0,50.0,50.0,50.0,50.0,0.0,-0.0,-0.0,0.0,0.0,0.0,0.0,0.0,0.0,0.0,0.0,0.0,0.0
0.82,57.696233297771506,10.894945207684358,11.878981267937519,50.0,50.0,50.0,50.0,50.0,50.0,50.0,50.0,50.0,50.0,0.0,-0.0,-0.0,0.0,0.0,0.0,0.0,0.0,0.0,0.0,0.0,0.0,0.0
0.83,57.696233297771506,10.894945207684358,11.878981267937519,50.0,50.0,50.0,50.0,50.0,50.0,50.0,50.0,50.0,50.0,0.0,-0.0,-0.0,0.0,0.0,0.0,0.0,0.0,0.0,0.0,0.0,0.0,0.0
0.84,57.696233297771506,10.894945207684358,11.878981267937519,50.0,50.0,50.0,50.0,50.0,50.0,50.0,50.0,50.0,50.0,0.0,-0.0,-0.0,0.0,0.0,0.0,0.0,0.0,0.0,0.0,0.0,0.0,0.0
0.85,57.696233297771506,10.894945207684358,11.878981267937519,50.0,50.0,50.0,50.0,50.0,50.0,50.0,50.0,50.0,50.0,0.0,-0.0,-0.0,0.0,0.0,0.0,0.0,0.0,0.0,0.0,0.0,0.0,0.0
0.86,57.696233297771506,10.894945207684358,11.878981267937519,50.0,50.0,50.0,50.0,50.0,50.0,50.0,50.0,50.0,50.0,0.0,-0.0,-0.0,0.0,0.0,0.0,0.0,0.0,0.0,0.0,0.0,0.0,0.0
0.87,57.696233297771506,10.894945207684358,11.878981267937519,50.0,50.0,50.0,50.0,50.0,50.0,50.0,50.0,50.0,50.0,0.0,-0.0,-0.0,0.0,0.0,0.0,0.0,0.0,0.0,0.0,0.0,0.0,0.0
0.88,57.696233297771506,10.894945207684358,11.878981267937519,50.0,50.0,50.0,50.0,50.0,50.0,50.0,50.0,50.0,50.0,0.0,-0.0,-0.0,0.0,0.0,0.0,0.0,0.0,0.0,0.0,0.0,0.0,0.0
0.89,57.696233297771506,10.894945207684358,11.878981267937519,50.0,50.0,50.0,50.0,50.0,50.0,50.0,50.0,50.0,50.0,0.0,-0.0,-0.0,0.0,0.0,0.0,0.0,0.0,0.0,0.0,0.0,0.0,0.0
0.9,57.696233297771506,10.894945207684358,11.878981267937519,50.0,50.0,50.0,50.0,50.0,50.0,50.0,50.0,50.0,50.0,0.0,-0.0,-0.0,0.0,0.0,0.0,0.0,0.0,0.0,0.0,0.0,0.0,0.0
0.91,57.696233297771506,10.894945207684358,11.878981267937519,50.0,50.0,50.0,50.0,50.0,50.0,50.0,50.0,50.0,50.0,0.0,-0.0,-0.0,0.0,0.0,0.0,0.0,0.0,0.0,0.0,0.0,0.0,0.0
0.92,57.696233297771506,10.894945207684358,11.878981267937519,50.0,50.0,50.0,50.0,50.0,50.0,50.0,50.0,50.0,50.0,0.0,-0.0,-0.0,0.0,0.0,0.0,0.0,0.0,0.0,0.0,0.0,0.0,0.0
0.93,57.696233297771506,10.894945207684358,11.878981267937519,50.0,50.0,50.0,50.0,50.0,50.0,50.0,50.0,50.0,50.0,0.0,-0.0,-0.0,0.0,0.0,0.0,0.0,0.0,0.0,0.0,0.0,0.0,0.0
0.94,57.696233297771506,10.894945207684358,11.878981267937519,50.0,50.0,50.0,50.0,50.0,50.0,50.0,50.0,50.0,50.0,0.0,-0.0,-0.0,0.0,0.0,0.0,0.0,0.0,0.0,0.0,0.0,0.0,0.0
0.95,57.696233297771506,10.894945207684358,11.878981267937519,50.0,50.0,50.0,50.0,50.0,50.0,50.0,50.0,50.0,50.0,0.0,-0.0,-0.0,0.0,0.0,0.0,0.0,0.0,0.0,0.0,0.0,0.0,0.0
0.96,57.696233297771506,10.894945207684358,11.878981267937519,50.0,50.0,50.0,50.0,50.0,50.0,50.0,50.0,50.0,50.0,0.0,-0.0,-0.0,0.0,0.0,0.0,0.0,0.0,0.0,0.0,0.0,0.0,0.0
0.97,57.696233297771506,10.894945207684358,11.878981267937519,50.0,50.0,50.0,50.0,50.0,50.0,50.0,50.0,50.0,50.0,0.0,-0.0,-0.0,0.0,0.0,0.0,0.0,0.0,0.0,0.0,0.0,0.0,0.0
0.98,57.696233297771506,10.894945207684358,11.878981267937519,50.0,50.0,50.0,50.0,50.0,50.0,50.0,50.0,50.0,50.0,0.0,-0.0,-0.0,0.0,0.0,0.0,0.0,0.0,0.0,0.0,0.0,0.0,0.0
0.99,57.696233297771506,10.894945207684358,11.878981267937519,50.0,50.0,50.0,50.0,50.0,50.0,50.0,50.0,50.0,50.0,0.0,-0.0,-0.0,0.0,0.0,0.0,0.0,0.0,0.0,0.0,0.0,0.0,0.0
1.0,57.696233297771506,10.894945207684358,11.878981267937519,50.0,50.0,50.0,50.0,50.0,50.0,50.0,50.0,50.0,50.0,0.0,-0.0,-0.0,0.0,0.0,0.0,0.0,0.0,0.0,0.0,0.0,0.0,0.0
1.01,57.696233297771506,10.894945207684358,11.878981267937519,50.0,50.0,50.0,50.0,50.0,50.0,50.0,50.0,50.0,50.0,0.0,-0.0,-0.0,0.0,0.0,0.0,0.0,0.0,0.0,0.0,0.0,0.0,0.0
1.02,57.696233297771506,10.894945207684358,11.878981267937519,50.0,50.0,50.0,50.0,50.0,50.0,50.0,50.0,50.0,50.0,0.0,-0.0,-0.0,0.0,0.0,0.0,0.0,0.0,0.0,0.0,0.0,0.0,0.0
1.03,57.696233297771506,10.894945207684358,11.878981267937519,50.0,50.0,50.0,50.0,50.0,50.0,50.0,50.0,50.0,50.0,0.0,-0.0,-0.0,0.0,0.0,0.0,0.0,0.0,0.0,0.0,0.0,0.0,0.0
1.04,57.696233297771506,10.894945207684358,11.878981267937519,50.0,50.0,50.0,50.0,50.0,50.0,50.0,50.0,50.0,50.0,0.0,-0.0,-0.0,0.0,0.0,0.0,0.0,0.0,0.0,0.0,0.0,0.0,0.0
1.05,57.696233297771506,10.894945207684358,11.878981267937519,50.0,50.0,50.0,50.0,50.0,50.0,50.0,50.0,50.0,50.0,0.0,-0.0,-0.0,0.0,0.0,0.0,0.0,0.0,0.0,0.0,0.0,0.0,0.0
1.06,57.696233297771506,10.894945207684358,11.878981267937519,50.0,50.0,50.0,50.0,50.0,50.0,50.0,50.0,50.0,50.0,0.0,-0.0,-0.0,0.0,0.0,0.0,0.0,0.0,0.0,0.0,0.0,0.0,0.0
1.07,57.696233297771506,10.894945207684358,11.878981267937519,50.0,50.0,50.0,50.0,50.0,50.0,50.0,50.0,50.0,50.0,0.0,-0.0,-0.0,0.0,0.0,0.0,0.0,0.0,0.0,0.0,0.0,0.0,0.0
1.08,57.696233297771506,10.894945207684358,11.878981267937519,50.0,50.0,50.0,50.0,50.0,50.0,50.0,50.0,50.0,50.0,0.0,-0.0,-0.0,0.0,0.0,0.0,0.0,0.0,0.0,0.0,0.0,0.0,0.0
1.09,57.696233297771506,10.894945207684358,11.878981267937519,50.0,50.0,50.0,50.0,50.0,50.0,50.0,50.0,50.0,50.0,0.0,-0.0,-0.0,0.0,0.0,0.0,0.0,0.0,0.0,0.0,0.0,0.0,0.0
1.1,57.696233297771506,10.894945207684358,11.878981267937519,50.0,50.0,50.0,50.0,50.0,50.0,50.0,50.0,50.0,50.0,0.0,-0.0,-0.0,0.0,0.0,0.0,0.0,0.0,0.0,0.0,0.0,0.0,0.0
1.11,57.696233297771506,10.894945207684358,11.878981267937519,50.0,50.0,50.0,50.0,50.0,50.0,50.0,50.0,50.0,50.0,0.0,-0.0,-0.0,0.0,0.0,0.0,0.0,0.0,0.0,0.0,0.0,0.0,0.0
1.12,57.696233297771506,10.894945207684358,11.878981267937519,50.0,50.0,50.0,50.0,50.0,50.0,50.0,50.0,50.0,50.0,0.0,-0.0,-0.0,0.0,0.0,0.0,0.0,0.0,0.0,0.0,0.0,0.0,0.0
1.13,57.696233297771506,10.894945207684358,11.878981267937519,50.0,50.0,50.0,50.0,50.0,50.0,50.0,50.0,50.0,50.0,0.0,-0.0,-0.0,0.0,0.0,0.0,0.0,0.0,0.0,0.0,0.0,0.0,0.0
1.14,55.026742772138014,38.71926858161166,37.982946164277855,50.0,50.0,50.0,50.0,50.0,50.0,50.0,50.0,50.0,50.0,-0.0,0.0,0.0,0.0,0.0,0.0,0.0,0.0,0.0,0.0,0.0,0.0,0.0
1.15,55.026742772138014,38.71926858161166,37.982946164277855,50.0,50.0,50.0,50.0,50.0,50.0,50.0,50.0,50.0,50.0,-0.0,0.0,0.0,0.0,0.0,0.0,0.0,0.0,0.0,0.0,0.0,0.0,0.0
1.16,55.026742772138014,38.71926858161166,37.982946164277855,50.0,50.0,50.0,50.0,50.0,50.0,50.0,50.0,50.0,50.0,-0.0,0.0,0.0,0.0,0.0,0.0,0.0,0.0,0.0,0.0,0.0,0.0,0.0
1.17,55.026742772138014,38.71926858161166,37.982946164277855,50.0,50.0,50.0,50.0,50.0,50.0,50.0,50.0,50.0,50.0,-0.0,0.0,0.0,0.0,0.0,0.0,0.0,0.0,0.0,0.0,0.0,0.0,0.0
1.18,55.026742772138014,38.71926858161166,37.982946164277855,50.0,50.0,50.0,50.0,50.0,50.0,50.0,50.0,50.0,50.0,-0.0,0.0,0.0,0.0,0.0,0.0,0.0,0.0,0.0,0.0,0.0,0.0,0.0
1.19,55.026742772138014,38.71926858161166,37.982946164277855,50.0,50.0,50.0,50.0,50.0,50.0,50.0,50.0,50.0,50.0,-0.0,0.0,0.0,0.0,0.0,0.0,0.0,0.0,0.0,0.0,0.0,0.0,0.0
1.2,55.026742772138014,38.71926858161166,37.982946164277855,50.0,50.0,50.0,50.0,50.0,50.0,50.0,50.0,50.0,50.0,-0.0,0.0,0.0,0.0,0.0,0.0,0.0,0.0,0.0,0.0,0.0,0.0,0.0
1.21,55.026742772138014,38.71926858161166,37.982946164277855,50.0,50.0,50.0,50.0,50.0,50.0,50.0,50.0,50.0,50.0,-0.0,0.0,0.0,0.0,0.0,0.0,0.0,0.0,0.0,0.0,0.0,0.0,0.0
1.22,55.026742772138014,38.71926858161166,37.982946164277855,50.0,50.0,50.0,50.0,50.0,50.0,50.0,50.0,50.0,50.0,-0.0,0.0,0.0,0.0,0.0,0.0,0.0,0.0,0.0,0.0,0.0,0.0,0.0
1.23,55.026742772138014,38.71926858161166,37.982946164277855,50.0,50.0,50.0,50.0,50.0,50.0,50.0,50.0,50.0,50.0,-0.0,0.0,0.0,0.0,0.0,0.0,0.0,0.0,0.0,0.0,0.0,0.0,0.0
1.24,55.026742772138014,38.71926858161166,37.982946164277855,50.0,50.0,50.0,50.0,50.0,50.0,50.0,50.0,50.0,50.0,-0.0,0.0,0.0,0.0,0.0,0.0,0.0,0.0,0.0,0.0,0.0,0.0,0.0
1.25,55.026742772138014,38.71926858161166,37.982946164277855,50.0,50.0,50.0,50.0,50.0,50.0,50.0,50.0,50.0,50.0,-0.0,0.0,0.0,0.0,0.0,0.0,0.0,0.0,0.0,0.0,0.0,0.0,0.0
1.26,55.026742772138014,38.71926858161166,37.982946164277855,50.0,50.0,50.0,50.0,50.0,50.0,50.0,50.0,50.0,50.0,-0.0,0.0,0.0,0.0,0.0,0.0,0.0,0.0,0.0,0.0,0.0,0.0,0.0
1.27,55.026742772138014,38.71926858161166,37.982946164277855,50.0,50.0,50.0,50.0,50.0,50.0,50.0,50.0,50.0,50.0,-0.0,0.0,0.0,0.0,0.0,0.0,0.0,0.0,0.0,0.0,0.0,0.0,0.0
1.28,55.026742772138014,38.71926858161166,37.982946164277855,50.0,50.0,50.0,50.0,50.0,50.0,50.0,50.0,50.0,50.0,-0.0,0.0,0.0,0.0,0.0,0.0,0.0,0.0,0.0,0.0,0.0,0.0,0.0
1.29,55.026742772138014,38.71926858161166,37.982946164277855,50.0,50.0,50.0,50.0,50.0,50.0,50.0,50.0,50.0,50.0,-0.0,0.0,0.0,0.0,0.0,0.0,0.0,0.0,0.0,0.0,0.0,0.0,0.0
1.3,55.026742772138014,38.71926858161166,37.982946164277855,50.0,50.0,50.0,50.0,50.0,50.0,50.0,50.0,50.0,50.0,-0.0,0.0,0.0,0.0,0.0,0.0,0.0,0.0,0.0,0.0,0.0,0.0,0.0
1.31,55.026742772138014,38.71926858161166,37.982946164277855,50.0,50.0,50.0,50.0,50.0,50.0,50.0,50.0,50.0,50.0,-0.0,0.0,0.0,0.0,0.0,0.0,0.0,0.0,0.0,0.0,0.0,0.0,0.0
1.32,55.026742772138014,38.71926858161166,37.982946164277855,50.0,50.0,50.0,50.0,50.0,50.0,50.0,50.0,50.0,50.0,-0.0,0.0,0.0,0.0,0.0,0.0,0.0,0.0,0.0,0.0,0.0,0.0,0.0
1.33,55.026742772138014,38.71926858161166,37.982946164277855,50.0,50.0,50.0,50.0,50.0,50.0,50.0,50.0,50.0,50.0,-0.0,0.0,0.0,0.0,0.0,0.0,0.0,0.0,0.0,0.0,0.0,0.0,0.0
1.34,55.026742772138014,38.71926858161166,37.982946164277855,50.0,50.0,50.0,50.0,50.0,50.0,50.0,50.0,50.0,50.0,-0.0,0.0,0.0,0.0,0.0,0.0,0.0,0.0,0.0,0.0,0.0,0.0,0.0
1.35,55.026742772138014,38.71926858161166,37.982946164277855,50.0,50.0,50.0,50.0,50.0,50.0,50.0,50.0,50.0,50.0,-0.0,0.0,0.0,0.0,0.0,0.0,0.0,0.0,0.0,0.0,0.0,0.0,0.0
1.36,55.026742772138014,38.71926858161166,37.982946164277855,50.0,50.0,50.0,50.0,50.0,50.0,50.0,50.0,50.0,50.0,-0.0,0.0,0.0,0.0,0.0,0.0,0.0,0.0,0.0,0.0,0.0,0.0,0.0
1.37,55.026742772138014,38.71926858161166,37.982946164277855,50.0,50.0,50.0,50.0,50.0,50.0,50.0,50.0,50.0,50.0,-0.0,0.0,0.0,0.0,0.0,0.0,0.0,0.0,0.0,0.0,0.0,0.0,0.0
1.38,55.026742772138014,38.71926858161166,37.982946164277855,50.0,50.0,50.0,50.0,50.0,50.0,50.0,50.0,50.0,50.0,-0.0,0.0,0.0,0.0,0.0,0.0,0.0,0.0,0.0,0.0,0.0,0.0,0.0
1.39,55.026742772138014,38.71926858161166,37.982946164277855,50.0,50.0,50.0,50.0,50.0,50.0,50.0,50.0,50.0,50.0,-0.0,0.0,0.0,0.0,0.0,0.0,0.0,0.0,0.0,0.0,0.0,0.0,0.0
1.4,55.026742772138014,38.71926858161166,37.982946164277855,50.0,50.0,50.0,50.0,50.0,50.0,50.0,50.0,50.0,50.0,-0.0,0.0,0.0,0.0,0.0,0.0,0.0,0.0,0.0,0.0,0.0,0.0,0.0
1.41,55.026742772138014,38.71926858161166,37.982946164277855,50.0,50.0,50.0,50.0,50.0,50.0,50.0,50.0,50.0,50.0,-0.0,0.0,0.0,0.0,0.0,0.0,0.0,0.0,0.0,0.0,0.0,0.0,0.0
1.42,55.026742772138014,38.71926858161166,37.982946164277855,50.0,50.0,50.0,50.0,50.0,50.0,50.0,50.0,50.0,50.0,-0.0,0.0,0.0,0.0,0.0,0.0,0.0,0.0,0.0,0.0,0.0,0.0,0.0
1.43,55.026742772138014,38.71926858161166,37.982946164277855,50.0,50.0,50.0,50.0,50.0,50.0,50.0,50.0,50.0,50.0,-0.0,0.0,0.0,0.0,0.0,0.0,0.0,0.0,0.0,0.0,0.0,0.0,0.0
1.44,55.026742772138014,38.71926858161166,37.982946164277855,50.0,50.0,50.0,50.0,50.0,50.0,50.0,50.0,50.0,50.0,-0.0,0.0,0.0,0.0,0.0,0.0,0.0,0.0,0.0,0.0,0.0,0.0,0.0
1.45,55.026742772138014,38.71926858161166,37.982946164277855,50.0,50.0,50.0,50.0,50.0,50.0,50.0,50.0,50.0,50.0,-0.0,0.0,0.0,0.0,0.0,0.0,0.0,0.0,0.0,0.0,0.0,0.0,0.0
1.46,55.026742772138014,38.71926858161166,37.982946164277855,50.0,50.0,50.0,50.0,50.0,50.0,50.0,50.0,50.0,50.0,-0.0,0.0,0.0,0.0,0.0,0.0,0.0,0.0,0.0,0.0,0.0,0.0,0.0
1.47,55.026742772138014,38.71926858161166,37.982946164277855,50.0,50.0,50.0,50.0,50.0,50.0,50.0,50.0,50.0,50.0,-0.0,0.0,0.0,0.0,0.0,0.0,0.0,0.0,0.0,0.0,0.0,0.0,0.0
1.48,55.026742772138014,38.71926858161166,37.982946164277855,50.0,50.0,50.0,50.0,50.0,50.0,50.0,50.0,50.0,50.0,-0.0,0.0,0.0,0.0,0.0,0.0,0.0,0.0,0.0,0.0,0.0,0.0,0.0
1.49,55.026742772138014,38.71926858161166,37.982946164277855,50.0,50.0,50.0,50.0,50.0,50.0,50.0,50.0,50.0,50.0,-0.0,0.0,0.0,0.0,0.0,0.0,0.0,0.0,0.0,0.0,0.0,0.0,0.0
1.5,55.026742772138014,38.71926858161166,37.982946164277855,50.0,50.0,50.0,50.0,50.0,50.0,50.0,50.0,50.0,50.0,-0.0,0.0,0.0,0.0,0.0,0.0,0.0,0.0,0.0,0.0,0.0,0.0,0.0
1.51,55.026742772138014,38.71926858161166,37.982946164277855,50.0,50.0,50.0,50.0,50.0,50.0,50.0,50.0,50.0,50.0,-0.0,0.0,0.0,0.0,0.0,0.0,0.0,0.0,0.0,0.0,0.0,0.0,0.0
1.52,55.026742772138014,38.71926858161166,37.982946164277855,50.0,50.0,50.0,50.0,50.0,50.0,50.0,50.0,50.0,50.0,-0.0,0.0,0.0,0.0,0.0,0.0,0.0,0.0,0.0,0.0,0.0,0.0,0.0
1.53,55.026742772138014,38.71926858161166,37.982946164277855,50.0,50.0,50.0,50.0,50.0,50.0,50.0,50.0,50.0,50.0,-0.0,0.0,0.0,0.0,0.0,0.0,0.0,0.0,0.0,0.0,0.0,0.0,0.0
1.54,55.026742772138014,38.71926858161166,37.982946164277855,50.0,50.0,50.0,50.0,50.0,50.0,50.0,50.0,50.0,50.0,-0.0,0.0,0.0,0.0,0.0,0.0,0.0,0.0,0.0,0.0,0.0,0.0,0.0
1.55,55.026742772138014,38.71926858161166,37.982946164277855,50.0,50.0,50.0,50.0,50.0,50.0,50.0,50.0,50.0,50.0,-0.0,0.0,0.0,0.0,0.0,0.0,0.0,0.0,0.0,0.0,0.0,0.0,0.0
1.56,55.026742772138014,38.71926858161166,37.982946164277855,50.0,50.0,50.0,50.0,50.0,50.0,50.0,50.0,50.0,50.0,-0.0,0.0,0.0,0.0,0.0,0.0,0.0,0.0,0.0,0.0,0.0,0.0,0.0
1.57,55.026742772138014,38.71926858161166,37.982946164277855,50.0,50.0,50.0,50.0,50.0,50.0,50.0,50.0,50.0,50.0,-0.0,0.0,0.0,0.0,0.0,0.0,0.0,0.0,0.0,0.0,0.0,0.0,0.0
1.58,55.026742772138014,38.71926858161166,37.982946164277855,50.0,50.0,50.0,50.0,50.0,50.0,50.0,50.0,50.0,50.0,-0.0,0.0,0.0,0.0,0.0,0.0,0.0,0.0,0.0,0.0,0.0,0.0,0.0
1.59,55.026742772138014,38.71926858161166,37.982946164277855,50.0,50.0,50.0,50.0,50.0,50.0,50.0,50.0,50.0,50.0,-0.0,0.0,0.0,0.0,0.0,0.0,0.0,0.0,0.0,0.0,0.0,0.0,0.0
1.6,55.026742772138014,38.71926858161166,37.982946164277855,50.0,50.0,50.0,50.0,50.0,50.0,50.0,50.0,50.0,50.0,-0.0,0.0,0.0,0.0,0.0,0.0,0.0,0.0,0.0,0.0,0.0,0.0,0.0
1.61,55.026742772138014,38.71926858161166,37.982946164277855,50.0,50.0,50.0,50.0,50.0,50.0,50.0,50.0,50.0,50.0,-0.0,0.0,0.0,0.0,0.0,0.0,0.0,0.0,0.0,0.0,0.0,0.0,0.0
1.62,55.026742772138014,38.71926858161166,37.982946164277855,50.0,50.0,50.0,50.0,50.0,50.0,50.0,50.0,50.0,50.0,-0.0,0.0,0.0,0.0,0.0,0.0,0.0,0.0,0.0,0.0,0.0,0.0,0.0
1.63,55.026742772138014,38.71926858161166,37.982946164277855,50.0,50.0,50.0,50.0,50.0,50.0,50.0,50.0,50.0,50.0,-0.0,0.0,0.0,0.0,0.0,0.0,0.0,0.0,0.0,0.0,0.0,0.0,0.0
1.64,55.026742772138014,38.71926858161166,37.982946164277855,50.0,50.0,50.0,50.0,50.0,50.0,50.0,50.0,50.0,50.0,-0.0,0.0,0.0,0.0,0.0,0.0,0.0,0.0,0.0,0.0,0.0,0.0,0.0
1.65,55.026742772138014,38.71926858161166,37.982946164277855,50.0,50.0,50.0,50.0,50.0,50.0,50.0,50.0,50.0,50.0,-0.0,0.0,0.0,0.0,0.0,0.0,0.0,0.0,0.0,0.0,0.0,0.0,0.0
1.66,55.026742772138014,38.71926858161166,37.982946164277855,50.0,50.0,50.0,50.0,50.0,50.0,50.0,50.0,50.0,50.0,-0.0,0.0,0.0,0.0,0.0,0.0,0.0,0.0,0.0,0.0,0.0,0.0,0.0
1.67,55.026742772138014,38.71926858161166,37.982946164277855,50.0,50.0,50.0,50.0,50.0,50.0,50.0,50.0,50.0,50.0,-0.0,0.0,0.0,0.0,0.0,0.0,0.0,0.0,0.0,0.0,0.0,0.0,0.0
1.68,55.026742772138014,38.71926858161166,37.982946164277855,50.0,50.0,50.0,50.0,50.0,50.0,50.0,50.0,50.0,50.0,-0.0,0.0,0.0,0.0,0.0,0.0,0.0,0.0,0.0,0.0,0.0,0.0,0.0
1.69,55.026742772138014,38.71926858161166,37.982946164277855,50.0,50.0,50.0,50.0,50.0,50.0,50.0,50.0,50.0,50.0,-0.0,0.0,0.0,0.0,0.0,0.0,0.0,0.0,0.0,0.0,0.0,0.0,0.0
1.7,55.026742772138014,38.71926858161166,37.982946164277855,50.0,50.0,50.0,50.0,50.0,50.0,50.0,50.0,50.0,50.0,-0.0,0.0,0.0,0.0,0.0,0.0,0.0,0.0,0.0,0.0,0.0,0.0,0.0
1.71,55.026742772138014,38.71926858161166,37.982946164277855,50.0,50.0,50.0,50.0,50.0,50.0,50.0,50.0,50.0,50.0,-0.0,0.0,0.0,0.0,0.0,0.0,0.0,0.0,0.0,0.0,0.0,0.0,0.0
1.72,55.026742772138014,38.71926858161166,37.982946164277855,50.0,50.0,50.0,50.0,50.0,50.0,50.0,50.0,50.0,50.0,-0.0,0.0,0.0,0.0,0.0,0.0,0.0,0.0,0.0,0.0,0.0,0.0,0.0
1.73,55.026742772138014,38.71926858161166,37.982946164277855,50.0,50.0,50.0,50.0,50.0,50.0,50.0,50.0,50.0,50.0,-0.0,0.0,0.0,0.0,0.0,0.0,0.0,0.0,0.0,0.0,0.0,0.0,0.0
1.74,55.026742772138014,38.71926858161166,37.982946164277855,50.0,50.0,50.0,50.0,50.0,50.0,50.0,50.0,50.0,50.0,-0.0,0.0,0.0,0.0,0.0,0.0,0.0,0.0,0.0,0.0,0.0,0.0,0.0
1.75,55.026742772138014,38.71926858161166,37.982946164277855,50.0,50.0,50.0,50.0,50.0,50.0,50.0,50.0,50.0,50.0,-0.0,0.0,0.0,0.0,0.0,0.0,0.0,0.0,0.0,0.0,0.0,0.0,0.0
1.76,55.026742772138014,38.71926858161166,37.982946164277855,50.0,50.0,50.0,50.0,50.0,50.0,50.0,50.0,50.0,50.0,-0.0,0.0,0.0,0.0,0.0,0.0,0.0,0.0,0.0,0.0,0.0,0.0,0.0
1.77,55.026742772138014,38.71926858161166,37.982946164277855,50.0,50.0,50.0,50.0,50.0,50.0,50.0,50.0,50.0,50.0,-0.0,0.0,0.0,0.0,0.0,0.0,0.0,0.0,0.0,0.0,0.0,0.0,0.0
1.78,55.026742772138014,38.71926858161166,37.982946164277855,50.0,50.0,50.0,50.0,50.0,50.0,50.0,50.0,50.0,50.0,-0.0,0.0,0.0,0.0,0.0,0.0,0.0,0.0,0.0,0.0,0.0,0.0,0.0
1.79,55.026742772138014,38.71926858161166,37.982946164277855,50.0,50.0,50.0,50.0,50.0,50.0,50.0,50.0,50.0,50.0,-0.0,0.0,0.0,0.0,0.0,0.0,0.0,0.0,0.0,0.0,0.0,0.0,0.0
1.8,55.026742772138014,38.71926858161166,37.982946164277855,50.0,50.0,50.0,50.0,50.0,50.0,50.0,50.0,50.0,50.0,-0.0,0.0,0.0,0.0,0.0,0.0,0.0,0.0,0.0,0.0,0.0,0.0,0.0
1.81,55.026742772138014,38.71926858161166,37.982946164277855,50.0,50.0,50.0,50.0,50.0,50.0,50.0,50.0,50.0,50.0,-0.0,0.0,0.0,0.0,0.0,0.0,0.0,0.0,0.0,0.0,0.0,0.0,0.0
1.82,55.026742772138014,38.71926858161166,37.982946164277855,50.0,50.0,50.0,50.0,50.0,50.0,50.0,50.0,50.0,50.0,-0.0,0.0,0.0,0.0,0.0,0.0,0.0,0.0,0.0,0.0,0.0,0.0,0.0
1.83,55.026742772138014,38.71926858161166,37.982946164277855,50.0,50.0,50.0,50.0,50.0,50.0,50.0,50.0,50.0,50.0,-0.0,0.0,0.0,0.0,0.0,0.0,0.0,0.0,0.0,0.0,0.0,0.0,0.0
1.84,55.026742772138014,38.71926858161166,37.982946164277855,50.0,50.0,50.0,50.0,50.0,50.0,50.0,50.0,50.0,50.0,-0.0,0.0,0.0,0.0,0.0,0.0,0.0,0.0,0.0,0.0,0.0,0.0,0.0
1.85,55.026742772138014,38.71926858161166,37.982946164277855,50.0,50.0,50.0,50.0,50.0,50.0,50.0,50.0,50.0,50.0,-0.0,0.0,0.0,0.0,0.0,0.0,0.0,0.0,0.0,0.0,0.0,0.0,0.0
1.86,55.026742772138014,38.71926858161166,37.982946164277855,50.0,50.0,50.0,50.0,50.0,50.0,50.0,50.0,50.0,50.0,-0.0,0.0,0.0,0.0,0.0,0.0,0.0,0.0,0.0,0.0,0.0,0.0,0.0
1.87,55.026742772138014,38.71926858161166,37.982946164277855,50.0,50.0,50.0,50.0,50.0,50.0,50.0,50.0,50.0,50.0,-0.0,0.0,0.0,0.0,0.0,0.0,0.0,0.0,0.0,0.0,0.0,0.0,0.0
1.88,55.026742772138014,38.71926858161166,37.982946164277855,50.0,50.0,50.0,50.0,50.0,50.0,50.0,50.0,50.0,50.0,-0.0,0.0,0.0,0.0,0.0,0.0,0.0,0.0,0.0,0.0,0.0,0.0,0.0
1.89,55.026742772138014,38.71926858161166,37.982946164277855,50.0,50.0,50.0,50.0,50.0,50.0,50.0,50.0,50.0,50.0,-0.0,0.0,0.0,0.0,0.0,0.0,0.0,0.0,0.0,0.0,0.0,0.0,0.0
1.9,55.026742772138014,38.71926858161166,37.982946164277855,50.0,50.0,50.0,50.0,50.0,50.0,50.0,50.0,50.0,50.0,-0.0,0.0,0.0,0.0,0.0,0.0,0.0,0.0,0.0,0.0,0.0,0.0,0.0
1.91,55.026742772138014,38.71926858161166,37.982946164277855,50.0,50.0,50.0,50.0,50.0,50.0,50.0,50.0,50.0,50.0,-0.0,0.0,0.0,0.0,0.0,0.0,0.0,0.0,0.0,0.0,0.0,0.0,0.0
1.92,44.55951378227371,66.96309550388652,64.88869553045663,50.0,50.0,50.0,50.0,50.0,50.0,50.0,50.0,50.0,50.0,-0.0,0.0,0.0,0.0,0.0,0.0,0.0,0.0,0.0,0.0,0.0,0.0,0.0
1.93,44.55951378227371,66.96309550388652,64.88869553045663,50.0,50.0,50.0,50.0,50.0,50.0,50.0,50.0,50.0,50.0,-0.0,0.0,0.0,0.0,0.0,0.0,0.0,0.0,0.0,0.0,0.0,0.0,0.0
1.94,44.55951378227371,66.96309550388652,64.88869553045663,50.0,50.0,50.0,50.0,50.0,50.0,50.0,50.0,50.0,50.0,-0.0,0.0,0.0,0.0,0.0,0.0,0.0,0.0,0.0,0.0,0.0,0.0,0.0
1.95,44.55951378227371,66.96309550388652,64.88869553045663,50.0,50.0,50.0,50.0,50.0,50.0,50.0,50.0,50.0,50.0,-0.0,0.0,0.0,0.0,0.0,0.0,0.0,0.0,0.0,0.0,0.0,0.0,0.0
1.96,44.55951378227371,66.96309550388652,64.88869553045663,50.0,50.0,50.0,50.0,50.0,50.0,50.0,50.0,50.0,50.0,-0.0,0.0,0.0,0.0,0.0,0.0,0.0,0.0,0.0,0.0,0.0,0.0,0.0
1.97,44.55951378227371,66.96309550388652,64.88869553045663,50.0,50.0,50.0,50.0,50.0,50.0,50.0,50.0,50.0,50.0,-0.0,0.0,0.0,0.0,0.0,0.0,0.0,0.0,0.0,0.0,0.0,0.0,0.0
1.98,44.55951378227371,66.96309550388652,64.88869553045663,50.0,50.0,50.0,50.0,50.0,50.0,50.0,50.0,50.0,50.0,-0.0,0.0,0.0,0.0,0.0,0.0,0.0,0.0,0.0,0.0,0.0,0.0,0.0
1.99,44.55951378227371,66.96309550388652,64.88869553045663,50.0,50.0,50.0,50.0,50.0,50.0,50.0,50.0,50.0,50.0,-0.0,0.0,0.0,0.0,0.0,0.0,0.0,0.0,0.0,0.0,0.0,0.0,0.0
2.0,44.55951378227371,66.96309550388652,64.88869553045663,50.0,50.0,50.0,50.0,50.0,50.0,50.0,50.0,50.0,50.0,-0.0,0.0,0.0,0.0,0.0,0.0,0.0,0.0,0.0,0.0,0.0,0.0,0.0
2.01,44.55951378227371,66.96309550388652,64.88869553045663,50.0,50.0,50.0,50.0,50.0,50.0,50.0,50.0,50.0,50.0,-0.0,0.0,0.0,0.0,0.0,0.0,0.0,0.0,0.0,0.0,0.0,0.0,0.0
2.02,44.55951378227371,66.96309550388652,64.88869553045663,50.0,50.0,50.0,50.0,50.0,50.0,50.0,50.0,50.0,50.0,-0.0,0.0,0.0,0.0,0.0,0.0,0.0,0.0,0.0,0.0,0.0,0.0,0.0
2.03,44.55951378227371,66.96309550388652,64.88869553045663,50.0,50.0,50.0,50.0,50.0,50.0,50.0,50.0,50.0,50.0,-0.0,0.0,0.0,0.0,0.0,0.0,0.0,0.0,0.0,0.0,0.0,0.0,0.0
2.04,44.55951378227371,66.96309550388652,64.88869553045663,50.0,50.0,50.0,50.0,50.0,50.0,50.0,50.0,50.0,50.0,-0.0,0.0,0.0,0.0,0.0,0.0,0.0,0.0,0.0,0.0,0.0,0.0,0.0
2.05,44.55951378227371,66.96309550388652,64.88869553045663,50.0,50.0,50.0,50.0,50.0,50.0,50.0,50.0,50.0,50.0,-0.0,0.0,0.0,0.0,0.0,0.0,0.0,0.0,0.0,0.0,0.0,0.0,0.0
2.06,44.55951378227371,66.96309550388652,64.88869553045663,50.0,50.0,50.0,50.0,50.0,50.0,50.0,50.0,50.0,50.0,-0.0,0.0,0.0,0.0,0.0,0.0,0.0,0.0,0.0,0.0,0.0,0.0,0.0
2.07,44.55951378227371,66.96309550388652,64.88869553045663,50.0,50.0,50.0,50.0,50.0,50.0,50.0,50.0,50.0,50.0,-0.0,0.0,0.0,0.0,0.0,0.0,0.0,0.0,0.0,0.0,0.0,0.0,0.0
2.08,44.55951378227371,66.96309550388652,64.88869553045663,50.0,50.0,50.0,50.0,50.0,50.0,50.0,50.0,50.0,50.0,-0.0,0.0,0.0,0.0,0.0,0.0,0.0,0.0,0.0,0.0,0.0,0.0,0.0
2.09,44.55951378227371,66.96309550388652,64.88869553045663,50.0,50.0,50.0,50.0,50.0,50.0,50.0,50.0,50.0,50.0,-0.0,0.0,0.0,0.0,0.0,0.0,0.0,0.0,0.0,0.0,0.0,0.0,0.0
2.1,44.55951378227371,66.96309550388652,64.88869553045663,50.0,50.0,50.0,50.0,50.0,50.0,50.0,50.0,50.0,50.0,-0.0,0.0,0.0,0.0,0.0,0.0,0.0,0.0,0.0,0.0,0.0,0.0,0.0
2.11,44.55951378227371,66.96309550388652,64.88869553045663,50.0,50.0,50.0,50.0,50.0,50.0,50.0,50.0,50.0,50.0,-0.0,0.0,0.0,0.0,0.0,0.0,0.0,0.0,0.0,0.0,0.0,0.0,0.0
2.12,44.55951378227371,66.96309550388652,64.88869553045663,50.0,50.0,50.0,50.0,50.0,50.0,50.0,50.0,50.0,50.0,-0.0,0.0,0.0,0.0,0.0,0.0,0.0,0.0,0.0,0.0,0.0,0.0,0.0
2.13,44.55951378227371,66.96309550388652,64.88869553045663,50.0,50.0,50.0,50.0,50.0,50.0,50.0,50.0,50.0,50.0,-0.0,0.0,0.0,0.0,0.0,0.0,0.0,0.0,0.0,0.0,0.0,0.0,0.0
2.14,44.55951378227371,66.96309550388652,64.88869553045663,50.0,50.0,50.0,50.0,50.0,50.0,50.0,50.0,50.0,50.0,-0.0,0.0,0.0,0.0,0.0,0.0,0.0,0.0,0.0,0.0,0.0,0.0,0.0
2.15,44.55951378227371,66.96309550388652,64.88869553045663,50.0,50.0,50.0,50.0,50.0,50.0,50.0,50.0,50.0,50.0,-0.0,0.0,0.0,0.0,0.0,0.0,0.0,0.0,0.0,0.0,0.0,0.0,0.0
2.16,44.55951378227371,66.96309550388652,64.88869553045663,50.0,50.0,50.0,50.0,50.0,50.0,50.0,50.0,50.0,50.0,-0.0,0.0,0.0,0.0,0.0,0.0,0.0,0.0,0.0,0.0,0.0,0.0,0.0
2.17,44.55951378227371,66.96309550388652,64.88869553045663,50.0,50.0,50.0,50.0,50.0,50.0,50.0,50.0,50.0,50.0,-0.0,0.0,0.0,0.0,0.0,0.0,0.0,0.0,0.0,0.0,0.0,0.0,0.0
2.18,44.55951378227371,66.96309550388652,64.88869553045663,50.0,50.0,50.0,50.0,50.0,50.0,50.0,50.0,50.0,50.0,-0.0,0.0,0.0,0.0,0.0,0.0,0.0,0.0,0.0,0.0,0.0,0.0,0.0
2.19,44.55951378227371,66.96309550388652,64.88869553045663,50.0,50.0,50.0,50.0,50.0,50.0,50.0,50.0,50.0,50.0,-0.0,0.0,0.0,0.0,0.0,0.0,0.0,0.0,0.0,0.0,0.0,0.0,0.0
2.2,44.55951378227371,66.96309550388652,64.88869553045663,50.0,50.0,50.0,50.0,50.0,50.0,50.0,50.0,50.0,50.0,-0.0,0.0,0.0,0.0,0.0,0.0,0.0,0.0,0.0,0.0,0.0,0.0,0.0
2.21,44.55951378227371,66.96309550388652,64.88869553045663,50.0,50.0,50.0,50.0,50.0,50.0,50.0,50.0,50.0,50.0,-0.0,0.0,0.0,0.0,0.0,0.0,0.0,0.0,0.0,0.0,0.0,0.0,0.0
2.22,44.55951378227371,66.96309550388652,64.88869553045663,50.0,50.0,50.0,50.0,50.0,50.0,50.0,50.0,50.0,50.0,-0.0,0.0,0.0,0.0,0.0,0.0,0.0,0.0,0.0,0.0,0.0,0.0,0.0
2.23,44.55951378227371,66.96309550388652,64.88869553045663,50.0,50.0,50.0,50.0,50.0,50.0,50.0,50.0,50.0,50.0,-0.0,0.0,0.0,0.0,0.0,0.0,0.0,0.0,0.0,0.0,0.0,0.0,0.0
2.24,44.55951378227371,66.96309550388652,64.88869553045663,50.0,50.0,50.0,50.0,50.0,50.0,50.0,50.0,50.0,50.0,-0.0,0.0,0.0,0.0,0.0,0.0,0.0,0.0,0.0,0.0,0.0,0.0,0.0
2.25,44.55951378227371,66.96309550388652,64.88869553045663,50.0,50.0,50.0,50.0,50.0,50.0,50.0,50.0,50.0,50.0,-0.0,0.0,0.0,0.0,0.0,0.0,0.0,0.0,0.0,0.0,0.0,0.0,0.0
2.26,44.55951378227371,66.96309550388652,64.88869553045663,50.0,50.0,50.0,50.0,50.0,50.0,50.0,50.0,50.0,50.0,-0.0,0.0,0.0,0.0,0.0,0.0,0.0,0.0,0.0,0.0,0.0,0.0,0.0
2.27,44.55951378227371,66.96309550388652,64.88869553045663,50.0,50.0,50.0,50.0,50.0,50.0,50.0,50.0,50.0,50.0,-0.0,0.0,0.0,0.0,0.0,0.0,0.0,0.0,0.0,0.0,0.0,0.0,0.0
2.28,44.55951378227371,66.96309550388652,64.88869553045663,50.0,50.0,50.0,50.0,50.0,50.0,50.0,50.0,50.0,50.0,-0.0,0.0,0.0,0.0,0.0,0.0,0.0,0.0,0.0,0.0,0.0,0.0,0.0
2.29,44.55951378227371,66.96309550388652,64.88869553045663,50.0,50.0,50.0,50.0,50.0,50.0,50.0,50.0,50.0,50.0,-0.0,0.0,0.0,0.0,0.0,0.0,0.0,0.0,0.0,0.0,0.0,0.0,0.0
2.3,44.55951378227371,66.96309550388652,64.88869553045663,50.0,50.0,50.0,50.0,50.0,50.0,50.0,50.0,50.0,50.0,-0.0,0.0,0.0,0.0,0.0,0.0,0.0,0.0,0.0,0.0,0.0,0.0,0.0
2.31,44.55951378227371,66.96309550388652,64.88869553045663,50.0,50.0,50.0,50.0,50.0,50.0,50.0,50.0,50.0,50.0,-0.0,0.0,0.0,0.0,0.0,0.0,0.0,0.0,0.0,0.0,0.0,0.0,0.0
2.32,44.55951378227371,66.96309550388652,64.88869553045663,50.0,50.0,50.0,50.0,50.0,50.0,50.0,50.0,50.0,50.0,-0.0,0.0,0.0,0.0,0.0,0.0,0.0,0.0,0.0,0.0,0.0,0.0,0.0
2.33,44.55951378227371,66.96309550388652,64.88869553045663,50.0,50.0,50.0,50.0,50.0,50.0,50.0,50.0,50.0,50.0,-0.0,0.0,0.0,0.0,0.0,0.0,0.0,0.0,0.0,0.0,0.0,0.0,0.0
2.34,44.55951378227371,66.96309550388652,64.88869553045663,50.0,50.0,50.0,50.0,50.0,50.0,50.0,50.0,50.0,50.0,-0.0,0.0,0.0,0.0,0.0,0.0,0.0,0.0,0.0,0.0,0.0,0.0,0.0
2.35,44.55951378227371,66.96309550388652,64.88869553045663,50.0,50.0,50.0,50.0,50.0,50.0,50.0,50.0,50.0,50.0,-0.0,0.0,0.0,0.0,0.0,0.0,0.0,0.0,0.0,0.0,0.0,0.0,0.0
2.36,44.55951378227371,66.96309550388652,64.88869553045663,50.0,50.0,50.0,50.0,50.0,50.0,50.0,50.0,50.0,50.0,-0.0,0.0,0.0,0.0,0.0,0.0,0.0,0.0,0.0,0.0,0.0,0.0,0.0
2.37,44.55951378227371,66.96309550388652,64.88869553045663,50.0,50.0,50.0,50.0,50.0,50.0,50.0,50.0,50.0,50.0,-0.0,0.0,0.0,0.0,0.0,0.0,0.0,0.0,0.0,0.0,0.0,0.0,0.0
2.38,44.55951378227371,66.96309550388652,64.88869553045663,50.0,50.0,50.0,50.0,50.0,50.0,50.0,50.0,50.0,50.0,-0.0,0.0,0.0,0.0,0.0,0.0,0.0,0.0,0.0,0.0,0.0,0.0,0.0
2.39,44.55951378227371,66.96309550388652,64.88869553045663,50.0,50.0,50.0,50.0,50.0,50.0,50.0,50.0,50.0,50.0,-0.0,0.0,0.0,0.0,0.0,0.0,0.0,0.0,0.0,0.0,0.0,0.0,0.0
2.4,44.55951378227371,66.96309550388652,64.88869553045663,50.0,50.0,50.0,50.0,50.0,50.0,50.0,50.0,50.0,50.0,-0.0,0.0,0.0,0.0,0.0,0.0,0.0,0.0,0.0,0.0,0.0,0.0,0.0
2.41,44.55951378227371,66.96309550388652,64.88869553045663,50.0,50.0,50.0,50.0,50.0,50.0,50.0,50.0,50.0,50.0,-0.0,0.0,0.0,0.0,0.0,0.0,0.0,0.0,0.0,0.0,0.0,0.0,0.0
2.42,44.55951378227371,66.96309550388652,64.88869553045663,50.0,50.0,50.0,50.0,50.0,50.0,50.0,50.0,50.0,50.0,-0.0,0.0,0.0,0.0,0.0,0.0,0.0,0.0,0.0,0.0,0.0,0.0,0.0
2.43,44.55951378227371,66.96309550388652,64.88869553045663,50.0,50.0,50.0,50.0,50.0,50.0,50.0,50.0,50.0,50.0,-0.0,0.0,0.0,0.0,0.0,0.0,0.0,0.0,0.0,0.0,0.0,0.0,0.0
2.44,44.55951378227371,66.96309550388652,64.88869553045663,50.0,50.0,50.0,50.0,50.0,50.0,50.0,50.0,50.0,50.0,-0.0,0.0,0.0,0.0,0.0,0.0,0.0,0.0,0.0,0.0,0.0,0.0,0.0
2.45,44.55951378227371,66.96309550388652,64.88869553045663,50.0,50.0,50.0,50.0,50.0,50.0,50.0,50.0,50.0,50.0,-0.0,0.0,0.0,0.0,0.0,0.0,0.0,0.0,0.0,0.0,0.0,0.0,0.0
2.46,44.55951378227371,66.96309550388652,64.88869553045663,50.0,50.0,50.0,50.0,50.0,50.0,50.0,50.0,50.0,50.0,-0.0,0.0,0.0,0.0,0.0,0.0,0.0,0.0,0.0,0.0,0.0,0.0,0.0
2.47,44.55951378227371,66.96309550388652,64.88869553045663,50.0,50.0,50.0,50.0,50.0,50.0,50.0,50.0,50.0,50.0,-0.0,0.0,0.0,0.0,0.0,0.0,0.0,0.0,0.0,0.0,0.0,0.0,0.0
2.48,44.55951378227371,66.96309550388652,64.88869553045663,50.0,50.0,50.0,50.0,50.0,50.0,50.0,50.0,50.0,50.0,-0.0,0.0,0.0,0.0,0.0,0.0,0.0,0.0,0.0,0.0,0.0,0.0,0.0
2.49,44.55951378227371,66.96309550388652,64.88869553045663,50.0,50.0,50.0,50.0,50.0,50.0,50.0,50.0,50.0,50.0,-0.0,0.0,0.0,0.0,0.0,0.0,0.0,0.0,0.0,0.0,0.0,0.0,0.0
2.5,44.55951378227371,66.96309550388652,64.88869553045663,50.0,50.0,50.0,50.0,50.0,50.0,50.0,50.0,50.0,50.0,-0.0,0.0,0.0,0.0,0.0,0.0,0.0,0.0,0.0,0.0,0.0,0.0,0.0
2.51,44.55951378227371,66.96309550388652,64.88869553045663,50.0,50.0,50.0,50.0,50.0,50.0,50.0,50.0,50.0,50.0,-0.0,0.0,0.0,0.0,0.0,0.0,0.0,0.0,0.0,0.0,0.0,0.0,0.0
2.52,44.55951378227371,66.96309550388652,64.88869553045663,50.0,50.0,50.0,50.0,50.0,50.0,50.0,50.0,50.0,50.0,-0.0,0.0,0.0,0.0,0.0,0.0,0.0,0.0,0.0,0.0,0.0,0.0,0.0
2.53,44.55951378227371,66.96309550388652,64.88869553045663,50.0,50.0,50.0,50.0,50.0,50.0,50.0,50.0,50.0,50.0,-0.0,0.0,0.0,0.0,0.0,0.0,0.0,0.0,0.0,0.0,0.0,0.0,0.0
2.54,44.55951378227371,66.96309550388652,64.88869553045663,50.0,50.0,50.0,50.0,50.0,50.0,50.0,50.0,50.0,50.0,-0.0,0.0,0.0,0.0,0.0,0.0,0.0,0.0,0.0,0.0,0.0,0.0,0.0
2.55,44.55951378227371,66.96309550388652,64.88869553045663,50.0,50.0,50.0,50.0,50.0,50.0,50.0,50.0,50.0,50.0,-0.0,0.0,0.0,0.0,0.0,0.0,0.0,0.0,0.0,0.0,0.0,0.0,0.0
2.56,44.55951378227371,66.96309550388652,64.88869553045663,50.0,50.0,50.0,50.0,50.0,50.0,50.0,50.0,50.0,50.0,-0.0,0.0,0.0,0.0,0.0,0.0,0.0,0.0,0.0,0.0,0.0,0.0,0.0
2.57,44.55951378227371,66.96309550388652,64.88869553045663,50.0,50.0,50.0,50.0,50.0,50.0,50.0,50.0,50.0,50.0,-0.0,0.0,0.0,0.0,0.0,0.0,0.0,0.0,0.0,0.0,0.0,0.0,0.0
2.58,44.55951378227371,66.96309550388652,64.88869553045663,50.0,50.0,50.0,50.0,50.0,50.0,50.0,50.0,50.0,50.0,-0.0,0.0,0.0,0.0,0.0,0.0,0.0,0.0,0.0,0.0,0.0,0.0,0.0
2.59,44.55951378227371,66.96309550388652,64.88869553045663,50.0,50.0,50.0,50.0,50.0,50.0,50.0,50.0,50.0,50.0,-0.0,0.0,0.0,0.0,0.0,0.0,0.0,0.0,0.0,0.0,0.0,0.0,0.0
2.6,44.55951378227371,66.96309550388652,64.88869553045663,50.0,50.0,50.0,50.0,50.0,50.0,50.0,50.0,50.0,50.0,-0.0,0.0,0.0,0.0,0.0,0.0,0.0,0.0,0.0,0.0,0.0,0.0,0.0
2.61,44.55951378227371,66.96309550388652,64.88869553045663,50.0,50.0,50.0,50.0,50.0,50.0,50.0,50.0,50.0,50.0,-0.0,0.0,0.0,0.0,0.0,0.0,0.0,0.0,0.0,0.0,0.0,0.0,0.0
2.62,44.55951378227371,66.96309550388652,64.88869553045663,50.0,50.0,50.0,50.0,50.0,50.0,50.0,50.0,50.0,50.0,-0.0,0.0,0.0,0.0,0.0,0.0,0.0,0.0,0.0,0.0,0.0,0.0,0.0
2.63,44.55951378227371,66.96309550388652,64.88869553045663,50.0,50.0,50.0,50.0,50.0,50.0,50.0,50.0,50.0,50.0,-0.0,0.0,0.0,0.0,0.0,0.0,0.0,0.0,0.0,0.0,0.0,0.0,0.0
2.64,44.55951378227371,66.96309550388652,64.88869553045663,50.0,50.0,50.0,50.0,50.0,50.0,50.0,50.0,50.0,50.0,-0.0,0.0,0.0,0.0,0.0,0.0,0.0,0.0,0.0,0.0,0.0,0.0,0.0
2.65,44.55951378227371,66.96309550388652,64.88869553045663,50.0,50.0,50.0,50.0,50.0,50.0,50.0,50.0,50.0,50.0,-0.0,0.0,0.0,0.0,0.0,0.0,0.0,0.0,0.0,0.0,0.0,0.0,0.0
2.66,44.55951378227371,66.96309550388652,64.88869553045663,50.0,50.0,50.0,50.0,50.0,50.0,50.0,50.0,50.0,50.0,-0.0,0.0,0.0,0.0,0.0,0.0,0.0,0.0,0.0,0.0,0.0,0.0,0.0
2.67,44.55951378227371,66.96309550388652,64.88869553045663,50.0,50.0,50.0,50.0,50.0,50.0,50.0,50.0,50.0,50.0,-0.0,0.0,0.0,0.0,0.0,0.0,0.0,0.0,0.0,0.0,0.0,0.0,0.0
2.68,44.55951378227371,66.96309550388652,64.88869553045663,50.0,50.0,50.0,50.0,50.0,50.0,50.0,50.0,50.0,50.0,-0.0,0.0,0.0,0.0,0.0,0.0,0.0,0.0,0.0,0.0,0.0,0.0,0.0
2.69,44.55951378227371,66.96309550388652,64.88869553045663,50.0,50.0,50.0,50.0,50.0,50.0,50.0,50.0,50.0,50.0,-0.0,0.0,0.0,0.0,0.0,0.0,0.0,0.0,0.0,0.0,0.0,0.0,0.0
2.7,44.55951378227371,66.96309550388652,64.88869553045663,50.0,50.0,50.0,50.0,50.0,50.0,50.0,50.0,50.0,50.0,-0.0,0.0,0.0,0.0,0.0,0.0,0.0,0.0,0.0,0.0,0.0,0.0,0.0
2.71,44.55951378227371,66.96309550388652,64.88869553045663,50.0,50.0,50.0,50.0,50.0,50.0,50.0,50.0,50.0,50.0,-0.0,0.0,0.0,0.0,0.0,0.0,0.0,0.0,0.0,0.0,0.0,0.0,0.0
2.72,44.55951378227371,66.96309550388652,64.88869553045663,50.0,50.0,50.0,50.0,50.0,50.0,50.0,50.0,50.0,50.0,-0.0,0.0,0.0,0.0,0.0,0.0,0.0,0.0,0.0,0.0,0.0,0.0,0.0
2.73,44.55951378227371,66.96309550388652,64.88869553045663,50.0,50.0,50.0,50.0,50.0,50.0,50.0,50.0,50.0,50.0,-0.0,0.0,0.0,0.0,0.0,0.0,0.0,0.0,0.0,0.0,0.0,0.0,0.0
2.74,44.55951378227371,66.96309550388652,64.88869553045663,50.0,50.0,50.0,50.0,50.0,50.0,50.0,50.0,50.0,50.0,-0.0,0.0,0.0,0.0,0.0,0.0,0.0,0.0,0.0,0.0,0.0,0.0,0.0
2.75,44.55951378227371,66.96309550388652,64.88869553045663,50.0,50.0,50.0,50.0,50.0,50.0,50.0,50.0,50.0,50.0,-0.0,0.0,0.0,0.0,0.0,0.0,0.0,0.0,0.0,0.0,0.0,0.0,0.0
2.76,44.55951378227371,66.96309550388652,64.88869553045663,50.0,50.0,50.0,50.0,50.0,50.0,50.0,50.0,50.0,50.0,-0.0,0.0,0.0,0.0,0.0,0.0,0.0,0.0,0.0,0.0,0.0,0.0,0.0
2.77,44.55951378227371,66.96309550388652,64.88869553045663,50.0,50.0,50.0,50.0,50.0,50.0,50.0,50.0,50.0,50.0,-0.0,0.0,0.0,0.0,0.0,0.0,0.0,0.0,0.0,0.0,0.0,0.0,0.0
2.78,44.55951378227371,66.96309550388652,64.88869553045663,50.0,50.0,50.0,50.0,50.0,50.0,50.0,50.0,50.0,50.0,-0.0,0.0,0.0,0.0,0.0,0.0,0.0,0.0,0.0,0.0,0.0,0.0,0.0
2.79,44.55951378227371,66.96309550388652,64.88869553045663,50.0,50.0,50.0,50.0,50.0,50.0,50.0,50.0,50.0,50.0,-0.0,0.0,0.0,0.0,0.0,0.0,0.0,0.0,0.0,0.0,0.0,0.0,0.0
2.8,44.55951378227371,66.96309550388652,64.88869553045663,50.0,50.0,50.0,50.0,50.0,50.0,50.0,50.0,50.0,50.0,-0.0,0.0,0.0,0.0,0.0,0.0,0.0,0.0,0.0,0.0,0.0,0.0,0.0
2.81,44.55951378227371,66.96309550388652,64.88869553045663,50.0,50.0,50.0,50.0,50.0,50.0,50.0,50.0,50.0,50.0,-0.0,0.0,0.0,0.0,0.0,0.0,0.0,0.0,0.0,0.0,0.0,0.0,0.0
2.82,44.55951378227371,66.96309550388652,64.88869553045663,50.0,50.0,50.0,50.0,50.0,50.0,50.0,50.0,50.0,50.0,-0.0,0.0,0.0,0.0,0.0,0.0,0.0,0.0,0.0,0.0,0.0,0.0,0.0
2.83,44.55951378227371,66.96309550388652,64.88869553045663,50.0,50.0,50.0,50.0,50.0,50.0,50.0,50.0,50.0,50.0,-0.0,0.0,0.0,0.0,0.0,0.0,0.0,0.0,0.0,0.0,0.0,0.0,0.0
2.84,44.55951378227371,66.96309550388652,64.88869553045663,50.0,50.0,50.0,50.0,50.0,50.0,50.0,50.0,50.0,50.0,-0.0,0.0,0.0,0.0,0.0,0.0,0.0,0.0,0.0,0.0,0.0,0.0,0.0
2.85,44.55951378227371,66.96309550388652,64.88869553045663,50.0,50.0,50.0,50.0,50.0,50.0,50.0,50.0,50.0,50.0,-0.0,0.0,0.0,0.0,0.0,0.0,0.0,0.0,0.0,0.0,0.0,0.0,0.0
2.86,44.55951378227371,66.96309550388652,64.88869553045663,50.0,50.0,50.0,50.0,50.0,50.0,50.0,50.0,50.0,50.0,-0.0,0.0,0.0,0.0,0.0,0.0,0.0,0.0,0.0,0.0,0.0,0.0,0.0
2.87,44.55951378227371,66.96309550388652,64.88869553045663,50.0,50.0,50.0,50.0,50.0,50.0,50.0,50.0,50.0,50.0,-0.0,0.0,0.0,0.0,0.0,0.0,0.0,0.0,0.0,0.0,0.0,0.0,0.0
2.88,44.55951378227371,66.96309550388652,64.88869553045663,50.0,50.0,50.0,50.0,50.0,50.0,50.0,50.0,50.0,50.0,-0.0,0.0,0.0,0.0,0.0,0.0,0.0,0.0,0.0,0.0,0.0,0.0,0.0
2.89,44.55951378227371,66.96309550388652,64.88869553045663,50.0,50.0,50.0,50.0,50.0,50.0,50.0,50.0,50.0,50.0,-0.0,0.0,0.0,0.0,0.0,0.0,0.0,0.0,0.0,0.0,0.0,0.0,0.0
2.9,44.55951378227371,66.96309550388652,64.88869553045663,50.0,50.0,50.0,50.0,50.0,50.0,50.0,50.0,50.0,50.0,-0.0,0.0,0.0,0.0,0.0,0.0,0.0,0.0,0.0,0.0,0.0,0.0,0.0
2.91,44.55951378227371,66.96309550388652,64.88869553045663,50.0,50.0,50.0,50.0,50.0,50.0,50.0,50.0,50.0,50.0,-0.0,0.0,0.0,0.0,0.0,0.0,0.0,0.0,0.0,0.0,0.0,0.0,0.0
2.92,44.55951378227371,66.96309550388652,64.88869553045663,50.0,50.0,50.0,50.0,50.0,50.0,50.0,50.0,50.0,50.0,-0.0,0.0,0.0,0.0,0.0,0.0,0.0,0.0,0.0,0.0,0.0,0.0,0.0
2.93,44.55951378227371,66.96309550388652,64.88869553045663,50.0,50.0,50.0,50.0,50.0,50.0,50.0,50.0,50.0,50.0,-0.0,0.0,0.0,0.0,0.0,0.0,0.0,0.0,0.0,0.0,0.0,0.0,0.0
2.94,44.55951378227371,66.96309550388652,64.88869553045663,50.0,50.0,50.0,50.0,50.0,50.0,50.0,50.0,50.0,50.0,-0.0,0.0,0.0,0.0,0.0,0.0,0.0,0.0,0.0,0.0,0.0,0.0,0.0
2.95,44.55951378227371,66.96309550388652,64.88869553045663,50.0,50.0,50.0,50.0,50.0,50.0,50.0,50.0,50.0,50.0,-0.0,0.0,0.0,0.0,0.0,0.0,0.0,0.0,0.0,0.0,0.0,0.0,0.0
2.96,44.55951378227371,66.96309550388652,64.88869553045663,50.0,50.0,50.0,50.0,50.0,50.0,50.0,50.0,50.0,50.0,-0.0,0.0,0.0,0.0,0.0,0.0,0.0,0.0,0.0,0.0,0.0,0.0,0.0
2.97,44.55951378227371,66.96309550388652,64.88869553045663,50.0,50.0,50.0,50.0,50.0,50.0,50.0,50.0,50.0,50.0,-0.0,0.0,0.0,0.0,0.0,0.0,0.0,0.0,0.0,0.0,0.0,0.0,0.0
2.98,44.55951378227371,66.96309550388652,64.88869553045663,50.0,50.0,50.0,50.0,50.0,50.0,50.0,50.0,50.0,50.0,-0.0,0.0,0.0,0.0,0.0,0.0,0.0,0.0,0.0,0.0,0.0,0.0,0.0
2.99,54.993797040978464,41.93724497461734,32.50584810015087,50.0,50.0,50.0,50.0,50.0,50.0,50.0,50.0,50.0,50.0,0.0,-0.0,-0.0,0.0,0.0,0.0,0.0,0.0,0.0,0.0,0.0,0.0,0.0
3.0,54.993797040978464,41.93724497461734,32.50584810015087,50.0,50.0,50.0,50.0,50.0,50.0,50.0,50.0,50.0,50.0,0.0,-0.0,-0.0,0.0,0.0,0.0,0.0,0.0,0.0,0.0,0.0,0.0,0.0
3.01,54.993797040978464,41.93724497461734,32.50584810015087,50.0,50.0,50.0,50.0,50.0,50.0,50.0,50.0,50.0,50.0,0.0,-0.0,-0.0,0.0,0.0,0.0,0.0,0.0,0.0,0.0,0.0,0.0,0.0
3.02,54.993797040978464,41.93724497461734,32.50584810015087,50.0,50.0,50.0,50.0,50.0,50.0,50.0,50.0,50.0,50.0,0.0,-0.0,-0.0,0.0,0.0,0.0,0.0,0.0,0.0,0.0,0.0,0.0,0.0
3.03,54.993797040978464,41.93724497461734,32.50584810015087,50.0,50.0,50.0,50.0,50.0,50.0,50.0,50.0,50.0,50.0,0.0,-0.0,-0.0,0.0,0.0,0.0,0.0,0.0,0.0,0.0,0.0,0.0,0.0
3.04,54.993797040978464,41.93724497461734,32.50584810015087,50.0,50.0,50.0,50.0,50.0,50.0,50.0,50.0,50.0,50.0,0.0,-0.0,-0.0,0.0,0.0,0.0,0.0,0.0,0.0,0.0,0.0,0.0,0.0
3.05,54.993797040978464,41.93724497461734,32.50584810015087,50.0,50.0,50.0,50.0,50.0,50.0,50.0,50.0,50.0,50.0,0.0,-0.0,-0.0,0.0,0.0,0.0,0.0,0.0,0.0,0.0,0.0,0.0,0.0
3.06,54.993797040978464,41.93724497461734,32.50584810015087,50.0,50.0,50.0,50.0,50.0,50.0,50.0,50.0,50.0,50.0,0.0,-0.0,-0.0,0.0,0.0,0.0,0.0,0.0,0.0,0.0,0.0,0.0,0.0
3.07,54.993797040978464,41.93724497461734,32.50584810015087,50.0,50.0,50.0,50.0,50.0,50.0,50.0,50.0,50.0,50.0,0.0,-0.0,-0.0,0.0,0.0,0.0,0.0,0.0,0.0,0.0,0.0,0.0,0.0
3.08,54.993797040978464,41.93724497461734,32.50584810015087,50.0,50.0,50.0,50.0,50.0,50.0,50.0,50.0,50.0,50.0,0.0,-0.0,-0.0,0.0,0.0,0.0,0.0,0.0,0.0,0.0,0.0,0.0,0.0
3.09,54.993797040978464,41.93724497461734,32.50584810015087,50.0,50.0,50.0,50.0,50.0,50.0,50.0,50.0,50.0,50.0,0.0,-0.0,-0.0,0.0,0.0,0.0,0.0,0.0,0.0,0.0,0.0,0.0,0.0
3.1,54.993797040978464,41.93724497461734,32.50584810015087,50.0,50.0,50.0,50.0,50.0,50.0,50.0,50.0,50.0,50.0,0.0,-0.0,-0.0,0.0,0.0,0.0,0.0,0.0,0.0,0.0,0.0,0.0,0.0
3.11,54.993797040978464,41.93724497461734,32.50584810015087,50.0,50.0,50.0,50.0,50.0,50.0,50.0,50.0,50.0,50.0,0.0,-0.0,-0.0,0.0,0.0,0.0,0.0,0.0,0.0,0.0,0.0,0.0,0.0
3.12,54.993797040978464,41.93724497461734,32.50584810015087,50.0,50.0,50.0,50.0,50.0,50.0,50.0,50.0,50.0,50.0,0.0,-0.0,-0.0,0.0,0.0,0.0,0.0,0.0,0.0,0.0,0.0,0.0,0.0
3.13,54.993797040978464,41.93724497461734,32.50584810015087,50.0,50.0,50.0,50.0,50.0,50.0,50.0,50.0,50.0,50.0,0.0,-0.0,-0.0,0.0,0.0,0.0,0.0,0.0,0.0,0.0,0.0,0.0,0.0
3.14,54.993797040978464,41.93724497461734,32.50584810015087,50.0,50.0,50.0,50.0,50.0,50.0,50.0,50.0,50.0,50.0,0.0,-0.0,-0.0,0.0,0.0,0.0,0.0,0.0,0.0,0.0,0.0,0.0,0.0
3.15,54.993797040978464,41.93724497461734,32.50584810015087,50.0,50.0,50.0,50.0,50.0,50.0,50.0,50.0,50.0,50.0,0.0,-0.0,-0.0,0.0,0.0,0.0,0.0,0.0,0.0,0.0,0.0,0.0,0.0
3.16,54.993797040978464,41.93724497461734,32.50584810015087,50.0,50.0,50.0,50.0,50.0,50.0,50.0,50.0,50.0,50.0,0.0,-0.0,-0.0,0.0,0.0,0.0,0.0,0.0,0.0,0.0,0.0,0.0,0.0
3.17,54.993797040978464,41.93724497461734,32.50584810015087,50.0,50.0,50.0,50.0,50.0,50.0,50.0,50.0,50.0,50.0,0.0,-0.0,-0.0,0.0,0.0,0.0,0.0,0.0,0.0,0.0,0.0,0.0,0.0
3.18,54.993797040978464,41.93724497461734,32.50584810015087,50.0,50.0,50.0,50.0,50.0,50.0,50.0,50.0,50.0,50.0,0.0,-0.0,-0.0,0.0,0.0,0.0,0.0,0.0,0.0,0.0,0.0,0.0,0.0
3.19,54.993797040978464,41.93724497461734,32.50584810015087,50.0,50.0,50.0,50.0,50.0,50.0,50.0,50.0,50.0,50.0,0.0,-0.0,-0.0,0.0,0.0,0.0,0.0,0.0,0.0,0.0,0.0,0.0,0.0
3.2,54.993797040978464,41.93724497461734,32.50584810015087,50.0,50.0,50.0,50.0,50.0,50.0,50.0,50.0,50.0,50.0,0.0,-0.0,-0.0,0.0,0.0,0.0,0.0,0.0,0.0,0.0,0.0,0.0,0.0
3.21,54.993797040978464,41.93724497461734,32.50584810015087,50.0,50.0,50.0,50.0,50.0,50.0,50.0,50.0,50.0,50.0,0.0,-0.0,-0.0,0.0,0.0,0.0,0.0,0.0,0.0,0.0,0.0,0.0,0.0
3.22,54.993797040978464,41.93724497461734,32.50584810015087,50.0,50.0,50.0,50.0,50.0,50.0,50.0,50.0,50.0,50.0,0.0,-0.0,-0.0,0.0,0.0,0.0,0.0,0.0,0.0,0.0,0.0,0.0,0.0
3.23,54.993797040978464,41.93724497461734,32.50584810015087,50.0,50.0,50.0,50.0,50.0,50.0,50.0,50.0,50.0,50.0,0.0,-0.0,-0.0,0.0,0.0,0.0,0.0,0.0,0.0,0.0,0.0,0.0,0.0
3.24,54.993797040978464,41.93724497461734,32.50584810015087,50.0,50.0,50.0,50.0,50.0,50.0,50.0,50.0,50.0,50.0,0.0,-0.0,-0.0,0.0,0.0,0.0,0.0,0.0,0.0,0.0,0.0,0.0,0.0
3.25,54.993797040978464,41.93724497461734,32.50584810015087,50.0,50.0,50.0,50.0,50.0,50.0,50.0,50.0,50.0,50.0,0.0,-0.0,-0.0,0.0,0.0,0.0,0.0,0.0,0.0,0.0,0.0,0.0,0.0
3.26,54.993797040978464,41.93724497461734,32.50584810015087,50.0,50.0,50.0,50.0,50.0,50.0,50.0,50.0,50.0,50.0,0.0,-0.0,-0.0,0.0,0.0,0.0,0.0,0.0,0.0,0.0,0.0,0.0,0.0
3.27,54.993797040978464,41.93724497461734,32.50584810015087,50.0,50.0,50.0,50.0,50.0,50.0,50.0,50.0,50.0,50.0,0.0,-0.0,-0.0,0.0,0.0,0.0,0.0,0.0,0.0,0.0,0.0,0.0,0.0
3.28,54.993797040978464,41.93724497461734,32.50584810015087,50.0,50.0,50.0,50.0,50.0,50.0,50.0,50.0,50.0,50.0,0.0,-0.0,-0.0,0.0,0.0,0.0,0.0,0.0,0.0,0.0,0.0,0.0,0.0
3.29,54.993797040978464,41.93724497461734,32.50584810015087,50.0,50.0,50.0,50.0,50.0,50.0,50.0,50.0,50.0,50.0,0.0,-0.0,-0.0,0.0,0.0,0.0,0.0,0.0,0.0,0.0,0.0,0.0,0.0
3.3,54.993797040978464,41.93724497461734,32.50584810015087,50.0,50.0,50.0,50.0,50.0,50.0,50.0,50.0,50.0,50.0,0.0,-0.0,-0.0,0.0,0.0,0.0,0.0,0.0,0.0,0.0,0.0,0.0,0.0
3.31,54.993797040978464,41.93724497461734,32.50584810015087,50.0,50.0,50.0,50.0,50.0,50.0,50.0,50.0,50.0,50.0,0.0,-0.0,-0.0,0.0,0.0,0.0,0.0,0.0,0.0,0.0,0.0,0.0,0.0
3.32,54.993797040978464,41.93724497461734,32.50584810015087,50.0,50.0,50.0,50.0,50.0,50.0,50.0,50.0,50.0,50.0,0.0,-0.0,-0.0,0.0,0.0,0.0,0.0,0.0,0.0,0.0,0.0,0.0,0.0
3.33,54.993797040978464,41.93724497461734,32.50584810015087,50.0,50.0,50.0,50.0,50.0,50.0,50.0,50.0,50.0,50.0,0.0,-0.0,-0.0,0.0,0.0,0.0,0.0,0.0,0.0,0.0,0.0,0.0,0.0
3.34,54.993797040978464,41.93724497461734,32.50584810015087,50.0,50.0,50.0,50.0,50.0,50.0,50.0,50.0,50.0,50.0,0.0,-0.0,-0.0,0.0,0.0,0.0,0.0,0.0,0.0,0.0,0.0,0.0,0.0
3.35,54.993797040978464,41.93724497461734,32.50584810015087,50.0,50.0,50.0,50.0,50.0,50.0,50.0,50.0,50.0,50.0,0.0,-0.0,-0.0,0.0,0.0,0.0,0.0,0.0,0.0,0.0,0.0,0.0,0.0
3.36,54.993797040978464,41.93724497461734,32.50584810015087,50.0,50.0,50.0,50.0,50.0,50.0,50.0,50.0,50.0,50.0,0.0,-0.0,-0.0,0.0,0.0,0.0,0.0,0.0,0.0,0.0,0.0,0.0,0.0
3.37,54.993797040978464,41.93724497461734,32.50584810015087,50.0,50.0,50.0,50.0,50.0,50.0,50.0,50.0,50.0,50.0,0.0,-0.0,-0.0,0.0,0.0,0.0,0.0,0.0,0.0,0.0,0.0,0.0,0.0
3.38,54.993797040978464,41.93724497461734,32.50584810015087,50.0,50.0,50.0,50.0,50.0,50.0,50.0,50.0,50.0,50.0,0.0,-0.0,-0.0,0.0,0.0,0.0,0.0,0.0,0.0,0.0,0.0,0.0,0.0
3.39,54.993797040978464,41.93724497461734,32.50584810015087,50.0,50.0,50.0,50.0,50.0,50.0,50.0,50.0,50.0,50.0,0.0,-0.0,-0.0,0.0,0.0,0.0,0.0,0.0,0.0,0.0,0.0,0.0,0.0
3.4,54.993797040978464,41.93724497461734,32.50584810015087,50.0,50.0,50.0,50.0,50.0,50.0,50.0,50.0,50.0,50.0,0.0,-0.0,-0.0,0.0,0.0,0.0,0.0,0.0,0.0,0.0,0.0,0.0,0.0
3.41,54.993797040978464,41.93724497461734,32.50584810015087,50.0,50.0,50.0,50.0,50.0,50.0,50.0,50.0,50.0,50.0,0.0,-0.0,-0.0,0.0,0.0,0.0,0.0,0.0,0.0,0.0,0.0,0.0,0.0
3.42,54.993797040978464,41.93724497461734,32.50584810015087,50.0,50.0,50.0,50.0,50.0,50.0,50.0,50.0,50.0,50.0,0.0,-0.0,-0.0,0.0,0.0,0.0,0.0,0.0,0.0,0.0,0.0,0.0,0.0
3.43,54.993797040978464,41.93724497461734,32.50584810015087,50.0,50.0,50.0,50.0,50.0,50.0,50.0,50.0,50.0,50.0,0.0,-0.0,-0.0,0.0,0.0,0.0,0.0,0.0,0.0,0.0,0.0,0.0,0.0
3.44,54.993797040978464,41.93724497461734,32.50584810015087,50.0,50.0,50.0,50.0,50.0,50.0,50.0,50.0,50.0,50.0,0.0,-0.0,-0.0,0.0,0.0,0.0,0.0,0.0,0.0,0.0,0.0,0.0,0.0
3.45,54.993797040978464,41.93724497461734,32.50584810015087,50.0,50.0,50.0,50.0,50.0,50.0,50.0,50.0,50.0,50.0,0.0,-0.0,-0.0,0.0,0.0,0.0,0.0,0.0,0.0,0.0,0.0,0.0,0.0
3.46,54.993797040978464,41.93724497461734,32.50584810015087,50.0,50.0,50.0,50.0,50.0,50.0,50.0,50.0,50.0,50.0,0.0,-0.0,-0.0,0.0,0.0,0.0,0.0,0.0,0.0,0.0,0.0,0.0,0.0
3.47,54.993797040978464,41.93724497461734,32.50584810015087,50.0,50.0,50.0,50.0,50.0,50.0,50.0,50.0,50.0,50.0,0.0,-0.0,-0.0,0.0,0.0,0.0,0.0,0.0,0.0,0.0,0.0,0.0,0.0
3.48,54.993797040978464,41.93724497461734,32.50584810015087,50.0,50.0,50.0,50.0,50.0,50.0,50.0,50.0,50.0,50.0,0.0,-0.0,-0.0,0.0,0.0,0.0,0.0,0.0,0.0,0.0,0.0,0.0,0.0
3.49,54.993797040978464,41.93724497461734,32.50584810015087,50.0,50.0,50.0,50.0,50.0,50.0,50.0,50.0,50.0,50.0,0.0,-0.0,-0.0,0.0,0.0,0.0,0.0,0.0,0.0,0.0,0.0,0.0,0.0
3.5,54.993797040978464,41.93724497461734,32.50584810015087,50.0,50.0,50.0,50.0,50.0,50.0,50.0,50.0,50.0,50.0,0.0,-0.0,-0.0,0.0,0.0,0.0,0.0,0.0,0.0,0.0,0.0,0.0,0.0
3.51,54.993797040978464,41.93724497461734,32.50584810015087,50.0,50.0,50.0,50.0,50.0,50.0,50.0,50.0,50.0,50.0,0.0,-0.0,-0.0,0.0,0.0,0.0,0.0,0.0,0.0,0.0,0.0,0.0,0.0
3.52,54.993797040978464,41.93724497461734,32.50584810015087,50.0,50.0,50.0,50.0,50.0,50.0,50.0,50.0,50.0,50.0,0.0,-0.0,-0.0,0.0,0.0,0.0,0.0,0.0,0.0,0.0,0.0,0.0,0.0
3.53,54.993797040978464,41.93724497461734,32.50584810015087,50.0,50.0,50.0,50.0,50.0,50.0,50.0,50.0,50.0,50.0,0.0,-0.0,-0.0,0.0,0.0,0.0,0.0,0.0,0.0,0.0,0.0,0.0,0.0
3.54,54.993797040978464,41.93724497461734,32.50584810015087,50.0,50.0,50.0,50.0,50.0,50.0,50.0,50.0,50.0,50.0,0.0,-0.0,-0.0,0.0,0.0,0.0,0.0,0.0,0.0,0.0,0.0,0.0,0.0
3.55,54.993797040978464,41.93724497461734,32.50584810015087,50.0,50.0,50.0,50.0,50.0,50.0,50.0,50.0,50.0,50.0,0.0,-0.0,-0.0,0.0,0.0,0.0,0.0,0.0,0.0,0.0,0.0,0.0,0.0
3.56,54.993797040978464,41.93724497461734,32.50584810015087,50.0,50.0,50.0,50.0,50.0,50.0,50.0,50.0,50.0,50.0,0.0,-0.0,-0.0,0.0,0.0,0.0,0.0,0.0,0.0,0.0,0.0,0.0,0.0
3.57,54.993797040978464,41.93724497461734,32.50584810015087,50.0,50.0,50.0,50.0,50.0,50.0,50.0,50.0,50.0,50.0,0.0,-0.0,-0.0,0.0,0.0,0.0,0.0,0.0,0.0,0.0,0.0,0.0,0.0
3.58,54.993797040978464,41.93724497461734,32.50584810015087,50.0,50.0,50.0,50.0,50.0,50.0,50.0,50.0,50.0,50.0,0.0,-0.0,-0.0,0.0,0.0,0.0,0.0,0.0,0.0,0.0,0.0,0.0,0.0
3.59,54.993797040978464,41.93724497461734,32.50584810015087,50.0,50.0,50.0,50.0,50.0,50.0,50.0,50.0,50.0,50.0,0.0,-0.0,-0.0,0.0,0.0,0.0,0.0,0.0,0.0,0.0,0.0,0.0,0.0
3.6,54.993797040978464,41.93724497461734,32.50584810015087,50.0,50.0,50.0,50.0,50.0,50.0,50.0,50.0,50.0,50.0,0.0,-0.0,-0.0,0.0,0.0,0.0,0.0,0.0,0.0,0.0,0.0,0.0,0.0
3.61,54.993797040978464,41.93724497461734,32.50584810015087,50.0,50.0,50.0,50.0,50.0,50.0,50.0,50.0,50.0,50.0,0.0,-0.0,-0.0,0.0,0.0,0.0,0.0,0.0,0.0,0.0,0.0,0.0,0.0
3.62,54.993797040978464,41.93724497461734,32.50584810015087,50.0,50.0,50.0,50.0,50.0,50.0,50.0,50.0,50.0,50.0,0.0,-0.0,-0.0,0.0,0.0,0.0,0.0,0.0,0.0,0.0,0.0,0.0,0.0
3.63,54.993797040978464,41.93724497461734,32.50584810015087,50.0,50.0,50.0,50.0,50.0,50.0,50.0,50.0,50.0,50.0,0.0,-0.0,-0.0,0.0,0.0,0.0,0.0,0.0,0.0,0.0,0.0,0.0,0.0
3.64,54.993797040978464,41.93724497461734,32.50584810015087,50.0,50.0,50.0,50.0,50.0,50.0,50.0,50.0,50.0,50.0,0.0,-0.0,-0.0,0.0,0.0,0.0,0.0,0.0,0.0,0.0,0.0,0.0,0.0
3.65,54.993797040978464,41.93724497461734,32.50584810015087,50.0,50.0,50.0,50.0,50.0,50.0,50.0,50.0,50.0,50.0,0.0,-0.0,-0.0,0.0,0.0,0.0,0.0,0.0,0.0,0.0,0.0,0.0,0.0
3.66,54.993797040978464,41.93724497461734,32.50584810015087,50.0,50.0,50.0,50.0,50.0,50.0,50.0,50.0,50.0,50.0,0.0,-0.0,-0.0,0.0,0.0,0.0,0.0,0.0,0.0,0.0,0.0,0.0,0.0
3.67,54.993797040978464,41.93724497461734,32.50584810015087,50.0,50.0,50.0,50.0,50.0,50.0,50.0,50.0,50.0,50.0,0.0,-0.0,-0.0,0.0,0.0,0.0,0.0,0.0,0.0,0.0,0.0,0.0,0.0
3.68,54.993797040978464,41.93724497461734,32.50584810015087,50.0,50.0,50.0,50.0,50.0,50.0,50.0,50.0,50.0,50.0,0.0,-0.0,-0.0,0.0,0.0,0.0,0.0,0.0,0.0,0.0,0.0,0.0,0.0
3.69,54.993797040978464,41.93724497461734,32.50584810015087,50.0,50.0,50.0,50.0,50.0,50.0,50.0,50.0,50.0,50.0,0.0,-0.0,-0.0,0.0,0.0,0.0,0.0,0.0,0.0,0.0,0.0,0.0,0.0
3.7,54.993797040978464,41.93724497461734,32.50584810015087,50.0,50.0,50.0,50.0,50.0,50.0,50.0,50.0,50.0,50.0,0.0,-0.0,-0.0,0.0,0.0,0.0,0.0,0.0,0.0,0.0,0.0,0.0,0.0
3.71,54.993797040978464,41.93724497461734,32.50584810015087,50.0,50.0,50.0,50.0,50.0,50.0,50.0,50.0,50.0,50.0,0.0,-0.0,-0.0,0.0,0.0,0.0,0.0,0.0,0.0,0.0,0.0,0.0,0.0
3.72,54.993797040978464,41.93724497461734,32.50584810015087,50.0,50.0,50.0,50.0,50.0,50.0,50.0,50.0,50.0,50.0,0.0,-0.0,-0.0,0.0,0.0,0.0,0.0,0.0,0.0,0.0,0.0,0.0,0.0
3.73,54.993797040978464,41.93724497461734,32.50584810015087,50.0,50.0,50.0,50.0,50.0,50.0,50.0,50.0,50.0,50.0,0.0,-0.0,-0.0,0.0,0.0,0.0,0.0,0.0,0.0,0.0,0.0,0.0,0.0
3.74,54.993797040978464,41.93724497461734,32.50584810015087,50.0,50.0,50.0,50.0,50.0,50.0,50.0,50.0,50.0,50.0,0.0,-0.0,-0.0,0.0,0.0,0.0,0.0,0.0,0.0,0.0,0.0,0.0,0.0
3.75,54.993797040978464,41.93724497461734,32.50584810015087,50.0,50.0,50.0,50.0,50.0,50.0,50.0,50.0,50.0,50.0,0.0,-0.0,-0.0,0.0,0.0,0.0,0.0,0.0,0.0,0.0,0.0,0.0,0.0
3.76,54.993797040978464,41.93724497461734,32.50584810015087,50.0,50.0,50.0,50.0,50.0,50.0,50.0,50.0,50.0,50.0,0.0,-0.0,-0.0,0.0,0.0,0.0,0.0,0.0,0.0,0.0,0.0,0.0,0.0
3.77,50.754113165193885,5.1540118106545805,53.10291108697494,50.0,50.0,50.0,50.0,50.0,50.0,50.0,50.0,50.0,50.0,-0.0,-0.0,0.0,0.0,0.0,0.0,0.0,0.0,0.0,0.0,0.0,0.0,0.0
3.78,50.754113165193885,5.1540118106545805,53.10291108697494,50.0,50.0,50.0,50.0,50.0,50.0,50.0,50.0,50.0,50.0,-0.0,-0.0,0.0,0.0,0.0,0.0,0.0,0.0,0.0,0.0,0.0,0.0,0.0
3.79,50.754113165193885,5.1540118106545805,53.10291108697494,50.0,50.0,50.0,50.0,50.0,50.0,50.0,50.0,50.0,50.0,-0.0,-0.0,0.0,0.0,0.0,0.0,0.0,0.0,0.0,0.0,0.0,0.0,0.0
3.8,50.754113165193885,5.1540118106545805,53.10291108697494,50.0,50.0,50.0,50.0,50.0,50.0,50.0,50.0,50.0,50.0,-0.0,-0.0,0.0,0.0,0.0,0.0,0.0,0.0,0.0,0.0,0.0,0.0,0.0
3.81,50.754113165193885,5.1540118106545805,53.10291108697494,50.0,50.0,50.0,50.0,50.0,50.0,50.0,50.0,50.0,50.0,-0.0,-0.0,0.0,0.0,0.0,0.0,0.0,0.0,0.0,0.0,0.0,0.0,0.0
3.82,50.754113165193885,5.1540118106545805,53.10291108697494,50.0,50.0,50.0,50.0,50.0,50.0,50.0,50.0,50.0,50.0,-0.0,-0.0,0.0,0.0,0.0,0.0,0.0,0.0,0.0,0.0,0.0,0.0,0.0
3.83,50.754113165193885,5.1540118106545805,53.10291108697494,50.0,50.0,50.0,50.0,50.0,50.0,50.0,50.0,50.0,50.0,-0.0,-0.0,0.0,0.0,0.0,0.0,0.0,0.0,0.0,0.0,0.0,0.0,0.0
3.84,50.754113165193885,5.1540118106545805,53.10291108697494,50.0,50.0,50.0,50.0,50.0,50.0,50.0,50.0,50.0,50.0,-0.0,-0.0,0.0,0.0,0.0,0.0,0.0,0.0,0.0,0.0,0.0,0.0,0.0
3.85,50.754113165193885,5.1540118106545805,53.10291108697494,50.0,50.0,50.0,50.0,50.0,50.0,50.0,50.0,50.0,50.0,-0.0,-0.0,0.0,0.0,0.0,0.0,0.0,0.0,0.0,0.0,0.0,0.0,0.0
3.86,50.754113165193885,5.1540118106545805,53.10291108697494,50.0,50.0,50.0,50.0,50.0,50.0,50.0,50.0,50.0,50.0,-0.0,-0.0,0.0,0.0,0.0,0.0,0.0,0.0,0.0,0.0,0.0,0.0,0.0
3.87,50.754113165193885,5.1540118106545805,53.10291108697494,50.0,50.0,50.0,50.0,50.0,50.0,50.0,50.0,50.0,50.0,-0.0,-0.0,0.0,0.0,0.0,0.0,0.0,0.0,0.0,0.0,0.0,0.0,0.0
3.88,50.754113165193885,5.1540118106545805,53.10291108697494,50.0,50.0,50.0,50.0,50.0,50.0,50.0,50.0,50.0,50.0,-0.0,-0.0,0.0,0.0,0.0,0.0,0.0,0.0,0.0,0.0,0.0,0.0,0.0
3.89,50.754113165193885,5.1540118106545805,53.10291108697494,50.0,50.0,50.0,50.0,50.0,50.0,50.0,50.0,50.0,50.0,-0.0,-0.0,0.0,0.0,0.0,0.0,0.0,0.0,0.0,0.0,0.0,0.0,0.0
3.9,50.754113165193885,5.1540118106545805,53.10291108697494,50.0,50.0,50.0,50.0,50.0,50.0,50.0,50.0,50.0,50.0,-0.0,-0.0,0.0,0.0,0.0,0.0,0.0,0.0,0.0,0.0,0.0,0.0,0.0
3.91,50.754113165193885,5.1540118106545805,53.10291108697494,50.0,50.0,50.0,50.0,50.0,50.0,50.0,50.0,50.0,50.0,-0.0,-0.0,0.0,0.0,0.0,0.0,0.0,0.0,0.0,0.0,0.0,0.0,0.0
3.92,50.754113165193885,5.1540118106545805,53.10291108697494,50.0,50.0,50.0,50.0,50.0,50.0,50.0,50.0,50.0,50.0,-0.0,-0.0,0.0,0.0,0.0,0.0,0.0,0.0,0.0,0.0,0.0,0.0,0.0
3.93,50.754113165193885,5.1540118106545805,53.10291108697494,50.0,50.0,50.0,50.0,50.0,50.0,50.0,50.0,50.0,50.0,-0.0,-0.0,0.0,0.0,0.0,0.0,0.0,0.0,0.0,0.0,0.0,0.0,0.0
3.94,50.754113165193885,5.1540118106545805,53.10291108697494,50.0,50.0,50.0,50.0,50.0,50.0,50.0,50.0,50.0,50.0,-0.0,-0.0,0.0,0.0,0.0,0.0,0.0,0.0,0.0,0.0,0.0,0.0,0.0
3.95,50.754113165193885,5.1540118106545805,53.10291108697494,50.0,50.0,50.0,50.0,50.0,50.0,50.0,50.0,50.0,50.0,-0.0,-0.0,0.0,0.0,0.0,0.0,0.0,0.0,0.0,0.0,0.0,0.0,0.0
3.96,50.754113165193885,5.1540118106545805,53.10291108697494,50.0,50.0,50.0,50.0,50.0,50.0,50.0,50.0,50.0,50.0,-0.0,-0.0,0.0,0.0,0.0,0.0,0.0,0.0,0.0,0.0,0.0,0.0,0.0
3.97,50.754113165193885,5.1540118106545805,53.10291108697494,50.0,50.0,50.0,50.0,50.0,50.0,50.0,50.0,50.0,50.0,-0.0,-0.0,0.0,0.0,0.0,0.0,0.0,0.0,0.0,0.0,0.0,0.0,0.0
3.98,50.754113165193885,5.1540118106545805,53.10291108697494,50.0,50.0,50.0,50.0,50.0,50.0,50.0,50.0,50.0,50.0,-0.0,-0.0,0.0,0.0,0.0,0.0,0.0,0.0,0.0,0.0,0.0,0.0,0.0
3.99,50.754113165193885,5.1540118106545805,53.10291108697494,50.0,50.0,50.0,50.0,50.0,50.0,50.0,50.0,50.0,50.0,-0.0,-0.0,0.0,0.0,0.0,0.0,0.0,0.0,0.0,0.0,0.0,0.0,0.0
4.0,50.754113165193885,5.1540118106545805,53.10291108697494,50.0,50.0,50.0,50.0,50.0,50.0,50.0,50.0,50.0,50.0,-0.0,-0.0,0.0,0.0,0.0,0.0,0.0,0.0,0.0,0.0,0.0,0.0,0.0
4.01,50.754113165193885,5.1540118106545805,53.10291108697494,50.0,50.0,50.0,50.0,50.0,50.0,50.0,50.0,50.0,50.0,-0.0,-0.0,0.0,0.0,0.0,0.0,0.0,0.0,0.0,0.0,0.0,0.0,0.0
4.02,50.754113165193885,5.1540118106545805,53.10291108697494,50.0,50.0,50.0,50.0,50.0,50.0,50.0,50.0,50.0,50.0,-0.0,-0.0,0.0,0.0,0.0,0.0,0.0,0.0,0.0,0.0,0.0,0.0,0.0
4.03,50.754113165193885,5.1540118106545805,53.10291108697494,50.0,50.0,50.0,50.0,50.0,50.0,50.0,50.0,50.0,50.0,-0.0,-0.0,0.0,0.0,0.0,0.0,0.0,0.0,0.0,0.0,0.0,0.0,0.0
4.04,50.754113165193885,5.1540118106545805,53.10291108697494,50.0,50.0,50.0,50.0,50.0,50.0,50.0,50.0,50.0,50.0,-0.0,-0.0,0.0,0.0,0.0,0.0,0.0,0.0,0.0,0.0,0.0,0.0,0.0
4.05,50.754113165193885,5.1540118106545805,53.10291108697494,50.0,50.0,50.0,50.0,50.0,50.0,50.0,50.0,50.0,50.0,-0.0,-0.0,0.0,0.0,0.0,0.0,0.0,0.0,0.0,0.0,0.0,0.0,0.0
4.06,50.754113165193885,5.1540118106545805,53.10291108697494,50.0,50.0,50.0,50.0,50.0,50.0,50.0,50.0,50.0,50.0,-0.0,-0.0,0.0,0.0,0.0,0.0,0.0,0.0,0.0,0.0,0.0,0.0,0.0
4.07,50.754113165193885,5.1540118106545805,53.10291108697494,50.0,50.0,50.0,50.0,50.0,50.0,50.0,50.0,50.0,50.0,-0.0,-0.0,0.0,0.0,0.0,0.0,0.0,0.0,0.0,0.0,0.0,0.0,0.0
4.08,50.754113165193885,5.1540118106545805,53.10291108697494,50.0,50.0,50.0,50.0,50.0,50.0,50.0,50.0,50.0,50.0,-0.0,-0.0,0.0,0.0,0.0,0.0,0.0,0.0,0.0,0.0,0.0,0.0,0.0
4.09,50.754113165193885,5.1540118106545805,53.10291108697494,50.0,50.0,50.0,50.0,50.0,50.0,50.0,50.0,50.0,50.0,-0.0,-0.0,0.0,0.0,0.0,0.0,0.0,0.0,0.0,0.0,0.0,0.0,0.0
4.1,50.754113165193885,5.1540118106545805,53.10291108697494,50.0,50.0,50.0,50.0,50.0,50.0,50.0,50.0,50.0,50.0,-0.0,-0.0,0.0,0.0,0.0,0.0,0.0,0.0,0.0,0.0,0.0,0.0,0.0
4.11,50.754113165193885,5.1540118106545805,53.10291108697494,50.0,50.0,50.0,50.0,50.0,50.0,50.0,50.0,50.0,50.0,-0.0,-0.0,0.0,0.0,0.0,0.0,0.0,0.0,0.0,0.0,0.0,0.0,0.0
4.12,50.754113165193885,5.1540118106545805,53.10291108697494,50.0,50.0,50.0,50.0,50.0,50.0,50.0,50.0,50.0,50.0,-0.0,-0.0,0.0,0.0,0.0,0.0,0.0,0.0,0.0,0.0,0.0,0.0,0.0
4.13,50.754113165193885,5.1540118106545805,53.10291108697494,50.0,50.0,50.0,50.0,50.0,50.0,50.0,50.0,50.0,50.0,-0.0,-0.0,0.0,0.0,0.0,0.0,0.0,0.0,0.0,0.0,0.0,0.0,0.0
4.14,50.754113165193885,5.1540118106545805,53.10291108697494,50.0,50.0,50.0,50.0,50.0,50.0,50.0,50.0,50.0,50.0,-0.0,-0.0,0.0,0.0,0.0,0.0,0.0,0.0,0.0,0.0,0.0,0.0,0.0
4.15,50.754113165193885,5.1540118106545805,53.10291108697494,50.0,50.0,50.0,50.0,50.0,50.0,50.0,50.0,50.0,50.0,-0.0,-0.0,0.0,0.0,0.0,0.0,0.0,0.0,0.0,0.0,0.0,0.0,0.0
4.16,50.754113165193885,5.1540118106545805,53.10291108697494,50.0,50.0,50.0,50.0,50.0,50.0,50.0,50.0,50.0,50.0,-0.0,-0.0,0.0,0.0,0.0,0.0,0.0,0.0,0.0,0.0,0.0,0.0,0.0
4.17,50.754113165193885,5.1540118106545805,53.10291108697494,50.0,50.0,50.0,50.0,50.0,50.0,50.0,50.0,50.0,50.0,-0.0,-0.0,0.0,0.0,0.0,0.0,0.0,0.0,0.0,0.0,0.0,0.0,0.0
4.18,50.754113165193885,5.1540118106545805,53.10291108697494,50.0,50.0,50.0,50.0,50.0,50.0,50.0,50.0,50.0,50.0,-0.0,-0.0,0.0,0.0,0.0,0.0,0.0,0.0,0.0,0.0,0.0,0.0,0.0
4.19,50.754113165193885,5.1540118106545805,53.10291108697494,50.0,50.0,50.0,50.0,50.0,50.0,50.0,50.0,50.0,50.0,-0.0,-0.0,0.0,0.0,0.0,0.0,0.0,0.0,0.0,0.0,0.0,0.0,0.0
4.2,50.754113165193885,5.1540118106545805,53.10291108697494,50.0,50.0,50.0,50.0,50.0,50.0,50.0,50.0,50.0,50.0,-0.0,-0.0,0.0,0.0,0.0,0.0,0.0,0.0,0.0,0.0,0.0,0.0,0.0
4.21,50.754113165193885,5.1540118106545805,53.10291108697494,50.0,50.0,50.0,50.0,50.0,50.0,50.0,50.0,50.0,50.0,-0.0,-0.0,0.0,0.0,0.0,0.0,0.0,0.0,0.0,0.0,0.0,0.0,0.0
4.22,50.754113165193885,5.1540118106545805,53.10291108697494,50.0,50.0,50.0,50.0,50.0,50.0,50.0,50.0,50.0,50.0,-0.0,-0.0,0.0,0.0,0.0,0.0,0.0,0.0,0.0,0.0,0.0,0.0,0.0
4.23,50.754113165193885,5.1540118106545805,53.10291108697494,50.0,50.0,50.0,50.0,50.0,50.0,50.0,50.0,50.0,50.0,-0.0,-0.0,0.0,0.0,0.0,0.0,0.0,0.0,0.0,0.0,0.0,0.0,0.0
4.24,50.754113165193885,5.1540118106545805,53.10291108697494,50.0,50.0,50.0,50.0,50.0,50.0,50.0,50.0,50.0,50.0,-0.0,-0.0,0.0,0.0,0.0,0.0,0.0,0.0,0.0,0.0,0.0,0.0,0.0
4.25,50.754113165193885,5.1540118106545805,53.10291108697494,50.0,50.0,50.0,50.0,50.0,50.0,50.0,50.0,50.0,50.0,-0.0,-0.0,0.0,0.0,0.0,0.0,0.0,0.0,0.0,0.0,0.0,0.0,0.0
4.26,50.754113165193885,5.1540118106545805,53.10291108697494,50.0,50.0,50.0,50.0,50.0,50.0,50.0,50.0,50.0,50.0,-0.0,-0.0,0.0,0.0,0.0,0.0,0.0,0.0,0.0,0.0,0.0,0.0,0.0
4.27,50.754113165193885,5.1540118106545805,53.10291108697494,50.0,50.0,50.0,50.0,50.0,50.0,50.0,50.0,50.0,50.0,-0.0,-0.0,0.0,0.0,0.0,0.0,0.0,0.0,0.0,0.0,0.0,0.0,0.0
4.28,50.754113165193885,5.1540118106545805,53.10291108697494,50.0,50.0,50.0,50.0,50.0,50.0,50.0,50.0,50.0,50.0,-0.0,-0.0,0.0,0.0,0.0,0.0,0.0,0.0,0.0,0.0,0.0,0.0,0.0
4.29,50.754113165193885,5.1540118106545805,53.10291108697494,50.0,50.0,50.0,50.0,50.0,50.0,50.0,50.0,50.0,50.0,-0.0,-0.0,0.0,0.0,0.0,0.0,0.0,0.0,0.0,0.0,0.0,0.0,0.0
4.3,50.754113165193885,5.1540118106545805,53.10291108697494,50.0,50.0,50.0,50.0,50.0,50.0,50.0,50.0,50.0,50.0,-0.0,-0.0,0.0,0.0,0.0,0.0,0.0,0.0,0.0,0.0,0.0,0.0,0.0
4.31,50.754113165193885,5.1540118106545805,53.10291108697494,50.0,50.0,50.0,50.0,50.0,50.0,50.0,50.0,50.0,50.0,-0.0,-0.0,0.0,0.0,0.0,0.0,0.0,0.0,0.0,0.0,0.0,0.0,0.0
4.32,50.754113165193885,5.1540118106545805,53.10291108697494,50.0,50.0,50.0,50.0,50.0,50.0,50.0,50.0,50.0,50.0,-0.0,-0.0,0.0,0.0,0.0,0.0,0.0,0.0,0.0,0.0,0.0,0.0,0.0
4.33,50.754113165193885,5.1540118106545805,53.10291108697494,50.0,50.0,50.0,50.0,50.0,50.0,50.0,50.0,50.0,50.0,-0.0,-0.0,0.0,0.0,0.0,0.0,0.0,0.0,0.0,0.0,0.0,0.0,0.0
4.34,50.754113165193885,5.1540118106545805,53.10291108697494,50.0,50.0,50.0,50.0,50.0,50.0,50.0,50.0,50.0,50.0,-0.0,-0.0,0.0,0.0,0.0,0.0,0.0,0.0,0.0,0.0,0.0,0.0,0.0
4.35,50.754113165193885,5.1540118106545805,53.10291108697494,50.0,50.0,50.0,50.0,50.0,50.0,50.0,50.0,50.0,50.0,-0.0,-0.0,0.0,0.0,0.0,0.0,0.0,0.0,0.0,0.0,0.0,0.0,0.0
4.36,50.754113165193885,5.1540118106545805,53.10291108697494,50.0,50.0,50.0,50.0,50.0,50.0,50.0,50.0,50.0,50.0,-0.0,-0.0,0.0,0.0,0.0,0.0,0.0,0.0,0.0,0.0,0.0,0.0,0.0
4.37,50.754113165193885,5.1540118106545805,53.10291108697494,50.0,50.0,50.0,50.0,50.0,50.0,50.0,50.0,50.0,50.0,-0.0,-0.0,0.0,0.0,0.0,0.0,0.0,0.0,0.0,0.0,0.0,0.0,0.0
4.38,50.754113165193885,5.1540118106545805,53.10291108697494,50.0,50.0,50.0,50.0,50.0,50.0,50.0,50.0,50.0,50.0,-0.0,-0.0,0.0,0.0,0.0,0.0,0.0,0.0,0.0,0.0,0.0,0.0,0.0
4.39,50.754113165193885,5.1540118106545805,53.10291108697494,50.0,50.0,50.0,50.0,50.0,50.0,50.0,50.0,50.0,50.0,-0.0,-0.0,0.0,0.0,0.0,0.0,0.0,0.0,0.0,0.0,0.0,0.0,0.0
4.4,50.754113165193885,5.1540118106545805,53.10291108697494,50.0,50.0,50.0,50.0,50.0,50.0,50.0,50.0,50.0,50.0,-0.0,-0.0,0.0,0.0,0.0,0.0,0.0,0.0,0.0,0.0,0.0,0.0,0.0
4.41,50.754113165193885,5.1540118106545805,53.10291108697494,50.0,50.0,50.0,50.0,50.0,50.0,50.0,50.0,50.0,50.0,-0.0,-0.0,0.0,0.0,0.0,0.0,0.0,0.0,0.0,0.0,0.0,0.0,0.0
4.42,50.754113165193885,5.1540118106545805,53.10291108697494,50.0,50.0,50.0,50.0,50.0,50.0,50.0,50.0,50.0,50.0,-0.0,-0.0,0.0,0.0,0.0,0.0,0.0,0.0,0.0,0.0,0.0,0.0,0.0
4.43,50.754113165193885,5.1540118106545805,53.10291108697494,50.0,50.0,50.0,50.0,50.0,50.0,50.0,50.0,50.0,50.0,-0.0,-0.0,0.0,0.0,0.0,0.0,0.0,0.0,0.0,0.0,0.0,0.0,0.0
4.44,50.754113165193885,5.1540118106545805,53.10291108697494,50.0,50.0,50.0,50.0,50.0,50.0,50.0,50.0,50.0,50.0,-0.0,-0.0,0.0,0.0,0.0,0.0,0.0,0.0,0.0,0.0,0.0,0.0,0.0
4.45,50.754113165193885,5.1540118106545805,53.10291108697494,50.0,50.0,50.0,50.0,50.0,50.0,50.0,50.0,50.0,50.0,-0.0,-0.0,0.0,0.0,0.0,0.0,0.0,0.0,0.0,0.0,0.0,0.0,0.0
4.46,50.754113165193885,5.1540118106545805,53.10291108697494,50.0,50.0,50.0,50.0,50.0,50.0,50.0,50.0,50.0,50.0,-0.0,-0.0,0.0,0.0,0.0,0.0,0.0,0.0,0.0,0.0,0.0,0.0,0.0
4.47,50.754113165193885,5.1540118106545805,53.10291108697494,50.0,50.0,50.0,50.0,50.0,50.0,50.0,50.0,50.0,50.0,-0.0,-0.0,0.0,0.0,0.0,0.0,0.0,0.0,0.0,0.0,0.0,0.0,0.0
4.48,50.754113165193885,5.1540118106545805,53.10291108697494,50.0,50.0,50.0,50.0,50.0,50.0,50.0,50.0,50.0,50.0,-0.0,-0.0,0.0,0.0,0.0,0.0,0.0,0.0,0.0,0.0,0.0,0.0,0.0
4.49,50.754113165193885,5.1540118106545805,53.10291108697494,50.0,50.0,50.0,50.0,50.0,50.0,50.0,50.0,50.0,50.0,-0.0,-0.0,0.0,0.0,0.0,0.0,0.0,0.0,0.0,0.0,0.0,0.0,0.0
4.5,50.754113165193885,5.1540118106545805,53.10291108697494,50.0,50.0,50.0,50.0,50.0,50.0,50.0,50.0,50.0,50.0,-0.0,-0.0,0.0,0.0,0.0,0.0,0.0,0.0,0.0,0.0,0.0,0.0,0.0
4.51,50.754113165193885,5.1540118106545805,53.10291108697494,50.0,50.0,50.0,50.0,50.0,50.0,50.0,50.0,50.0,50.0,-0.0,-0.0,0.0,0.0,0.0,0.0,0.0,0.0,0.0,0.0,0.0,0.0,0.0
4.52,50.754113165193885,5.1540118106545805,53.10291108697494,50.0,50.0,50.0,50.0,50.0,50.0,50.0,50.0,50.0,50.0,-0.0,-0.0,0.0,0.0,0.0,0.0,0.0,0.0,0.0,0.0,0.0,0.0,0.0
4.53,50.754113165193885,5.1540118106545805,53.10291108697494,50.0,50.0,50.0,50.0,50.0,50.0,50.0,50.0,50.0,50.0,-0.0,-0.0,0.0,0.0,0.0,0.0,0.0,0.0,0.0,0.0,0.0,0.0,0.0
4.54,50.754113165193885,5.1540118106545805,53.10291108697494,50.0,50.0,50.0,50.0,50.0,50.0,50.0,50.0,50.0,50.0,-0.0,-0.0,0.0,0.0,0.0,0.0,0.0,0.0,0.0,0.0,0.0,0.0,0.0
4.55,50.754113165193885,5.1540118106545805,53.10291108697494,50.0,50.0,50.0,50.0,50.0,50.0,50.0,50.0,50.0,50.0,-0.0,-0.0,0.0,0.0,0.0,0.0,0.0,0.0,0.0,0.0,0.0,0.0,0.0
4.56,50.754113165193885,5.1540118106545805,53.10291108697494,50.0,50.0,50.0,50.0,50.0,50.0,50.0,50.0,50.0,50.0,-0.0,-0.0,0.0,0.0,0.0,0.0,0.0,0.0,0.0,0.0,0.0,0.0,0.0
4.57,50.754113165193885,5.1540118106545805,53.10291108697494,50.0,50.0,50.0,50.0,50.0,50.0,50.0,50.0,50.0,50.0,-0.0,-0.0,0.0,0.0,0.0,0.0,0.0,0.0,0.0,0.0,0.0,0.0,0.0
4.58,50.754113165193885,5.1540118106545805,53.10291108697494,50.0,50.0,50.0,50.0,50.0,50.0,50.0,50.0,50.0,50.0,-0.0,-0.0,0.0,0.0,0.0,0.0,0.0,0.0,0.0,0.0,0.0,0.0,0.0
4.59,50.754113165193885,5.1540118106545805,53.10291108697494,50.0,50.0,50.0,50.0,50.0,50.0,50.0,50.0,50.0,50.0,-0.0,-0.0,0.0,0.0,0.0,0.0,0.0,0.0,0.0,0.0,0.0,0.0,0.0
4.6,50.754113165193885,5.1540118106545805,53.10291108697494,50.0,50.0,50.0,50.0,50.0,50.0,50.0,50.0,50.0,50.0,-0.0,-0.0,0.0,0.0,0.0,0.0,0.0,0.0,0.0,0.0,0.0,0.0,0.0
4.61,50.754113165193885,5.1540118106545805,53.10291108697494,50.0,50.0,50.0,50.0,50.0,50.0,50.0,50.0,50.0,50.0,-0.0,-0.0,0.0,0.0,0.0,0.0,0.0,0.0,0.0,0.0,0.0,0.0,0.0
4.62,50.754113165193885,5.1540118106545805,53.10291108697494,50.0,50.0,50.0,50.0,50.0,50.0,50.0,50.0,50.0,50.0,-0.0,-0.0,0.0,0.0,0.0,0.0,0.0,0.0,0.0,0.0,0.0,0.0,0.0
4.63,50.754113165193885,5.1540118106545805,53.10291108697494,50.0,50.0,50.0,50.0,50.0,50.0,50.0,50.0,50.0,50.0,-0.0,-0.0,0.0,0.0,0.0,0.0,0.0,0.0,0.0,0.0,0.0,0.0,0.0
4.64,50.754113165193885,5.1540118106545805,53.10291108697494,50.0,50.0,50.0,50.0,50.0,50.0,50.0,50.0,50.0,50.0,-0.0,-0.0,0.0,0.0,0.0,0.0,0.0,0.0,0.0,0.0,0.0,0.0,0.0
4.65,50.754113165193885,5.1540118106545805,53.10291108697494,50.0,50.0,50.0,50.0,50.0,50.0,50.0,50.0,50.0,50.0,-0.0,-0.0,0.0,0.0,0.0,0.0,0.0,0.0,0.0,0.0,0.0,0.0,0.0
4.66,50.754113165193885,5.1540118106545805,53.10291108697494,50.0,50.0,50.0,50.0,50.0,50.0,50.0,50.0,50.0,50.0,-0.0,-0.0,0.0,0.0,0.0,0.0,0.0,0.0,0.0,0.0,0.0,0.0,0.0
4.67,50.754113165193885,5.1540118106545805,53.10291108697494,50.0,50.0,50.0,50.0,50.0,50.0,50.0,50.0,50.0,50.0,-0.0,-0.0,0.0,0.0,0.0,0.0,0.0,0.0,0.0,0.0,0.0,0.0,0.0
4.68,50.754113165193885,5.1540118106545805,53.10291108697494,50.0,50.0,50.0,50.0,50.0,50.0,50.0,50.0,50.0,50.0,-0.0,-0.0,0.0,0.0,0.0,0.0,0.0,0.0,0.0,0.0,0.0,0.0,0.0
4.69,50.754113165193885,5.1540118106545805,53.10291108697494,50.0,50.0,50.0,50.0,50.0,50.0,50.0,50.0,50.0,50.0,-0.0,-0.0,0.0,0.0,0.0,0.0,0.0,0.0,0.0,0.0,0.0,0.0,0.0
4.7,50.754113165193885,5.1540118106545805,53.10291108697494,50.0,50.0,50.0,50.0,50.0,50.0,50.0,50.0,50.0,50.0,-0.0,-0.0,0.0,0.0,0.0,0.0,0.0,0.0,0.0,0.0,0.0,0.0,0.0
4.71,50.754113165193885,5.1540118106545805,53.10291108697494,50.0,50.0,50.0,50.0,50.0,50.0,50.0,50.0,50.0,50.0,-0.0,-0.0,0.0,0.0,0.0,0.0,0.0,0.0,0.0,0.0,0.0,0.0,0.0
4.72,50.754113165193885,5.1540118106545805,53.10291108697494,50.0,50.0,50.0,50.0,50.0,50.0,50.0,50.0,50.0,50.0,-0.0,-0.0,0.0,0.0,0.0,0.0,0.0,0.0,0.0,0.0,0.0,0.0,0.0
4.73,50.754113165193885,5.1540118106545805,53.10291108697494,50.0,50.0,50.0,50.0,50.0,50.0,50.0,50.0,50.0,50.0,-0.0,-0.0,0.0,0.0,0.0,0.0,0.0,0.0,0.0,0.0,0.0,0.0,0.0
4.74,50.754113165193885,5.1540118106545805,53.10291108697494,50.0,50.0,50.0,50.0,50.0,50.0,50.0,50.0,50.0,50.0,-0.0,-0.0,0.0,0.0,0.0,0.0,0.0,0.0,0.0,0.0,0.0,0.0,0.0
4.75,50.754113165193885,5.1540118106545805,53.10291108697494,50.0,50.0,50.0,50.0,50.0,50.0,50.0,50.0,50.0,50.0,-0.0,-0.0,0.0,0.0,0.0,0.0,0.0,0.0,0.0,0.0,0.0,0.0,0.0
4.76,50.754113165193885,5.1540118106545805,53.10291108697494,50.0,50.0,50.0,50.0,50.0,50.0,50.0,50.0,50.0,50.0,-0.0,-0.0,0.0,0.0,0.0,0.0,0.0,0.0,0.0,0.0,0.0,0.0,0.0
4.77,50.754113165193885,5.1540118106545805,53.10291108697494,50.0,50.0,50.0,50.0,50.0,50.0,50.0,50.0,50.0,50.0,-0.0,-0.0,0.0,0.0,0.0,0.0,0.0,0.0,0.0,0.0,0.0,0.0,0.0
4.78,50.754113165193885,5.1540118106545805,53.10291108697494,50.0,50.0,50.0,50.0,50.0,50.0,50.0,50.0,50.0,50.0,-0.0,-0.0,0.0,0.0,0.0,0.0,0.0,0.0,0.0,0.0,0.0,0.0,0.0
4.79,50.754113165193885,5.1540118106545805,53.10291108697494,50.0,50.0,50.0,50.0,50.0,50.0,50.0,50.0,50.0,50.0,-0.0,-0.0,0.0,0.0,0.0,0.0,0.0,0.0,0.0,0.0,0.0,0.0,0.0
4.8,50.754113165193885,5.1540118106545805,53.10291108697494,50.0,50.0,50.0,50.0,50.0,50.0,50.0,50.0,50.0,50.0,-0.0,-0.0,0.0,0.0,0.0,0.0,0.0,0.0,0.0,0.0,0.0,0.0,0.0
4.81,50.754113165193885,5.1540118106545805,53.10291108697494,50.0,50.0,50.0,50.0,50.0,50.0,50.0,50.0,50.0,50.0,-0.0,-0.0,0.0,0.0,0.0,0.0,0.0,0.0,0.0,0.0,0.0,0.0,0.0
4.82,50.754113165193885,5.1540118106545805,53.10291108697494,50.0,50.0,50.0,50.0,50.0,50.0,50.0,50.0,50.0,50.0,-0.0,-0.0,0.0,0.0,0.0,0.0,0.0,0.0,0.0,0.0,0.0,0.0,0.0
4.83,50.754113165193885,5.1540118106545805,53.10291108697494,50.0,50.0,50.0,50.0,50.0,50.0,50.0,50.0,50.0,50.0,-0.0,-0.0,0.0,0.0,0.0,0.0,0.0,0.0,0.0,0.0,0.0,0.0,0.0
4.84,50.754113165193885,5.1540118106545805,53.10291108697494,50.0,50.0,50.0,50.0,50.0,50.0,50.0,50.0,50.0,50.0,-0.0,-0.0,0.0,0.0,0.0,0.0,0.0,0.0,0.0,0.0,0.0,0.0,0.0
4.85,50.754113165193885,5.1540118106545805,53.10291108697494,50.0,50.0,50.0,50.0,50.0,50.0,50.0,50.0,50.0,50.0,-0.0,-0.0,0.0,0.0,0.0,0.0,0.0,0.0,0.0,0.0,0.0,0.0,0.0
4.86,50.754113165193885,5.1540118106545805,53.10291108697494,50.0,50.0,50.0,50.0,50.0,50.0,50.0,50.0,50.0,50.0,-0.0,-0.0,0.0,0.0,0.0,0.0,0.0,0.0,0.0,0.0,0.0,0.0,0.0
4.87,50.754113165193885,5.1540118106545805,53.10291108697494,50.0,50.0,50.0,50.0,50.0,50.0,50.0,50.0,50.0,50.0,-0.0,-0.0,0.0,0.0,0.0,0.0,0.0,0.0,0.0,0.0,0.0,0.0,0.0
4.88,50.754113165193885,5.1540118106545805,53.10291108697494,50.0,50.0,50.0,50.0,50.0,50.0,50.0,50.0,50.0,50.0,-0.0,-0.0,0.0,0.0,0.0,0.0,0.0,0.0,0.0,0.0,0.0,0.0,0.0
4.89,50.754113165193885,5.1540118106545805,53.10291108697494,50.0,50.0,50.0,50.0,50.0,50.0,50.0,50.0,50.0,50.0,-0.0,-0.0,0.0,0.0,0.0,0.0,0.0,0.0,0.0,0.0,0.0,0.0,0.0
4.9,50.754113165193885,5.1540118106545805,53.10291108697494,50.0,50.0,50.0,50.0,50.0,50.0,50.0,50.0,50.0,50.0,-0.0,-0.0,0.0,0.0,0.0,0.0,0.0,0.0,0.0,0.0,0.0,0.0,0.0
4.91,50.754113165193885,5.1540118106545805,53.10291108697494,50.0,50.0,50.0,50.0,50.0,50.0,50.0,50.0,50.0,50.0,-0.0,-0.0,0.0,0.0,0.0,0.0,0.0,0.0,0.0,0.0,0.0,0.0,0.0
4.92,50.754113165193885,5.1540118106545805,53.10291108697494,50.0,50.0,50.0,50.0,50.0,50.0,50.0,50.0,50.0,50.0,-0.0,-0.0,0.0,0.0,0.0,0.0,0.0,0.0,0.0,0.0,0.0,0.0,0.0
4.93,50.754113165193885,5.1540118106545805,53.10291108697494,50.0,50.0,50.0,50.0,50.0,50.0,50.0,50.0,50.0,50.0,-0.0,-0.0,0.0,0.0,0.0,0.0,0.0,0.0,0.0,0.0,0.0,0.0,0.0
4.94,50.754113165193885,5.1540118106545805,53.10291108697494,50.0,50.0,50.0,50.0,50.0,50.0,50.0,50.0,50.0,50.0,-0.0,-0.0,0.0,0.0,0.0,0.0,0.0,0.0,0.0,0.0,0.0,0.0,0.0
4.95,50.754113165193885,5.1540118106545805,53.10291108697494,50.0,50.0,50.0,50.0,50.0,50.0,50.0,50.0,50.0,50.0,-0.0,-0.0,0.0,0.0,0.0,0.0,0.0,0.0,0.0,0.0,0.0,0.0,0.0
4.96,50.754113165193885,5.1540118106545805,53.10291108697494,50.0,50.0,50.0,50.0,50.0,50.0,50.0,50.0,50.0,50.0,-0.0,-0.0,0.0,0.0,0.0,0.0,0.0,0.0,0.0,0.0,0.0,0.0,0.0
4.97,50.754113165193885,5.1540118106545805,53.10291108697494,50.0,50.0,50.0,50.0,50.0,50.0,50.0,50.0,50.0,50.0,-0.0,-0.0,0.0,0.0,0.0,0.0,0.0,0.0,0.0,0.0,0.0,0.0,0.0
4.98,50.754113165193885,5.1540118106545805,53.10291108697494,50.0,50.0,50.0,50.0,50.0,50.0,50.0,50.0,50.0,50.0,-0.0,-0.0,0.0,0.0,0.0,0.0,0.0,0.0,0.0,0.0,0.0,0.0,0.0
4.99,50.754113165193885,5.1540118106545805,53.10291108697494,50.0,50.0,50.0,50.0,50.0,50.0,50.0,50.0,50.0,50.0,-0.0,-0.0,0.0,0.0,0.0,0.0,0.0,0.0,0.0,0.0,0.0,0.0,0.0
5.0,50.754113165193885,5.1540118106545805,53.10291108697494,50.0,50.0,50.0,50.0,50.0,50.0,50.0,50.0,50.0,50.0,-0.0,-0.0,0.0,0.0,0.0,0.0,0.0,0.0,0.0,0.0,0.0,0.0,0.0
5.01,50.754113165193885,5.1540118106545805,53.10291108697494,50.0,50.0,50.0,50.0,50.0,50.0,50.0,50.0,50.0,50.0,-0.0,-0.0,0.0,0.0,0.0,0.0,0.0,0.0,0.0,0.0,0.0,0.0,0.0
5.02,50.754113165193885,5.1540118106545805,53.10291108697494,50.0,50.0,50.0,50.0,50.0,50.0,50.0,50.0,50.0,50.0,-0.0,-0.0,0.0,0.0,0.0,0.0,0.0,0.0,0.0,0.0,0.0,0.0,0.0
5.03,50.754113165193885,5.1540118106545805,53.10291108697494,50.0,50.0,50.0,50.0,50.0,50.0,50.0,50.0,50.0,50.0,-0.0,-0.0,0.0,0.0,0.0,0.0,0.0,0.0,0.0,0.0,0.0,0.0,0.0
5.04,50.754113165193885,5.1540118106545805,53.10291108697494,50.0,50.0,50.0,50.0,50.0,50.0,50.0,50.0,50.0,50.0,-0.0,-0.0,0.0,0.0,0.0,0.0,0.0,0.0,0.0,0.0,0.0,0.0,0.0
5.05,50.754113165193885,5.1540118106545805,53.10291108697494,50.0,50.0,50.0,50.0,50.0,50.0,50.0,50.0,50.0,50.0,-0.0,-0.0,0.0,0.0,0.0,0.0,0.0,0.0,0.0,0.0,0.0,0.0,0.0
5.06,57.469427507371876,36.93277897757229,15.47507511995812,50.0,50.0,50.0,50.0,50.0,50.0,50.0,50.0,50.0,50.0,0.0,0.0,-0.0,0.0,0.0,0.0,0.0,0.0,0.0,0.0,0.0,0.0,0.0
5.07,57.469427507371876,36.93277897757229,15.47507511995812,50.0,50.0,50.0,50.0,50.0,50.0,50.0,50.0,50.0,50.0,0.0,0.0,-0.0,0.0,0.0,0.0,0.0,0.0,0.0,0.0,0.0,0.0,0.0
5.08,57.469427507371876,36.93277897757229,15.47507511995812,50.0,50.0,50.0,50.0,50.0,50.0,50.0,50.0,50.0,50.0,0.0,0.0,-0.0,0.0,0.0,0.0,0.0,0.0,0.0,0.0,0.0,0.0,0.0
5.09,57.469427507371876,36.93277897757229,15.47507511995812,50.0,50.0,50.0,50.0,50.0,50.0,50.0,50.0,50.0,50.0,0.0,0.0,-0.0,0.0,0.0,0.0,0.0,0.0,0.0,0.0,0.0,0.0,0.0
5.1,57.469427507371876,36.93277897757229,15.47507511995812,50.0,50.0,50.0,50.0,50.0,50.0,50.0,50.0,50.0,50.0,0.0,0.0,-0.0,0.0,0.0,0.0,0.0,0.0,0.0,0.0,0.0,0.0,0.0
5.11,57.469427507371876,36.93277897757229,15.47507511995812,50.0,50.0,50.0,50.0,50.0,50.0,50.0,50.0,50.0,50.0,0.0,0.0,-0.0,0.0,0.0,0.0,0.0,0.0,0.0,0.0,0.0,0.0,0.0
5.12,57.469427507371876,36.93277897757229,15.47507511995812,50.0,50.0,50.0,50.0,50.0,50.0,50.0,50.0,50.0,50.0,0.0,0.0,-0.0,0.0,0.0,0.0,0.0,0.0,0.0,0.0,0.0,0.0,0.0
5.13,57.469427507371876,36.93277897757229,15.47507511995812,50.0,50.0,50.0,50.0,50.0,50.0,50.0,50.0,50.0,50.0,0.0,0.0,-0.0,0.0,0.0,0.0,0.0,0.0,0.0,0.0,0.0,0.0,0.0
5.14,57.469427507371876,36.93277897757229,15.47507511995812,50.0,50.0,50.0,50.0,50.0,50.0,50.0,50.0,50.0,50.0,0.0,0.0,-0.0,0.0,0.0,0.0,0.0,0.0,0.0,0.0,0.0,0.0,0.0
5.15,57.469427507371876,36.93277897757229,15.47507511995812,50.0,50.0,50.0,50.0,50.0,50.0,50.0,50.0,50.0,50.0,0.0,0.0,-0.0,0.0,0.0,0.0,0.0,0.0,0.0,0.0,0.0,0.0,0.0
5.16,57.469427507371876,36.93277897757229,15.47507511995812,50.0,50.0,50.0,50.0,50.0,50.0,50.0,50.0,50.0,50.0,0.0,0.0,-0.0,0.0,0.0,0.0,0.0,0.0,0.0,0.0,0.0,0.0,0.0
5.17,57.469427507371876,36.93277897757229,15.47507511995812,50.0,50.0,50.0,50.0,50.0,50.0,50.0,50.0,50.0,50.0,0.0,0.0,-0.0,0.0,0.0,0.0,0.0,0.0,0.0,0.0,0.0,0.0,0.0
5.18,57.469427507371876,36.93277897757229,15.47507511995812,50.0,50.0,50.0,50.0,50.0,50.0,50.0,50.0,50.0,50.0,0.0,0.0,-0.0,0.0,0.0,0.0,0.0,0.0,0.0,0.0,0.0,0.0,0.0
5.19,57.469427507371876,36.93277897757229,15.47507511995812,50.0,50.0,50.0,50.0,50.0,50.0,50.0,50.0,50.0,50.0,0.0,0.0,-0.0,0.0,0.0,0.0,0.0,0.0,0.0,0.0,0.0,0.0,0.0
5.2,57.469427507371876,36.93277897757229,15.47507511995812,50.0,50.0,50.0,50.0,50.0,50.0,50.0,50.0,50.0,50.0,0.0,0.0,-0.0,0.0,0.0,0.0,0.0,0.0,0.0,0.0,0.0,0.0,0.0
5.21,57.469427507371876,36.93277897757229,15.47507511995812,50.0,50.0,50.0,50.0,50.0,50.0,50.0,50.0,50.0,50.0,0.0,0.0,-0.0,0.0,0.0,0.0,0.0,0.0,0.0,0.0,0.0,0.0,0.0
5.22,57.469427507371876,36.93277897757229,15.47507511995812,50.0,50.0,50.0,50.0,50.0,50.0,50.0,50.0,50.0,50.0,0.0,0.0,-0.0,0.0,0.0,0.0,0.0,0.0,0.0,0.0,0.0,0.0,0.0
5.23,57.469427507371876,36.93277897757229,15.47507511995812,50.0,50.0,50.0,50.0,50.0,50.0,50.0,50.0,50.0,50.0,0.0,0.0,-0.0,0.0,0.0,0.0,0.0,0.0,0.0,0.0,0.0,0.0,0.0
5.24,57.469427507371876,36.93277897757229,15.47507511995812,50.0,50.0,50.0,50.0,50.0,50.0,50.0,50.0,50.0,50.0,0.0,0.0,-0.0,0.0,0.0,0.0,0.0,0.0,0.0,0.0,0.0,0.0,0.0
5.25,57.469427507371876,36.93277897757229,15.47507511995812,50.0,50.0,50.0,50.0,50.0,50.0,50.0,50.0,50.0,50.0,0.0,0.0,-0.0,0.0,0.0,0.0,0.0,0.0,0.0,0.0,0.0,0.0,0.0
5.26,57.469427507371876,36.93277897757229,15.47507511995812,50.0,50.0,50.0,50.0,50.0,50.0,50.0,50.0,50.0,50.0,0.0,0.0,-0.0,0.0,0.0,0.0,0.0,0.0,0.0,0.0,0.0,0.0,0.0
5.27,57.469427507371876,36.93277897757229,15.47507511995812,50.0,50.0,50.0,50.0,50.0,50.0,50.0,50.0,50.0,50.0,0.0,0.0,-0.0,0.0,0.0,0.0,0.0,0.0,0.0,0.0,0.0,0.0,0.0
5.28,57.469427507371876,36.93277897757229,15.47507511995812,50.0,50.0,50.0,50.0,50.0,50.0,50.0,50.0,50.0,50.0,0.0,0.0,-0.0,0.0,0.0,0.0,0.0,0.0,0.0,0.0,0.0,0.0,0.0
5.29,57.469427507371876,36.93277897757229,15.47507511995812,50.0,50.0,50.0,50.0,50.0,50.0,50.0,50.0,50.0,50.0,0.0,0.0,-0.0,0.0,0.0,0.0,0.0,0.0,0.0,0.0,0.0,0.0,0.0
5.3,57.469427507371876,36.93277897757229,15.47507511995812,50.0,50.0,50.0,50.0,50.0,50.0,50.0,50.0,50.0,50.0,0.0,0.0,-0.0,0.0,0.0,0.0,0.0,0.0,0.0,0.0,0.0,0.0,0.0
5.31,57.469427507371876,36.93277897757229,15.47507511995812,50.0,50.0,50.0,50.0,50.0,50.0,50.0,50.0,50.0,50.0,0.0,0.0,-0.0,0.0,0.0,0.0,0.0,0.0,0.0,0.0,0.0,0.0,0.0
5.32,57.469427507371876,36.93277897757229,15.47507511995812,50.0,50.0,50.0,50.0,50.0,50.0,50.0,50.0,50.0,50.0,0.0,0.0,-0.0,0.0,0.0,0.0,0.0,0.0,0.0,0.0,0.0,0.0,0.0
5.33,57.469427507371876,36.93277897757229,15.47507511995812,50.0,50.0,50.0,50.0,50.0,50.0,50.0,50.0,50.0,50.0,0.0,0.0,-0.0,0.0,0.0,0.0,0.0,0.0,0.0,0.0,0.0,0.0,0.0
5.34,57.469427507371876,36.93277897757229,15.47507511995812,50.0,50.0,50.0,50.0,50.0,50.0,50.0,50.0,50.0,50.0,0.0,0.0,-0.0,0.0,0.0,0.0,0.0,0.0,0.0,0.0,0.0,0.0,0.0
5.35,57.469427507371876,36.93277897757229,15.47507511995812,50.0,50.0,50.0,50.0,50.0,50.0,50.0,50.0,50.0,50.0,0.0,0.0,-0.0,0.0,0.0,0.0,0.0,0.0,0.0,0.0,0.0,0.0,0.0
5.36,57.469427507371876,36.93277897757229,15.47507511995812,50.0,50.0,50.0,50.0,50.0,50.0,50.0,50.0,50.0,50.0,0.0,0.0,-0.0,0.0,0.0,0.0,0.0,0.0,0.0,0.0,0.0,0.0,0.0
5.37,57.469427507371876,36.93277897757229,15.47507511995812,50.0,50.0,50.0,50.0,50.0,50.0,50.0,50.0,50.0,50.0,0.0,0.0,-0.0,0.0,0.0,0.0,0.0,0.0,0.0,0.0,0.0,0.0,0.0
5.38,57.469427507371876,36.93277897757229,15.47507511995812,50.0,50.0,50.0,50.0,50.0,50.0,50.0,50.0,50.0,50.0,0.0,0.0,-0.0,0.0,0.0,0.0,0.0,0.0,0.0,0.0,0.0,0.0,0.0
5.39,57.469427507371876,36.93277897757229,15.47507511995812,50.0,50.0,50.0,50.0,50.0,50.0,50.0,50.0,50.0,50.0,0.0,0.0,-0.0,0.0,0.0,0.0,0.0,0.0,0.0,0.0,0.0,0.0,0.0
5.4,57.469427507371876,36.93277897757229,15.47507511995812,50.0,50.0,50.0,50.0,50.0,50.0,50.0,50.0,50.0,50.0,0.0,0.0,-0.0,0.0,0.0,0.0,0.0,0.0,0.0,0.0,0.0,0.0,0.0
5.41,57.469427507371876,36.93277897757229,15.47507511995812,50.0,50.0,50.0,50.0,50.0,50.0,50.0,50.0,50.0,50.0,0.0,0.0,-0.0,0.0,0.0,0.0,0.0,0.0,0.0,0.0,0.0,0.0,0.0
5.42,57.469427507371876,36.93277897757229,15.47507511995812,50.0,50.0,50.0,50.0,50.0,50.0,50.0,50.0,50.0,50.0,0.0,0.0,-0.0,0.0,0.0,0.0,0.0,0.0,0.0,0.0,0.0,0.0,0.0
5.43,57.469427507371876,36.93277897757229,15.47507511995812,50.0,50.0,50.0,50.0,50.0,50.0,50.0,50.0,50.0,50.0,0.0,0.0,-0.0,0.0,0.0,0.0,0.0,0.0,0.0,0.0,0.0,0.0,0.0
5.44,57.469427507371876,36.93277897757229,15.47507511995812,50.0,50.0,50.0,50.0,50.0,50.0,50.0,50.0,50.0,50.0,0.0,0.0,-0.0,0.0,0.0,0.0,0.0,0.0,0.0,0.0,0.0,0.0,0.0
5.45,57.469427507371876,36.93277897757229,15.47507511995812,50.0,50.0,50.0,50.0,50.0,50.0,50.0,50.0,50.0,50.0,0.0,0.0,-0.0,0.0,0.0,0.0,0.0,0.0,0.0,0.0,0.0,0.0,0.0
5.46,57.469427507371876,36.93277897757229,15.47507511995812,50.0,50.0,50.0,50.0,50.0,50.0,50.0,50.0,50.0,50.0,0.0,0.0,-0.0,0.0,0.0,0.0,0.0,0.0,0.0,0.0,0.0,0.0,0.0
5.47,57.469427507371876,36.93277897757229,15.47507511995812,50.0,50.0,50.0,50.0,50.0,50.0,50.0,50.0,50.0,50.0,0.0,0.0,-0.0,0.0,0.0,0.0,0.0,0.0,0.0,0.0,0.0,0.0,0.0
5.48,57.469427507371876,36.93277897757229,15.47507511995812,50.0,50.0,50.0,50.0,50.0,50.0,50.0,50.0,50.0,50.0,0.0,0.0,-0.0,0.0,0.0,0.0,0.0,0.0,0.0,0.0,0.0,0.0,0.0
5.49,57.469427507371876,36.93277897757229,15.47507511995812,50.0,50.0,50.0,50.0,50.0,50.0,50.0,50.0,50.0,50.0,0.0,0.0,-0.0,0.0,0.0,0.0,0.0,0.0,0.0,0.0,0.0,0.0,0.0
5.5,57.469427507371876,36.93277897757229,15.47507511995812,50.0,50.0,50.0,50.0,50.0,50.0,50.0,50.0,50.0,50.0,0.0,0.0,-0.0,0.0,0.0,0.0,0.0,0.0,0.0,0.0,0.0,0.0,0.0
5.51,57.469427507371876,36.93277897757229,15.47507511995812,50.0,50.0,50.0,50.0,50.0,50.0,50.0,50.0,50.0,50.0,0.0,0.0,-0.0,0.0,0.0,0.0,0.0,0.0,0.0,0.0,0.0,0.0,0.0
5.52,57.469427507371876,36.93277897757229,15.47507511995812,50.0,50.0,50.0,50.0,50.0,50.0,50.0,50.0,50.0,50.0,0.0,0.0,-0.0,0.0,0.0,0.0,0.0,0.0,0.0,0.0,0.0,0.0,0.0
5.53,57.469427507371876,36.93277897757229,15.47507511995812,50.0,50.0,50.0,50.0,50.0,50.0,50.0,50.0,50.0,50.0,0.0,0.0,-0.0,0.0,0.0,0.0,0.0,0.0,0.0,0.0,0.0,0.0,0.0
5.54,57.469427507371876,36.93277897757229,15.47507511995812,50.0,50.0,50.0,50.0,50.0,50.0,50.0,50.0,50.0,50.0,0.0,0.0,-0.0,0.0,0.0,0.0,0.0,0.0,0.0,0.0,0.0,0.0,0.0
5.55,57.469427507371876,36.93277897757229,15.47507511995812,50.0,50.0,50.0,50.0,50.0,50.0,50.0,50.0,50.0,50.0,0.0,0.0,-0.0,0.0,0.0,0.0,0.0,0.0,0.0,0.0,0.0,0.0,0.0
5.56,57.469427507371876,36.93277897757229,15.47507511995812,50.0,50.0,50.0,50.0,50.0,50.0,50.0,50.0,50.0,50.0,0.0,0.0,-0.0,0.0,0.0,0.0,0.0,0.0,0.0,0.0,0.0,0.0,0.0
5.57,57.469427507371876,36.93277897757229,15.47507511995812,50.0,50.0,50.0,50.0,50.0,50.0,50.0,50.0,50.0,50.0,0.0,0.0,-0.0,0.0,0.0,0.0,0.0,0.0,0.0,0.0,0.0,0.0,0.0
5.58,57.469427507371876,36.93277897757229,15.47507511995812,50.0,50.0,50.0,50.0,50.0,50.0,50.0,50.0,50.0,50.0,0.0,0.0,-0.0,0.0,0.0,0.0,0.0,0.0,0.0,0.0,0.0,0.0,0.0
5.59,57.469427507371876,36.93277897757229,15.47507511995812,50.0,50.0,50.0,50.0,50.0,50.0,50.0,50.0,50.0,50.0,0.0,0.0,-0.0,0.0,0.0,0.0,0.0,0.0,0.0,0.0,0.0,0.0,0.0
5.6,57.469427507371876,36.93277897757229,15.47507511995812,50.0,50.0,50.0,50.0,50.0,50.0,50.0,50.0,50.0,50.0,0.0,0.0,-0.0,0.0,0.0,0.0,0.0,0.0,0.0,0.0,0.0,0.0,0.0
5.61,57.469427507371876,36.93277897757229,15.47507511995812,50.0,50.0,50.0,50.0,50.0,50.0,50.0,50.0,50.0,50.0,0.0,0.0,-0.0,0.0,0.0,0.0,0.0,0.0,0.0,0.0,0.0,0.0,0.0
5.62,57.469427507371876,36.93277897757229,15.47507511995812,50.0,50.0,50.0,50.0,50.0,50.0,50.0,50.0,50.0,50.0,0.0,0.0,-0.0,0.0,0.0,0.0,0.0,0.0,0.0,0.0,0.0,0.0,0.0
5.63,57.469427507371876,36.93277897757229,15.47507511995812,50.0,50.0,50.0,50.0,50.0,50.0,50.0,50.0,50.0,50.0,0.0,0.0,-0.0,0.0,0.0,0.0,0.0,0.0,0.0,0.0,0.0,0.0,0.0
5.64,57.469427507371876,36.93277897757229,15.47507511995812,50.0,50.0,50.0,50.0,50.0,50.0,50.0,50.0,50.0,50.0,0.0,0.0,-0.0,0.0,0.0,0.0,0.0,0.0,0.0,0.0,0.0,0.0,0.0
5.65,57.469427507371876,36.93277897757229,15.47507511995812,50.0,50.0,50.0,50.0,50.0,50.0,50.0,50.0,50.0,50.0,0.0,0.0,-0.0,0.0,0.0,0.0,0.0,0.0,0.0,0.0,0.0,0.0,0.0
5.66,57.469427507371876,36.93277897757229,15.47507511995812,50.0,50.0,50.0,50.0,50.0,50.0,50.0,50.0,50.0,50.0,0.0,0.0,-0.0,0.0,0.0,0.0,0.0,0.0,0.0,0.0,0.0,0.0,0.0
5.67,57.469427507371876,36.93277897757229,15.47507511995812,50.0,50.0,50.0,50.0,50.0,50.0,50.0,50.0,50.0,50.0,0.0,0.0,-0.0,0.0,0.0,0.0,0.0,0.0,0.0,0.0,0.0,0.0,0.0
5.68,57.469427507371876,36.93277897757229,15.47507511995812,50.0,50.0,50.0,50.0,50.0,50.0,50.0,50.0,50.0,50.0,0.0,0.0,-0.0,0.0,0.0,0.0,0.0,0.0,0.0,0.0,0.0,0.0,0.0
5.69,57.469427507371876,36.93277897757229,15.47507511995812,50.0,50.0,50.0,50.0,50.0,50.0,50.0,50.0,50.0,50.0,0.0,0.0,-0.0,0.0,0.0,0.0,0.0,0.0,0.0,0.0,0.0,0.0,0.0
5.7,57.469427507371876,36.93277897757229,15.47507511995812,50.0,50.0,50.0,50.0,50.0,50.0,50.0,50.0,50.0,50.0,0.0,0.0,-0.0,0.0,0.0,0.0,0.0,0.0,0.0,0.0,0.0,0.0,0.0
5.71,57.469427507371876,36.93277897757229,15.47507511995812,50.0,50.0,50.0,50.0,50.0,50.0,50.0,50.0,50.0,50.0,0.0,0.0,-0.0,0.0,0.0,0.0,0.0,0.0,0.0,0.0,0.0,0.0,0.0
5.72,57.469427507371876,36.93277897757229,15.47507511995812,50.0,50.0,50.0,50.0,50.0,50.0,50.0,50.0,50.0,50.0,0.0,0.0,-0.0,0.0,0.0,0.0,0.0,0.0,0.0,0.0,0.0,0.0,0.0
5.73,57.469427507371876,36.93277897757229,15.47507511995812,50.0,50.0,50.0,50.0,50.0,50.0,50.0,50.0,50.0,50.0,0.0,0.0,-0.0,0.0,0.0,0.0,0.0,0.0,0.0,0.0,0.0,0.0,0.0
5.74,57.469427507371876,36.93277897757229,15.47507511995812,50.0,50.0,50.0,50.0,50.0,50.0,50.0,50.0,50.0,50.0,0.0,0.0,-0.0,0.0,0.0,0.0,0.0,0.0,0.0,0.0,0.0,0.0,0.0
5.75,57.469427507371876,36.93277897757229,15.47507511995812,50.0,50.0,50.0,50.0,50.0,50.0,50.0,50.0,50.0,50.0,0.0,0.0,-0.0,0.0,0.0,0.0,0.0,0.0,0.0,0.0,0.0,0.0,0.0
5.76,57.469427507371876,36.93277897757229,15.47507511995812,50.0,50.0,50.0,50.0,50.0,50.0,50.0,50.0,50.0,50.0,0.0,0.0,-0.0,0.0,0.0,0.0,0.0,0.0,0.0,0.0,0.0,0.0,0.0
5.77,57.469427507371876,36.93277897757229,15.47507511995812,50.0,50.0,50.0,50.0,50.0,50.0,50.0,50.0,50.0,50.0,0.0,0.0,-0.0,0.0,0.0,0.0,0.0,0.0,0.0,0.0,0.0,0.0,0.0
5.78,57.469427507371876,36.93277897757229,15.47507511995812,50.0,50.0,50.0,50.0,50.0,50.0,50.0,50.0,50.0,50.0,0.0,0.0,-0.0,0.0,0.0,0.0,0.0,0.0,0.0,0.0,0.0,0.0,0.0
5.79,57.469427507371876,36.93277897757229,15.47507511995812,50.0,50.0,50.0,50.0,50.0,50.0,50.0,50.0,50.0,50.0,0.0,0.0,-0.0,0.0,0.0,0.0,0.0,0.0,0.0,0.0,0.0,0.0,0.0
5.8,57.469427507371876,36.93277897757229,15.47507511995812,50.0,50.0,50.0,50.0,50.0,50.0,50.0,50.0,50.0,50.0,0.0,0.0,-0.0,0.0,0.0,0.0,0.0,0.0,0.0,0.0,0.0,0.0,0.0
5.81,57.469427507371876,36.93277897757229,15.47507511995812,50.0,50.0,50.0,50.0,50.0,50.0,50.0,50.0,50.0,50.0,0.0,0.0,-0.0,0.0,0.0,0.0,0.0,0.0,0.0,0.0,0.0,0.0,0.0
5.82,57.469427507371876,36.93277897757229,15.47507511995812,50.0,50.0,50.0,50.0,50.0,50.0,50.0,50.0,50.0,50.0,0.0,0.0,-0.0,0.0,0.0,0.0,0.0,0.0,0.0,0.0,0.0,0.0,0.0
5.83,57.469427507371876,36.93277897757229,15.47507511995812,50.0,50.0,50.0,50.0,50.0,50.0,50.0,50.0,50.0,50.0,0.0,0.0,-0.0,0.0,0.0,0.0,0.0,0.0,0.0,0.0,0.0,0.0,0.0
5.84,57.469427507371876,36.93277897757229,15.47507511995812,50.0,50.0,50.0,50.0,50.0,50.0,50.0,50.0,50.0,50.0,0.0,0.0,-0.0,0.0,0.0,0.0,0.0,0.0,0.0,0.0,0.0,0.0,0.0
5.85,57.469427507371876,36.93277897757229,15.47507511995812,50.0,50.0,50.0,50.0,50.0,50.0,50.0,50.0,50.0,50.0,0.0,0.0,-0.0,0.0,0.0,0.0,0.0,0.0,0.0,0.0,0.0,0.0,0.0
5.86,57.469427507371876,36.93277897757229,15.47507511995812,50.0,50.0,50.0,50.0,50.0,50.0,50.0,50.0,50.0,50.0,0.0,0.0,-0.0,0.0,0.0,0.0,0.0,0.0,0.0,0.0,0.0,0.0,0.0
5.87,57.469427507371876,36.93277897757229,15.47507511995812,50.0,50.0,50.0,50.0,50.0,50.0,50.0,50.0,50.0,50.0,0.0,0.0,-0.0,0.0,0.0,0.0,0.0,0.0,0.0,0.0,0.0,0.0,0.0
5.88,57.469427507371876,36.93277897757229,15.47507511995812,50.0,50.0,50.0,50.0,50.0,50.0,50.0,50.0,50.0,50.0,0.0,0.0,-0.0,0.0,0.0,0.0,0.0,0.0,0.0,0.0,0.0,0.0,0.0
5.89,57.469427507371876,36.93277897757229,15.47507511995812,50.0,50.0,50.0,50.0,50.0,50.0,50.0,50.0,50.0,50.0,0.0,0.0,-0.0,0.0,0.0,0.0,0.0,0.0,0.0,0.0,0.0,0.0,0.0
5.9,57.469427507371876,36.93277897757229,15.47507511995812,50.0,50.0,50.0,50.0,50.0,50.0,50.0,50.0,50.0,50.0,0.0,0.0,-0.0,0.0,0.0,0.0,0.0,0.0,0.0,0.0,0.0,0.0,0.0
5.91,57.469427507371876,36.93277897757229,15.47507511995812,50.0,50.0,50.0,50.0,50.0,50.0,50.0,50.0,50.0,50.0,0.0,0.0,-0.0,0.0,0.0,0.0,0.0,0.0,0.0,0.0,0.0,0.0,0.0
5.92,57.469427507371876,36.93277897757229,15.47507511995812,50.0,50.0,50.0,50.0,50.0,50.0,50.0,50.0,50.0,50.0,0.0,0.0,-0.0,0.0,0.0,0.0,0.0,0.0,0.0,0.0,0.0,0.0,0.0
5.93,57.469427507371876,36.93277897757229,15.47507511995812,50.0,50.0,50.0,50.0,50.0,50.0,50.0,50.0,50.0,50.0,0.0,0.0,-0.0,0.0,0.0,0.0,0.0,0.0,0.0,0.0,0.0,0.0,0.0
5.94,57.469427507371876,36.93277897757229,15.47507511995812,50.0,50.0,50.0,50.0,50.0,50.0,50.0,50.0,50.0,50.0,0.0,0.0,-0.0,0.0,0.0,0.0,0.0,0.0,0.0,0.0,0.0,0.0,0.0
5.95,57.469427507371876,36.93277897757229,15.47507511995812,50.0,50.0,50.0,50.0,50.0,50.0,50.0,50.0,50.0,50.0,0.0,0.0,-0.0,0.0,0.0,0.0,0.0,0.0,0.0,0.0,0.0,0.0,0.0
5.96,57.469427507371876,36.93277897757229,15.47507511995812,50.0,50.0,50.0,50.0,50.0,50.0,50.0,50.0,50.0,50.0,0.0,0.0,-0.0,0.0,0.0,0.0,0.0,0.0,0.0,0.0,0.0,0.0,0.0
5.97,57.469427507371876,36.93277897757229,15.47507511995812,50.0,50.0,50.0,50.0,50.0,50.0,50.0,50.0,50.0,50.0,0.0,0.0,-0.0,0.0,0.0,0.0,0.0,0.0,0.0,0.0,0.0,0.0,0.0
5.98,57.469427507371876,36.93277897757229,15.47507511995812,50.0,50.0,50.0,50.0,50.0,50.0,50.0,50.0,50.0,50.0,0.0,0.0,-0.0,0.0,0.0,0.0,0.0,0.0,0.0,0.0,0.0,0.0,0.0
5.99,57.469427507371876,36.93277897757229,15.47507511995812,50.0,50.0,50.0,50.0,50.0,50.0,50.0,50.0,50.0,50.0,0.0,0.0,-0.0,0.0,0.0,0.0,0.0,0.0,0.0,0.0,0.0,0.0,0.0
6.0,57.469427507371876,36.93277897757229,15.47507511995812,50.0,50.0,50.0,50.0,50.0,50.0,50.0,50.0,50.0,50.0,0.0,0.0,-0.0,0.0,0.0,0.0,0.0,0.0,0.0,0.0,0.0,0.0,0.0
6.01,57.469427507371876,36.93277897757229,15.47507511995812,50.0,50.0,50.0,50.0,50.0,50.0,50.0,50.0,50.0,50.0,0.0,0.0,-0.0,0.0,0.0,0.0,0.0,0.0,0.0,0.0,0.0,0.0,0.0
6.02,57.469427507371876,36.93277897757229,15.47507511995812,50.0,50.0,50.0,50.0,50.0,50.0,50.0,50.0,50.0,50.0,0.0,0.0,-0.0,0.0,0.0,0.0,0.0,0.0,0.0,0.0,0.0,0.0,0.0
6.03,57.469427507371876,36.93277897757229,15.47507511995812,50.0,50.0,50.0,50.0,50.0,50.0,50.0,50.0,50.0,50.0,0.0,0.0,-0.0,0.0,0.0,0.0,0.0,0.0,0.0,0.0,0.0,0.0,0.0
6.04,57.469427507371876,36.93277897757229,15.47507511995812,50.0,50.0,50.0,50.0,50.0,50.0,50.0,50.0,50.0,50.0,0.0,0.0,-0.0,0.0,0.0,0.0,0.0,0.0,0.0,0.0,0.0,0.0,0.0
6.05,57.469427507371876,36.93277897757229,15.47507511995812,50.0,50.0,50.0,50.0,50.0,50.0,50.0,50.0,50.0,50.0,0.0,0.0,-0.0,0.0,0.0,0.0,0.0,0.0,0.0,0.0,0.0,0.0,0.0
6.06,57.469427507371876,36.93277897757229,15.47507511995812,50.0,50.0,50.0,50.0,50.0,50.0,50.0,50.0,50.0,50.0,0.0,0.0,-0.0,0.0,0.0,0.0,0.0,0.0,0.0,0.0,0.0,0.0,0.0
6.07,57.469427507371876,36.93277897757229,15.47507511995812,50.0,50.0,50.0,50.0,50.0,50.0,50.0,50.0,50.0,50.0,0.0,0.0,-0.0,0.0,0.0,0.0,0.0,0.0,0.0,0.0,0.0,0.0,0.0
6.08,57.469427507371876,36.93277897757229,15.47507511995812,50.0,50.0,50.0,50.0,50.0,50.0,50.0,50.0,50.0,50.0,0.0,0.0,-0.0,0.0,0.0,0.0,0.0,0.0,0.0,0.0,0.0,0.0,0.0
