milky766/affetto/tests/data/rand_traj_trapez_async_0-1-2.csv
t,q0,q1,q2,q3,q4,q5,q6,q7,q8,q9,q10,q11,q12,dq0,dq1,dq2,dq3,dq4,dq5,dq6,dq7,dq8,dq9,dq10,dq11,dq12
0.0,50.0,50.0,50.0,50.0,50.0,50.0,50.0,50.0,50.0,50.0,50.0,50.0,50.0,0.0,-0.0,-0.0,0.0,0.0,0.0,0.0,0.0,0.0,0.0,0.0,0.0,0.0
0.01,50.00134063747032,49.99594985879269,49.99370773206063,50.0,50.0,50.0,50.0,50.0,50.0,50.0,50.0,50.0,50.0,0.2681274940644549,-0.8100282414620574,-1.2584535878737675,0.0,0.0,0.0,0.0,0.0,0.0,0.0,0.0,0.0,0.0
0.02,50.00536254988128,49.98379943517076,49.974830928242525,50.0,50.0,50.0,50.0,50.0,50.0,50.0,50.0,50.0,50.0,0.5362549881289098,-1.6200564829241149,-2.516907175747535,0.0,0.0,0.0,0.0,0.0,0.0,0.0,0.0,0.0,0.0
0.03,50.0120657372329,49.9635487291342,49.94336958854568,50.0,50.0,50.0,50.0,50.0,50.0,50.0,50.0,50.0,50.0,0.8043824821933646,-2.4300847243861723,-3.7753607636213022,0.0,0.0,0.0,0.0,0.0,0.0,0.0,0.0,0.0,0.0
0.04,50.02145019952516,49.93519774068304,49.8993237129701,50.0,50.0,50.0,50.0,50.0,50.0,50.0,50.0,50.0,50.0,1.0725099762578196,-3.2401129658482297,-5.03381435149507,0.0,0.0,0.0,0.0,0.0,0.0,0.0,0.0,0.0,0.0
0.05,50.03351593675806,49.89874646981725,49.84269330151577,50.0,50.0,50.0,50.0,50.0,50.0,50.0,50.0,50.0,50.0,1.3406374703222745,-4.050141207310287,-6.292267939368837,0.0,0.0,0.0,0.0,0.0,0.0,0.0,0.0,0.0,0.0
0.06,50.0482629489316,49.85419491653683,49.77347835418272,50.0,50.0,50.0,50.0,50.0,50.0,50.0,50.0,50.0,50.0,1.6087649643867292,-4.860169448772345,-7.5507215272426045,0.0,0.0,0.0,0.0,0.0,0.0,0.0,0.0,0.0,0.0
0.07,50.065691236045794,49.8015430808418,49.69167887097093,50.0,50.0,50.0,50.0,50.0,50.0,50.0,50.0,50.0,50.0,1.8768924584511846,-5.670197690234403,-8.809175115116373,0.0,0.0,0.0,0.0,0.0,0.0,0.0,0.0,0.0,0.0
0.08,50.08580079810062,49.74079096273214,49.59729485188039,50.0,50.0,50.0,50.0,50.0,50.0,50.0,50.0,50.0,50.0,2.1450199525156393,-6.480225931696459,-10.06762870299014,0.0,0.0,0.0,0.0,0.0,0.0,0.0,0.0,0.0,0.0
0.09,50.108591635096104,49.67193856220786,49.49032629691113,50.0,50.0,50.0,50.0,50.0,50.0,50.0,50.0,50.0,50.0,2.4131474465800937,-7.290254173158517,-11.326082290863907,0.0,0.0,0.0,0.0,0.0,0.0,0.0,0.0,0.0,0.0
0.1,50.13406374703223,49.59498587926897,49.37077320606312,50.0,50.0,50.0,50.0,50.0,50.0,50.0,50.0,50.0,50.0,2.681274940644549,-8.100282414620574,-12.584535878737674,0.0,0.0,0.0,0.0,0.0,0.0,0.0,0.0,0.0,0.0
0.11,50.162217133908996,49.509932913915456,49.23863557933637,50.0,50.0,50.0,50.0,50.0,50.0,50.0,50.0,50.0,50.0,2.949402434709004,-8.910310656082633,-13.84298946661144,0.0,0.0,0.0,0.0,0.0,0.0,0.0,0.0,0.0,0.0
0.12,50.19305179572641,49.41677966614732,49.093913416730885,50.0,50.0,50.0,50.0,50.0,50.0,50.0,50.0,50.0,50.0,3.2175299287734584,-9.72033889754469,-15.101443054485209,0.0,0.0,0.0,0.0,0.0,0.0,0.0,0.0,0.0,0.0
0.13,50.22656773248446,49.31552613596456,48.936606718246665,50.0,50.0,50.0,50.0,50.0,50.0,50.0,50.0,50.0,50.0,3.485657422837914,-10.530367139006747,-16.359896642358976,0.0,0.0,0.0,0.0,0.0,0.0,0.0,0.0,0.0,0.0
0.14,50.26276494418316,49.20617232336718,48.76671548388371,50.0,50.0,50.0,50.0,50.0,50.0,50.0,50.0,50.0,50.0,3.753784916902369,-11.340395380468806,-17.618350230232746,0.0,0.0,0.0,0.0,0.0,0.0,0.0,0.0,0.0,0.0
0.15,50.30164343082251,49.088718228355184,48.584239713642006,50.0,50.0,50.0,50.0,50.0,50.0,50.0,50.0,50.0,50.0,4.021912410966823,-12.15042362193086,-18.87680381810651,0.0,0.0,0.0,0.0,0.0,0.0,0.0,0.0,0.0,0.0
0.16,50.343203192402505,48.96316385092857,48.389179407521574,50.0,50.0,50.0,50.0,50.0,50.0,50.0,50.0,50.0,50.0,4.2900399050312785,-12.960451863392919,-20.13525740598028,0.0,0.0,0.0,0.0,0.0,0.0,0.0,0.0,0.0,0.0
0.17,50.38744422892314,48.82950919108733,48.181534565522405,50.0,50.0,50.0,50.0,50.0,50.0,50.0,50.0,50.0,50.0,4.558167399095733,-13.770480104854979,-21.393710993854047,0.0,0.0,0.0,0.0,0.0,0.0,0.0,0.0,0.0,0.0
0.18,50.43436654038441,48.68775424883147,47.9613051876445,50.0,50.0,50.0,50.0,50.0,50.0,50.0,50.0,50.0,50.0,4.8262948931601874,-14.580508346317034,-22.652164581727813,0.0,0.0,0.0,0.0,0.0,0.0,0.0,0.0,0.0,0.0
0.19,50.48397012678634,48.537899024160986,47.72849127388785,50.0,50.0,50.0,50.0,50.0,50.0,50.0,50.0,50.0,50.0,5.094422387224643,-15.390536587779092,-23.91061816960158,0.0,0.0,0.0,0.0,0.0,0.0,0.0,0.0,0.0,0.0
0.2,50.53625498812891,48.37994351707589,47.483092824252466,50.0,50.0,50.0,50.0,50.0,50.0,50.0,50.0,50.0,50.0,5.362549881289098,-16.20056482924115,-25.169071757475347,0.0,0.0,0.0,0.0,0.0,0.0,0.0,0.0,0.0,0.0
0.21,50.59122112441212,48.213887727576164,47.22510983873835,50.0,50.0,50.0,50.0,50.0,50.0,50.0,50.0,50.0,50.0,5.630677375353552,-17.010593070703205,-26.427525345349114,0.0,0.0,0.0,0.0,0.0,0.0,0.0,0.0,0.0,0.0
0.22,50.64886853563598,48.03973165566182,46.954542317345485,50.0,50.0,50.0,50.0,50.0,50.0,50.0,50.0,50.0,50.0,5.898804869418008,-17.820621312165265,-27.68597893322288,0.0,0.0,0.0,0.0,0.0,0.0,0.0,0.0,0.0,0.0
0.23,50.70919722180048,47.85747530133286,46.671390260073885,50.0,50.0,50.0,50.0,50.0,50.0,50.0,50.0,50.0,50.0,6.166932363482463,-18.630649553627322,-28.94443252109665,0.0,0.0,0.0,0.0,0.0,0.0,0.0,0.0,0.0,0.0
0.24,50.772207182905625,47.667118664589275,46.37565366692355,50.0,50.0,50.0,50.0,50.0,50.0,50.0,50.0,50.0,50.0,6.435059857546917,-19.44067779508938,-30.202886108970418,0.0,0.0,0.0,0.0,0.0,0.0,0.0,0.0,0.0,0.0
0.25,50.837898418951426,47.46866174543107,46.06733253789447,50.0,50.0,50.0,50.0,50.0,50.0,50.0,50.0,50.0,50.0,6.703187351611373,-20.250706036551435,-31.461339696844185,0.0,0.0,0.0,0.0,0.0,0.0,0.0,0.0,0.0,0.0
0.26,50.90627092993786,47.26210454385824,45.74642687298666,50.0,50.0,50.0,50.0,50.0,50.0,50.0,50.0,50.0,50.0,6.971314845675828,-21.060734278013495,-32.71979328471795,0.0,0.0,0.0,0.0,0.0,0.0,0.0,0.0,0.0,0.0
0.27,50.97732471586494,47.0474470598708,45.41293667220012,50.0,50.0,50.0,50.0,50.0,50.0,50.0,50.0,50.0,50.0,7.2394423397402825,-21.870762519475555,-33.97824687259172,0.0,0.0,0.0,0.0,0.0,0.0,0.0,0.0,0.0,0.0
0.28,51.05105977673267,46.82468929346874,45.06686193553483,50.0,50.0,50.0,50.0,50.0,50.0,50.0,50.0,50.0,50.0,7.507569833804738,-22.68079076093761,-35.23670046046549,0.0,0.0,0.0,0.0,0.0,0.0,0.0,0.0,0.0,0.0
0.29,51.12747611254103,46.593831244652044,44.708202662990814,50.0,50.0,50.0,50.0,50.0,50.0,50.0,50.0,50.0,50.0,7.7756973278691905,-23.490819002399665,-36.49515404833925,0.0,0.0,0.0,0.0,0.0,0.0,0.0,0.0,0.0,0.0
0.3,51.20657372329005,46.35487291342074,44.33695885456805,50.0,50.0,50.0,50.0,50.0,50.0,50.0,50.0,50.0,50.0,8.043824821933645,-24.30084724386172,-37.75360763621302,0.0,0.0,0.0,0.0,0.0,0.0,0.0,0.0,0.0,0.0
0.31,51.28835260897971,46.107814299774816,43.95313051026655,50.0,50.0,50.0,50.0,50.0,50.0,50.0,50.0,50.0,50.0,8.3119523159981,-25.11087548532378,-39.012061224086786,0.0,0.0,0.0,0.0,0.0,0.0,0.0,0.0,0.0,0.0
0.32,51.37281276961001,45.852655403714266,43.55678183637288,50.0,50.0,50.0,50.0,50.0,50.0,50.0,50.0,50.0,50.0,8.580079810062557,-25.920903726785838,-40.14339232639538,0.0,0.0,0.0,0.0,0.0,0.0,0.0,0.0,0.0,0.0
0.33,51.459954205180956,45.5893962252391,43.15534791310891,50.0,50.0,50.0,50.0,50.0,50.0,50.0,50.0,50.0,50.0,8.848207304127012,-26.730931968247898,-40.14339232639538,0.0,0.0,0.0,0.0,0.0,0.0,0.0,0.0,0.0,0.0
0.34,51.54977691569255,45.31803676434931,42.75391398984496,50.0,50.0,50.0,50.0,50.0,50.0,50.0,50.0,50.0,50.0,9.116334798191467,-27.540960209709958,-40.14339232639538,0.0,0.0,0.0,0.0,0.0,0.0,0.0,0.0,0.0,0.0
0.35,51.64228090114478,45.038577021044894,42.35248006658101,50.0,50.0,50.0,50.0,50.0,50.0,50.0,50.0,50.0,50.0,9.38446229225592,-28.35098845117201,-40.14339232639538,0.0,0.0,0.0,0.0,0.0,0.0,0.0,0.0,0.0,0.0
0.36,51.73746616153767,44.75101699532587,41.95104614331706,50.0,50.0,50.0,50.0,50.0,50.0,50.0,50.0,50.0,50.0,9.652589786320375,-29.161016692634067,-40.14339232639538,0.0,0.0,0.0,0.0,0.0,0.0,0.0,0.0,0.0,0.0
0.37,51.83533269687119,44.455356687192214,41.5496122200531,50.0,50.0,50.0,50.0,50.0,50.0,50.0,50.0,50.0,50.0,9.920717280384832,-29.971044934096124,-40.14339232639538,0.0,0.0,0.0,0.0,0.0,0.0,0.0,0.0,0.0,0.0
0.38,51.93586240267044,44.15159609664395,41.14817829678914,50.0,50.0,50.0,50.0,50.0,50.0,50.0,50.0,50.0,50.0,10.157686123982394,-30.781073175558184,-40.14339232639538,0.0,0.0,0.0,0.0,0.0,0.0,0.0,0.0,0.0,0.0
0.39,52.03743926391026,43.83973522368105,40.74674437352519,50.0,50.0,50.0,50.0,50.0,50.0,50.0,50.0,50.0,50.0,10.157686123982394,-31.59110141702024,-40.14339232639538,0.0,0.0,0.0,0.0,0.0,0.0,0.0,0.0,0.0,0.0
0.4,52.13901612515008,43.51977406830353,40.34531045026124,50.0,50.0,50.0,50.0,50.0,50.0,50.0,50.0,50.0,50.0,10.157686123982394,-32.4011296584823,-40.14339232639538,0.0,0.0,0.0,0.0,0.0,0.0,0.0,0.0,0.0,0.0
0.41,52.240592986389906,43.19171263051141,39.943876526997286,50.0,50.0,50.0,50.0,50.0,50.0,50.0,50.0,50.0,50.0,10.157686123982394,-33.211157899944354,-40.14339232639538,0.0,0.0,0.0,0.0,0.0,0.0,0.0,0.0,0.0,0.0
0.42,52.342169847629734,42.85555091030465,39.54244260373333,50.0,50.0,50.0,50.0,50.0,50.0,50.0,50.0,50.0,50.0,10.157686123982394,-34.02118614140641,-40.14339232639538,0.0,0.0,0.0,0.0,0.0,0.0,0.0,0.0,0.0,0.0
0.43,52.443746708869554,42.51128890768329,39.141008680469376,50.0,50.0,50.0,50.0,50.0,50.0,50.0,50.0,50.0,50.0,10.157686123982394,-34.83121438286847,-40.14339232639538,0.0,0.0,0.0,0.0,0.0,0.0,0.0,0.0,0.0,0.0
0.44,52.545323570109375,42.158926622647286,38.739574757205425,50.0,50.0,50.0,50.0,50.0,50.0,50.0,50.0,50.0,50.0,10.157686123982394,-35.64124262433053,-40.14339232639538,0.0,0.0,0.0,0.0,0.0,0.0,0.0,0.0,0.0,0.0
0.45,52.6469004313492,41.79846405519667,38.338140833941466,50.0,50.0,50.0,50.0,50.0,50.0,50.0,50.0,50.0,50.0,10.157686123982394,-36.45127086579259,-40.14339232639538,0.0,0.0,0.0,0.0,0.0,0.0,0.0,0.0,0.0,0.0
0.46,52.74847729258903,41.42990120533143,37.936706910677515,50.0,50.0,50.0,50.0,50.0,50.0,50.0,50.0,50.0,50.0,10.157686123982394,-37.261299107254644,-40.14339232639538,0.0,0.0,0.0,0.0,0.0,0.0,0.0,0.0,0.0,0.0
0.47,52.85005415382885,41.053238073051574,37.53527298741356,50.0,50.0,50.0,50.0,50.0,50.0,50.0,50.0,50.0,50.0,10.157686123982394,-38.0713273487167,-40.14339232639538,0.0,0.0,0.0,0.0,0.0,0.0,0.0,0.0,0.0,0.0
0.48,52.95163101506867,40.6684746583571,37.133839064149605,50.0,50.0,50.0,50.0,50.0,50.0,50.0,50.0,50.0,50.0,10.157686123982394,-38.88135559017876,-40.14339232639538,0.0,0.0,0.0,0.0,0.0,0.0,0.0,0.0,0.0,0.0
0.49,53.0532078763085,40.276589662970004,36.73240514088565,50.0,50.0,50.0,50.0,50.0,50.0,50.0,50.0,50.0,50.0,10.157686123982394,-39.29319391846044,-40.14339232639538,0.0,0.0,0.0,0.0,0.0,0.0,0.0,0.0,0.0,0.0
0.5,53.15478473754832,39.883657723785404,36.3309712176217,50.0,50.0,50.0,50.0,50.0,50.0,50.0,50.0,50.0,50.0,10.157686123982394,-39.29319391846044,-40.14339232639538,0.0,0.0,0.0,0.0,0.0,0.0,0.0,0.0,0.0,0.0
0.51,53.256361598788146,39.490725784600805,35.92953729435774,50.0,50.0,50.0,50.0,50.0,50.0,50.0,50.0,50.0,50.0,10.157686123982394,-39.29319391846044,-40.14339232639538,0.0,0.0,0.0,0.0,0.0,0.0,0.0,0.0,0.0,0.0
0.52,53.35793846002797,39.0977938454162,35.52810337109379,50.0,50.0,50.0,50.0,50.0,50.0,50.0,50.0,50.0,50.0,10.157686123982394,-39.29319391846044,-40.14339232639538,0.0,0.0,0.0,0.0,0.0,0.0,0.0,0.0,0.0,0.0
0.53,53.4595153212678,38.704861906231585,35.12666944782983,50.0,50.0,50.0,50.0,50.0,50.0,50.0,50.0,50.0,50.0,10.157686123982394,-39.29319391846044,-40.14339232639538,0.0,0.0,0.0,0.0,0.0,0.0,0.0,0.0,0.0,0.0
0.54,53.561092182507615,38.311929967046986,34.72523552456588,50.0,50.0,50.0,50.0,50.0,50.0,50.0,50.0,50.0,50.0,10.157686123982394,-39.29319391846044,-40.14339232639538,0.0,0.0,0.0,0.0,0.0,0.0,0.0,0.0,0.0,0.0
0.55,53.66266904374744,37.918998027862386,34.32380160130193,50.0,50.0,50.0,50.0,50.0,50.0,50.0,50.0,50.0,50.0,10.157686123982394,-39.29319391846044,-40.14339232639538,0.0,0.0,0.0,0.0,0.0,0.0,0.0,0.0,0.0,0.0
0.56,53.76424590498726,37.52606608867777,33.92236767803798,50.0,50.0,50.0,50.0,50.0,50.0,50.0,50.0,50.0,50.0,10.157686123982394,-39.29319391846044,-40.14339232639538,0.0,0.0,0.0,0.0,0.0,0.0,0.0,0.0,0.0,0.0
0.57,53.86582276622708,37.13313414949317,33.52093375477403,50.0,50.0,50.0,50.0,50.0,50.0,50.0,50.0,50.0,50.0,10.157686123982394,-39.29319391846044,-40.14339232639538,0.0,0.0,0.0,0.0,0.0,0.0,0.0,0.0,0.0,0.0
0.58,53.96739962746691,36.740202210308574,33.11949983151007,50.0,50.0,50.0,50.0,50.0,50.0,50.0,50.0,50.0,50.0,10.157686123982394,-39.29319391846044,-40.14339232639538,0.0,0.0,0.0,0.0,0.0,0.0,0.0,0.0,0.0,0.0
0.59,54.06897648870674,36.34727027112396,32.71806590824612,50.0,50.0,50.0,50.0,50.0,50.0,50.0,50.0,50.0,50.0,10.157686123982394,-39.29319391846044,-40.14339232639538,0.0,0.0,0.0,0.0,0.0,0.0,0.0,0.0,0.0,0.0
0.6,54.17055334994656,35.954338331939354,32.316631984982166,50.0,50.0,50.0,50.0,50.0,50.0,50.0,50.0,50.0,50.0,10.157686123982394,-39.29319391846044,-40.14339232639538,0.0,0.0,0.0,0.0,0.0,0.0,0.0,0.0,0.0,0.0
0.61,54.272130211186386,35.561406392754755,31.915198061718208,50.0,50.0,50.0,50.0,50.0,50.0,50.0,50.0,50.0,50.0,10.157686123982394,-39.29319391846044,-40.14339232639538,0.0,0.0,0.0,0.0,0.0,0.0,0.0,0.0,0.0,0.0
0.62,54.37370707242621,35.168474453570155,31.513764138454253,50.0,50.0,50.0,50.0,50.0,50.0,50.0,50.0,50.0,50.0,10.157686123982394,-39.29319391846044,-40.14339232639538,0.0,0.0,0.0,0.0,0.0,0.0,0.0,0.0,0.0,0.0
0.63,54.475283933666034,34.77554251438555,31.112330215190305,50.0,50.0,50.0,50.0,50.0,50.0,50.0,50.0,50.0,50.0,10.157686123982394,-39.29319391846044,-40.14339232639538,0.0,0.0,0.0,0.0,0.0,0.0,0.0,0.0,0.0,0.0
0.64,54.576860794905855,34.38261057520094,30.711153117072577,50.0,50.0,50.0,50.0,50.0,50.0,50.0,50.0,50.0,50.0,10.157686123982394,-39.29319391846044,-39.889147355265045,0.0,0.0,0.0,0.0,0.0,0.0,0.0,0.0,0.0,0.0
0.65,54.678437656145675,33.989678636016336,30.318553911459293,50.0,50.0,50.0,50.0,50.0,50.0,50.0,50.0,50.0,50.0,10.157686123982394,-39.29319391846044,-38.63069376739128,0.0,0.0,0.0,0.0,0.0,0.0,0.0,0.0,0.0,0.0
0.66,54.78001451738551,33.59674669683173,29.938539241724747,50.0,50.0,50.0,50.0,50.0,50.0,50.0,50.0,50.0,50.0,10.157686123982394,-39.29319391846044,-37.372240179517505,0.0,0.0,0.0,0.0,0.0,0.0,0.0,0.0,0.0,0.0
0.67,54.88159137862533,33.20381475764713,29.571109107868942,50.0,50.0,50.0,50.0,50.0,50.0,50.0,50.0,50.0,50.0,10.157686123982394,-39.29319391846044,-36.11378659164374,0.0,0.0,0.0,0.0,0.0,0.0,0.0,0.0,0.0,0.0
0.68,54.98316823986515,32.810882818462524,29.216263509891874,50.0,50.0,50.0,50.0,50.0,50.0,50.0,50.0,50.0,50.0,10.157686123982394,-39.29319391846044,-34.85533300376997,0.0,0.0,0.0,0.0,0.0,0.0,0.0,0.0,0.0,0.0
0.69,55.08474510110497,32.417950879277925,28.874002447793547,50.0,50.0,50.0,50.0,50.0,50.0,50.0,50.0,50.0,50.0,10.157686123982394,-39.29319391846044,-33.59687941589622,0.0,0.0,0.0,0.0,0.0,0.0,0.0,0.0,0.0,0.0
0.7,55.186321962344806,32.02501894009332,28.54432592157395,50.0,50.0,50.0,50.0,50.0,50.0,50.0,50.0,50.0,50.0,10.157686123982394,-39.29319391846044,-32.338425828022444,0.0,0.0,0.0,0.0,0.0,0.0,0.0,0.0,0.0,0.0
0.71,55.28789882358463,31.632087000908715,28.227233931233094,50.0,50.0,50.0,50.0,50.0,50.0,50.0,50.0,50.0,50.0,10.157686123982394,-39.29319391846044,-31.079972240148678,0.0,0.0,0.0,0.0,0.0,0.0,0.0,0.0,0.0,0.0
0.72,55.38947568482445,31.239155061724105,27.922726476770976,50.0,50.0,50.0,50.0,50.0,50.0,50.0,50.0,50.0,50.0,10.157686123982394,-39.29319391846044,-29.82151865227491,0.0,0.0,0.0,0.0,0.0,0.0,0.0,0.0,0.0,0.0
0.73,55.491052546064275,30.846223122539502,27.630803558187594,50.0,50.0,50.0,50.0,50.0,50.0,50.0,50.0,50.0,50.0,10.157686123982394,-39.29319391846044,-28.563065064401144,0.0,0.0,0.0,0.0,0.0,0.0,0.0,0.0,0.0,0.0
0.74,55.592629407304095,30.4532911833549,27.351465175482957,50.0,50.0,50.0,50.0,50.0,50.0,50.0,50.0,50.0,50.0,10.157686123982394,-39.29319391846044,-27.304611476527374,0.0,0.0,0.0,0.0,0.0,0.0,0.0,0.0,0.0,0.0
0.75,55.69420626854392,30.060359244170293,27.08471132865705,50.0,50.0,50.0,50.0,50.0,50.0,50.0,50.0,50.0,50.0,10.157686123982394,-39.29319391846044,-26.046157888653607,0.0,0.0,0.0,0.0,0.0,0.0,0.0,0.0,0.0,0.0
0.76,55.79571071188402,29.667427304985694,26.83054201770988,50.0,50.0,50.0,50.0,50.0,50.0,50.0,50.0,50.0,50.0,10.095368823048613,-39.29319391846044,-24.787704300779836,0.0,0.0,0.0,0.0,0.0,0.0,0.0,0.0,0.0,0.0
0.77,55.89532376264418,29.274495365801087,26.58895724264145,50.0,50.0,50.0,50.0,50.0,50.0,50.0,50.0,50.0,50.0,9.827241328984158,-39.29319391846044,-23.52925071290607,0.0,0.0,0.0,0.0,0.0,0.0,0.0,0.0,0.0,0.0
0.78,55.9922555384637,28.88156342661648,26.35995700345176,50.0,50.0,50.0,50.0,50.0,50.0,50.0,50.0,50.0,50.0,9.559113834919703,-39.29319391846044,-22.2707971250323,0.0,0.0,0.0,0.0,0.0,0.0,0.0,0.0,0.0,0.0
0.79,56.086506039342574,28.488631487431878,26.143541300140807,50.0,50.0,50.0,50.0,50.0,50.0,50.0,50.0,50.0,50.0,9.290986340855246,-39.29319391846044,-21.012343537158532,0.0,0.0,0.0,0.0,0.0,0.0,0.0,0.0,0.0,0.0
0.8,56.17807526528081,28.095699548247268,25.939710132708587,50.0,50.0,50.0,50.0,50.0,50.0,50.0,50.0,50.0,50.0,9.022858846790792,-39.29319391846044,-19.753889949284765,0.0,0.0,0.0,0.0,0.0,0.0,0.0,0.0,0.0,0.0
0.81,56.26696321627839,27.70276760906267,25.74846350115511,50.0,50.0,50.0,50.0,50.0,50.0,50.0,50.0,50.0,50.0,8.754731352726337,-39.29319391846044,-18.495436361410995,0.0,0.0,0.0,0.0,0.0,0.0,0.0,0.0,0.0,0.0
0.82,56.35316989233534,27.309835669878062,25.56980140548037,50.0,50.0,50.0,50.0,50.0,50.0,50.0,50.0,50.0,50.0,8.486603858661885,-39.29319391846044,-17.23698277353724,0.0,0.0,0.0,0.0,0.0,0.0,0.0,0.0,0.0,0.0
0.83,56.43669529345163,26.91690373069346,25.403723845684368,50.0,50.0,50.0,50.0,50.0,50.0,50.0,50.0,50.0,50.0,8.21847636459743,-39.29319391846044,-15.978529185663472,0.0,0.0,0.0,0.0,0.0,0.0,0.0,0.0,0.0,0.0
0.84,56.51753941962728,26.523971791508853,25.2502308217671,50.0,50.0,50.0,50.0,50.0,50.0,50.0,50.0,50.0,50.0,7.950348870532975,-39.29319391846044,-14.720075597789704,0.0,0.0,0.0,0.0,0.0,0.0,0.0,0.0,0.0,0.0
0.85,56.59570227086229,26.13103985232425,25.109322333728574,50.0,50.0,50.0,50.0,50.0,50.0,50.0,50.0,50.0,50.0,7.68222137646852,-39.29319391846044,-13.461622009915933,0.0,0.0,0.0,0.0,0.0,0.0,0.0,0.0,0.0,0.0
0.86,56.67118384715665,25.738107913139643,24.98099838156878,50.0,50.0,50.0,50.0,50.0,50.0,50.0,50.0,50.0,50.0,7.414093882404065,-39.29319391846044,-12.203168422042166,0.0,0.0,0.0,0.0,0.0,0.0,0.0,0.0,0.0,0.0
0.87,56.74398414851037,25.34517597395504,24.865258965287726,50.0,50.0,50.0,50.0,50.0,50.0,50.0,50.0,50.0,50.0,7.14596638833961,-39.29319391846044,-10.944714834168398,0.0,0.0,0.0,0.0,0.0,0.0,0.0,0.0,0.0,0.0
0.88,56.814103174923446,24.952244034770438,24.762104084885415,50.0,50.0,50.0,50.0,50.0,50.0,50.0,50.0,50.0,50.0,6.877838894275155,-39.29319391846044,-9.68626124629463,0.0,0.0,0.0,0.0,0.0,0.0,0.0,0.0,0.0,0.0
0.89,56.88154092639587,24.559312095585828,24.671533740361838,50.0,50.0,50.0,50.0,50.0,50.0,50.0,50.0,50.0,50.0,6.609711400210699,-39.29319391846044,-8.42780765842086,0.0,0.0,0.0,0.0,0.0,0.0,0.0,0.0,0.0,0.0
0.9,56.946297402927655,24.16638015640123,24.593547931716994,50.0,50.0,50.0,50.0,50.0,50.0,50.0,50.0,50.0,50.0,6.341583906146244,-39.29319391846044,-7.169354070547091,0.0,0.0,0.0,0.0,0.0,0.0,0.0,0.0,0.0,0.0
0.91,57.008372604518804,23.773448217216618,24.528146658950895,50.0,50.0,50.0,50.0,50.0,50.0,50.0,50.0,50.0,50.0,6.073456412081789,-39.29319391846044,-5.910900482673323,0.0,0.0,0.0,0.0,0.0,0.0,0.0,0.0,0.0,0.0
0.92,57.0677665311693,23.380516278032015,24.47532992206353,50.0,50.0,50.0,50.0,50.0,50.0,50.0,50.0,50.0,50.0,5.8053289180173335,-39.29319391846044,-4.652446894799555,0.0,0.0,0.0,0.0,0.0,0.0,0.0,0.0,0.0,0.0
0.93,57.12447918287914,22.987584338847412,24.435097721054905,50.0,50.0,50.0,50.0,50.0,50.0,50.0,50.0,50.0,50.0,5.537201423952879,-39.29319391846044,-3.3939933069257866,0.0,0.0,0.0,0.0,0.0,0.0,0.0,0.0,0.0,0.0
0.94,57.17851055964835,22.594652399662813,24.40745005592501,50.0,50.0,50.0,50.0,50.0,50.0,50.0,50.0,50.0,50.0,5.269073929888427,-39.29319391846044,-2.1355397190520318,0.0,0.0,0.0,0.0,0.0,0.0,0.0,0.0,0.0,0.0
0.95,57.22986066147691,22.201720460478214,24.392386926673865,50.0,50.0,50.0,50.0,50.0,50.0,50.0,50.0,50.0,50.0,5.0009464358239715,-39.29319391846044,-0.8770861311782632,0.0,0.0,0.0,0.0,0.0,0.0,0.0,0.0,0.0,0.0
0.96,57.27852948836483,21.808788521293607,24.38967209933944,50.0,50.0,50.0,50.0,50.0,50.0,50.0,50.0,50.0,50.0,4.732818941759517,-39.29319391846044,0.22546035353185204,0.0,0.0,0.0,0.0,0.0,0.0,0.0,0.0,0.0,0.0
0.97,57.3245170403121,21.415856582109,24.395646624250375,50.0,50.0,50.0,50.0,50.0,50.0,50.0,50.0,50.0,50.0,4.464691447695062,-39.29319391846044,0.9694446286557429,0.0,0.0,0.0,0.0,0.0,0.0,0.0,0.0,0.0,0.0
0.98,57.36782331731874,21.02683944981242,24.40906099191255,50.0,50.0,50.0,50.0,50.0,50.0,50.0,50.0,50.0,50.0,4.196563953630606,-38.496814092099676,1.7134289037796337,0.0,0.0,0.0,0.0,0.0,0.0,0.0,0.0,0.0,0.0
0.99,57.40844831938472,20.64592145009874,24.42991520232597,50.0,50.0,50.0,50.0,50.0,50.0,50.0,50.0,50.0,50.0,3.928436459566151,-37.68678585063762,2.4574131789035247,0.0,0.0,0.0,0.0,0.0,0.0,0.0,0.0,0.0,0.0
1.0,57.446392046510056,20.27310373279967,24.458209255490623,50.0,50.0,50.0,50.0,50.0,50.0,50.0,50.0,50.0,50.0,3.6603089655016956,-36.87675760917556,3.201397454027416,0.0,0.0,0.0,0.0,0.0,0.0,0.0,0.0,0.0,0.0
1.01,57.48165449869475,19.90838629791522,24.493943151406512,50.0,50.0,50.0,50.0,50.0,50.0,50.0,50.0,50.0,50.0,3.3921814714372407,-36.0667293677135,3.9453817291513067,0.0,0.0,0.0,0.0,0.0,0.0,0.0,0.0,0.0,0.0
1.02,57.5142356759388,19.551769145445398,24.537116890073648,50.0,50.0,50.0,50.0,50.0,50.0,50.0,50.0,50.0,50.0,3.124053977372786,-35.25670112625144,4.689366004275198,0.0,0.0,0.0,0.0,0.0,0.0,0.0,0.0,0.0,0.0
1.03,57.54413557824221,19.20325227539019,24.58773047149202,50.0,50.0,50.0,50.0,50.0,50.0,50.0,50.0,50.0,50.0,2.8559264833083304,-34.446672884789386,5.433350279399089,0.0,0.0,0.0,0.0,0.0,0.0,0.0,0.0,0.0,0.0
1.04,57.57135420560497,18.86283568774961,24.64578389566163,50.0,50.0,50.0,50.0,50.0,50.0,50.0,50.0,50.0,50.0,2.587798989243875,-33.63664464332733,6.17733455452298,0.0,0.0,0.0,0.0,0.0,0.0,0.0,0.0,0.0,0.0
1.05,57.595891558027084,18.530519382523643,24.711277162582476,50.0,50.0,50.0,50.0,50.0,50.0,50.0,50.0,50.0,50.0,2.31967149517942,-32.826616401865266,6.921318829646871,0.0,0.0,0.0,0.0,0.0,0.0,0.0,0.0,0.0,0.0
1.06,57.61774763550856,18.2063033597123,24.78421027225457,50.0,50.0,50.0,50.0,50.0,50.0,50.0,50.0,50.0,50.0,2.051544001114965,-32.01658816040321,7.665303104770762,0.0,0.0,0.0,0.0,0.0,0.0,0.0,0.0,0.0,0.0
1.07,57.63692243804938,17.890187619315583,24.864583224677897,50.0,50.0,50.0,50.0,50.0,50.0,50.0,50.0,50.0,50.0,1.78341650705051,-31.206559918941156,8.409287379894652,0.0,0.0,0.0,0.0,0.0,0.0,0.0,0.0,0.0,0.0
1.08,57.653415965649565,17.582172161333478,24.95239601985246,50.0,50.0,50.0,50.0,50.0,50.0,50.0,50.0,50.0,50.0,1.5152890129860546,-30.396531677479093,9.153271655018543,0.0,0.0,0.0,0.0,0.0,0.0,0.0,0.0,0.0,0.0
1.09,57.6672282183091,17.282256985765997,25.047648657778268,50.0,50.0,50.0,50.0,50.0,50.0,50.0,50.0,50.0,50.0,1.2471615189215997,-29.586503436017036,9.897255930142435,0.0,0.0,0.0,0.0,0.0,0.0,0.0,0.0,0.0,0.0
1.1,57.678359196028,16.99044209261314,25.15034113845531,50.0,50.0,50.0,50.0,50.0,50.0,50.0,50.0,50.0,50.0,0.9790340248571444,-28.77647519455498,10.641240205266325,0.0,0.0,0.0,0.0,0.0,0.0,0.0,0.0,0.0,0.0
1.11,57.68680889880625,16.7067274818749,25.260473461883596,50.0,50.0,50.0,50.0,50.0,50.0,50.0,50.0,50.0,50.0,0.7109065307926893,-27.96644695309292,11.385224480390216,0.0,0.0,0.0,0.0,0.0,0.0,0.0,0.0,0.0,0.0
1.12,57.69257732664386,16.43111315355128,25.378045628063116,50.0,50.0,50.0,50.0,50.0,50.0,50.0,50.0,50.0,50.0,0.44277903672823415,-27.156418711630863,12.129208755514108,0.0,0.0,0.0,0.0,0.0,0.0,0.0,0.0,0.0,0.0
1.13,57.69566447954081,16.163599107642288,25.503057636993873,50.0,50.0,50.0,50.0,50.0,50.0,50.0,50.0,50.0,50.0,0.17465154266378494,-26.34639047016882,12.873193030637982,0.0,0.0,0.0,0.0,0.0,0.0,0.0,0.0,0.0,0.0
1.14,57.69606322251133,15.904185344147908,25.63550948867587,50.0,50.0,50.0,50.0,50.0,50.0,50.0,50.0,50.0,50.0,-0.09756916646485686,-25.536362228706764,13.617177305761873,0.0,0.0,0.0,0.0,0.0,0.0,0.0,0.0,0.0,0.0
1.15,57.69368818825053,15.65287186306815,25.77540118310911,50.0,50.0,50.0,50.0,50.0,50.0,50.0,50.0,50.0,50.0,-0.37743768569548514,-24.726333987244704,14.361161580885764,0.0,0.0,0.0,0.0,0.0,0.0,0.0,0.0,0.0,0.0
1.16,57.68851446879742,15.409658664403015,25.922732720293585,50.0,50.0,50.0,50.0,50.0,50.0,50.0,50.0,50.0,50.0,-0.6573062049261135,-23.916305745782648,15.105145856009655,0.0,0.0,0.0,0.0,0.0,0.0,0.0,0.0,0.0,0.0
1.17,57.68054206415201,15.174545748152498,26.0775041002293,50.0,50.0,50.0,50.0,50.0,50.0,50.0,50.0,50.0,50.0,-0.9371747241567417,-23.10627750432059,15.849130131133546,0.0,0.0,0.0,0.0,0.0,0.0,0.0,0.0,0.0,0.0
1.18,57.66977097431428,14.947533114316599,26.23971532291626,50.0,50.0,50.0,50.0,50.0,50.0,50.0,50.0,50.0,50.0,-1.21704324338737,-22.296249262858534,16.593114406257435,0.0,0.0,0.0,0.0,0.0,0.0,0.0,0.0,0.0,0.0
1.19,57.65620119928426,14.728620762895329,26.409366388354453,50.0,50.0,50.0,50.0,50.0,50.0,50.0,50.0,50.0,50.0,-1.4969117626179984,-21.48622102139647,17.337098681381327,0.0,0.0,0.0,0.0,0.0,0.0,0.0,0.0,0.0,0.0
1.2,57.63983273906193,14.517808693888675,26.586457296543884,50.0,50.0,50.0,50.0,50.0,50.0,50.0,50.0,50.0,50.0,-1.7767802818486267,-20.676192779934414,18.081082956505217,0.0,0.0,0.0,0.0,0.0,0.0,0.0,0.0,0.0,0.0
1.21,57.62066559364729,14.315096907296637,26.770988047484554,50.0,50.0,50.0,50.0,50.0,50.0,50.0,50.0,50.0,50.0,-2.056648801079255,-19.866164538472358,18.82506723162911,0.0,0.0,0.0,0.0,0.0,0.0,0.0,0.0,0.0,0.0
1.22,57.598699763040344,14.120485403119224,26.962958641176467,50.0,50.0,50.0,50.0,50.0,50.0,50.0,50.0,50.0,50.0,-2.3365173203098832,-19.056136297010298,19.569051506753,0.0,0.0,0.0,0.0,0.0,0.0,0.0,0.0,0.0,0.0
1.23,57.573935247241096,13.933974181356433,27.16236907761962,50.0,50.0,50.0,50.0,50.0,50.0,50.0,50.0,50.0,50.0,-2.6163858395405115,-18.24610805554824,20.313035781876895,0.0,0.0,0.0,0.0,0.0,0.0,0.0,0.0,0.0,0.0
1.24,57.54637204624954,13.755563242008257,27.369219356814007,50.0,50.0,50.0,50.0,50.0,50.0,50.0,50.0,50.0,50.0,-2.8962543587711402,-17.436079814086185,21.057020057000784,0.0,0.0,0.0,0.0,0.0,0.0,0.0,0.0,0.0,0.0
1.25,57.51601016006566,13.585252585074706,27.583509478759634,50.0,50.0,50.0,50.0,50.0,50.0,50.0,50.0,50.0,50.0,-3.176122878001768,-16.626051572624124,21.801004332124673,0.0,0.0,0.0,0.0,0.0,0.0,0.0,0.0,0.0,0.0
1.26,57.4828495886895,13.423042210555776,27.8052394434565,50.0,50.0,50.0,50.0,50.0,50.0,50.0,50.0,50.0,50.0,-3.4559913972323963,-15.816023331162066,22.544988607248563,0.0,0.0,0.0,0.0,0.0,0.0,0.0,0.0,0.0,0.0
1.27,57.446890332121015,13.268932118451463,28.034409250904606,50.0,50.0,50.0,50.0,50.0,50.0,50.0,50.0,50.0,50.0,-3.7358599164630246,-15.005995089700008,23.288972882372455,0.0,0.0,0.0,0.0,0.0,0.0,0.0,0.0,0.0,0.0
1.28,57.40813239036023,13.122922308761774,28.27101890110395,50.0,50.0,50.0,50.0,50.0,50.0,50.0,50.0,50.0,50.0,-4.015728435693653,-14.19596684823795,24.032957157496345,0.0,0.0,0.0,0.0,0.0,0.0,0.0,0.0,0.0,0.0
1.29,57.36657576340714,12.985012781486708,28.515068394054534,50.0,50.0,50.0,50.0,50.0,50.0,50.0,50.0,50.0,50.0,-4.295596954924282,-13.385938606775891,24.776941432620237,0.0,0.0,0.0,0.0,0.0,0.0,0.0,0.0,0.0,0.0
1.3,57.32222045126174,12.855203536626258,28.766557729756354,50.0,50.0,50.0,50.0,50.0,50.0,50.0,50.0,50.0,50.0,-4.5754654741549095,-12.575910365313833,25.52092570774413,0.0,0.0,0.0,0.0,0.0,0.0,0.0,0.0,0.0,0.0
1.31,57.27506645392404,12.73349457418043,29.025486908209416,50.0,50.0,50.0,50.0,50.0,50.0,50.0,50.0,50.0,50.0,-4.855333993385538,-11.765882123851776,26.26490998286802,0.0,0.0,0.0,0.0,0.0,0.0,0.0,0.0,0.0,0.0
1.32,57.225113771394035,12.619885894149224,29.291855929413714,50.0,50.0,50.0,50.0,50.0,50.0,50.0,50.0,50.0,50.0,-5.135202512616166,-10.955853882389716,27.00889425799191,0.0,0.0,0.0,0.0,0.0,0.0,0.0,0.0,0.0,0.0
1.33,57.17236240367173,12.514377496532637,29.56566479336925,50.0,50.0,50.0,50.0,50.0,50.0,50.0,50.0,50.0,50.0,-5.415071031846795,-10.14582564092766,27.7528785331158,0.0,0.0,0.0,0.0,0.0,0.0,0.0,0.0,0.0,0.0
1.34,57.1168123507571,12.416969381330667,29.84691350007603,50.0,50.0,50.0,50.0,50.0,50.0,50.0,50.0,50.0,50.0,-5.694939551077423,-9.335797399465601,28.49686280823969,0.0,0.0,0.0,0.0,0.0,0.0,0.0,0.0,0.0,0.0
1.35,57.05846361265017,12.327661548543324,30.13560204953405,50.0,50.0,50.0,50.0,50.0,50.0,50.0,50.0,50.0,50.0,-5.974808070308051,-8.525769158003543,29.24084708336358,0.0,0.0,0.0,0.0,0.0,0.0,0.0,0.0,0.0,0.0
1.36,56.99731618935093,12.246453998170598,30.4317304417433,50.0,50.0,50.0,50.0,50.0,50.0,50.0,50.0,50.0,50.0,-6.254676589538679,-7.715740916541485,29.984831358487476,0.0,0.0,0.0,0.0,0.0,0.0,0.0,0.0,0.0,0.0
1.37,56.9333700808594,12.173346730212495,30.7352986767038,50.0,50.0,50.0,50.0,50.0,50.0,50.0,50.0,50.0,50.0,-6.534545108769308,-6.9057126750794255,30.728815633611365,0.0,0.0,0.0,0.0,0.0,0.0,0.0,0.0,0.0,0.0
1.38,56.86662528717555,12.10833974466901,31.046306754415525,50.0,50.0,50.0,50.0,50.0,50.0,50.0,50.0,50.0,50.0,-6.8144136279999294,-6.095684433617386,31.47279990873524,0.0,0.0,0.0,0.0,0.0,0.0,0.0,0.0,0.0,0.0
1.39,56.7970818082994,12.051433041540147,31.364754674878498,50.0,50.0,50.0,50.0,50.0,50.0,50.0,50.0,50.0,50.0,-7.094282147230558,-5.285656192155328,32.21678418385913,0.0,0.0,0.0,0.0,0.0,0.0,0.0,0.0,0.0,0.0
1.4,56.724739644230944,12.002626620825906,31.69064243809271,50.0,50.0,50.0,50.0,50.0,50.0,50.0,50.0,50.0,50.0,-7.374150666461187,-4.475627950693269,32.96076845898302,0.0,0.0,0.0,0.0,0.0,0.0,0.0,0.0,0.0,0.0
1.41,56.64996088735429,11.961920482526283,32.02397004405816,50.0,50.0,50.0,50.0,50.0,50.0,50.0,50.0,50.0,50.0,-7.511654682134642,-3.665599709231211,33.70475273410691,0.0,0.0,0.0,0.0,0.0,0.0,0.0,0.0,0.0,0.0
1.42,56.57484434053294,11.92931462664128,32.36473749277485,50.0,50.0,50.0,50.0,50.0,50.0,50.0,50.0,50.0,50.0,-7.511654682134642,-2.855571467769153,34.448737009230804,0.0,0.0,0.0,0.0,0.0,0.0,0.0,0.0,0.0,0.0
1.43,56.4997277937116,11.904809053170899,32.71294478424277,50.0,50.0,50.0,50.0,50.0,50.0,50.0,50.0,50.0,50.0,-7.511654682134642,-2.045543226307095,35.1927212843547,0.0,0.0,0.0,0.0,0.0,0.0,0.0,0.0,0.0,0.0
1.44,56.42461124689025,11.888403762115137,33.06859191846194,50.0,50.0,50.0,50.0,50.0,50.0,50.0,50.0,50.0,50.0,-7.511654682134642,-1.2355149848450369,35.93670555947858,0.0,0.0,0.0,0.0,0.0,0.0,0.0,0.0,0.0,0.0
1.45,56.3494947000689,11.880098753474,33.43167889543235,50.0,50.0,50.0,50.0,50.0,50.0,50.0,50.0,50.0,50.0,-7.511654682134642,-0.42548674338297865,36.680689834602475,0.0,0.0,0.0,0.0,0.0,0.0,0.0,0.0,0.0,0.0
1.46,56.274378153247554,11.879619138046287,33.79887654644713,50.0,50.0,50.0,50.0,50.0,50.0,50.0,50.0,50.0,50.0,-7.511654682134642,0.2687318820297646,36.72084896565551,0.0,0.0,0.0,0.0,0.0,0.0,0.0,0.0,0.0,0.0
1.47,56.199261606426205,11.885136845978199,34.166085036103695,50.0,50.0,50.0,50.0,50.0,50.0,50.0,50.0,50.0,50.0,-7.511654682134642,0.8348097043525827,36.72084896565551,0.0,0.0,0.0,0.0,0.0,0.0,0.0,0.0,0.0,0.0
1.48,56.12414505960487,11.896315332133339,34.53329352576025,50.0,50.0,50.0,50.0,50.0,50.0,50.0,50.0,50.0,50.0,-7.511654682134642,1.4008875266754008,36.72084896565551,0.0,0.0,0.0,0.0,0.0,0.0,0.0,0.0,0.0,0.0
1.49,56.04902851278352,11.913154596511708,34.900502015416805,50.0,50.0,50.0,50.0,50.0,50.0,50.0,50.0,50.0,50.0,-7.511654682134642,1.966965348998219,36.72084896565551,0.0,0.0,0.0,0.0,0.0,0.0,0.0,0.0,0.0,0.0
1.5,55.973911965962174,11.935654639113302,35.26771050507336,50.0,50.0,50.0,50.0,50.0,50.0,50.0,50.0,50.0,50.0,-7.511654682134642,2.533043171321037,36.72084896565551,0.0,0.0,0.0,0.0,0.0,0.0,0.0,0.0,0.0,0.0
1.51,55.898795419140825,11.963815459938129,35.634918994729915,50.0,50.0,50.0,50.0,50.0,50.0,50.0,50.0,50.0,50.0,-7.511654682134642,3.0991209936438557,36.72084896565551,0.0,0.0,0.0,0.0,0.0,0.0,0.0,0.0,0.0,0.0
1.52,55.823678872319476,11.99763705898618,36.00212748438648,50.0,50.0,50.0,50.0,50.0,50.0,50.0,50.0,50.0,50.0,-7.511654682134642,3.665198815966673,36.72084896565551,0.0,0.0,0.0,0.0,0.0,0.0,0.0,0.0,0.0,0.0
1.53,55.74856232549813,12.037119436257461,36.369335974043025,50.0,50.0,50.0,50.0,50.0,50.0,50.0,50.0,50.0,50.0,-7.511654682134642,4.231276638289492,36.72084896565551,0.0,0.0,0.0,0.0,0.0,0.0,0.0,0.0,0.0,0.0
1.54,55.67344577867678,12.08226259175197,36.73654446369958,50.0,50.0,50.0,50.0,50.0,50.0,50.0,50.0,50.0,50.0,-7.511654682134642,4.79735446061231,36.72084896565551,0.0,0.0,0.0,0.0,0.0,0.0,0.0,0.0,0.0,0.0
1.55,55.59832923185544,12.133066525469706,37.103752953356135,50.0,50.0,50.0,50.0,50.0,50.0,50.0,50.0,50.0,50.0,-7.511654682134642,5.363432282935128,36.72084896565551,0.0,0.0,0.0,0.0,0.0,0.0,0.0,0.0,0.0,0.0
1.56,55.523212685034096,12.189531237410673,37.47096144301269,50.0,50.0,50.0,50.0,50.0,50.0,50.0,50.0,50.0,50.0,-7.511654682134642,5.929510105257946,36.72084896565551,0.0,0.0,0.0,0.0,0.0,0.0,0.0,0.0,0.0,0.0
1.57,55.44809613821275,12.251656727574865,37.838169932669246,50.0,50.0,50.0,50.0,50.0,50.0,50.0,50.0,50.0,50.0,-7.511654682134642,6.495587927580765,36.72084896565551,0.0,0.0,0.0,0.0,0.0,0.0,0.0,0.0,0.0,0.0
1.58,55.3729795913914,12.319442995962289,38.20537842232581,50.0,50.0,50.0,50.0,50.0,50.0,50.0,50.0,50.0,50.0,-7.511654682134642,7.061665749903582,36.72084896565551,0.0,0.0,0.0,0.0,0.0,0.0,0.0,0.0,0.0,0.0
1.59,55.29786304457005,12.392890042572938,38.572586911982356,50.0,50.0,50.0,50.0,50.0,50.0,50.0,50.0,50.0,50.0,-7.511654682134642,7.627743572226401,36.72084896565551,0.0,0.0,0.0,0.0,0.0,0.0,0.0,0.0,0.0,0.0
1.6,55.2227464977487,12.471997867406817,38.93979540163892,50.0,50.0,50.0,50.0,50.0,50.0,50.0,50.0,50.0,50.0,-7.511654682134642,8.19382139454922,36.72084896565551,0.0,0.0,0.0,0.0,0.0,0.0,0.0,0.0,0.0,0.0
1.61,55.14762995092736,12.556766470463923,39.30700389129547,50.0,50.0,50.0,50.0,50.0,50.0,50.0,50.0,50.0,50.0,-7.511654682134642,8.759899216872038,36.72084896565551,0.0,0.0,0.0,0.0,0.0,0.0,0.0,0.0,0.0,0.0
1.62,55.07251340410602,12.647195851744257,39.67421238095203,50.0,50.0,50.0,50.0,50.0,50.0,50.0,50.0,50.0,50.0,-7.511654682134642,9.325977039194855,36.72084896565551,0.0,0.0,0.0,0.0,0.0,0.0,0.0,0.0,0.0,0.0
1.63,54.99739685728467,12.743286011247818,40.04142087060857,50.0,50.0,50.0,50.0,50.0,50.0,50.0,50.0,50.0,50.0,-7.511654682134642,9.892054861517662,36.72084896565551,0.0,0.0,0.0,0.0,0.0,0.0,0.0,0.0,0.0,0.0
1.64,54.92228031046332,12.84503694897461,40.40862936026513,50.0,50.0,50.0,50.0,50.0,50.0,50.0,50.0,50.0,50.0,-7.511654682134642,10.458132683840478,36.72084896565551,0.0,0.0,0.0,0.0,0.0,0.0,0.0,0.0,0.0,0.0
1.65,54.84716376364197,12.952448664924628,40.775837849921686,50.0,50.0,50.0,50.0,50.0,50.0,50.0,50.0,50.0,50.0,-7.511654682134642,11.024210506163296,36.72084896565551,0.0,0.0,0.0,0.0,0.0,0.0,0.0,0.0,0.0,0.0
1.66,54.77204721682063,13.065521159097875,41.14304633957824,50.0,50.0,50.0,50.0,50.0,50.0,50.0,50.0,50.0,50.0,-7.511654682134642,11.590288328486116,36.72084896565551,0.0,0.0,0.0,0.0,0.0,0.0,0.0,0.0,0.0,0.0
1.67,54.69693066999928,13.18425443149435,41.510254829234796,50.0,50.0,50.0,50.0,50.0,50.0,50.0,50.0,50.0,50.0,-7.511654682134642,12.156366150808934,36.72084896565551,0.0,0.0,0.0,0.0,0.0,0.0,0.0,0.0,0.0,0.0
1.68,54.62243993143333,13.308648482114053,41.877463318891344,50.0,50.0,50.0,50.0,50.0,50.0,50.0,50.0,50.0,50.0,-7.3244948414851505,12.722443973131753,36.72084896565551,0.0,0.0,0.0,0.0,0.0,0.0,0.0,0.0,0.0,0.0
1.69,54.55059432561463,13.438703310956985,42.244671808547906,50.0,50.0,50.0,50.0,50.0,50.0,50.0,50.0,50.0,50.0,-7.044626322254523,13.288521795454571,36.72084896565551,0.0,0.0,0.0,0.0,0.0,0.0,0.0,0.0,0.0,0.0
1.7,54.48154740498824,13.574418918023145,42.61188029820446,50.0,50.0,50.0,50.0,50.0,50.0,50.0,50.0,50.0,50.0,-6.764757803023894,13.854599617777387,36.72084896565551,0.0,0.0,0.0,0.0,0.0,0.0,0.0,0.0,0.0,0.0
1.71,54.41529916955415,13.715795303312532,42.979088787861016,50.0,50.0,50.0,50.0,50.0,50.0,50.0,50.0,50.0,50.0,-6.484889283793266,14.420677440100206,36.72084896565551,0.0,0.0,0.0,0.0,0.0,0.0,0.0,0.0,0.0,0.0
1.72,54.351849619312375,13.86283246682515,43.34629727751757,50.0,50.0,50.0,50.0,50.0,50.0,50.0,50.0,50.0,50.0,-6.205020764562638,14.986755262423026,36.72084896565551,0.0,0.0,0.0,0.0,0.0,0.0,0.0,0.0,0.0,0.0
1.73,54.2911987542629,14.015530408560993,43.71350576717413,50.0,50.0,50.0,50.0,50.0,50.0,50.0,50.0,50.0,50.0,-5.92515224533201,15.552833084745842,36.72084896565551,0.0,0.0,0.0,0.0,0.0,0.0,0.0,0.0,0.0,0.0
1.74,54.23334657440573,14.173889128520067,44.08071425683069,50.0,50.0,50.0,50.0,50.0,50.0,50.0,50.0,50.0,50.0,-5.645283726101381,16.11891090706866,36.72084896565551,0.0,0.0,0.0,0.0,0.0,0.0,0.0,0.0,0.0,0.0
1.75,54.178293079740875,14.337908626702369,44.44792274648724,50.0,50.0,50.0,50.0,50.0,50.0,50.0,50.0,50.0,50.0,-5.365415206870752,16.684988729391478,36.72084896565551,0.0,0.0,0.0,0.0,0.0,0.0,0.0,0.0,0.0,0.0
1.76,54.12603827026832,14.507588903107898,44.8151312361438,50.0,50.0,50.0,50.0,50.0,50.0,50.0,50.0,50.0,50.0,-5.085546687640124,17.251066551714295,36.72084896565551,0.0,0.0,0.0,0.0,0.0,0.0,0.0,0.0,0.0,0.0
1.77,54.07658214598807,14.682929957736654,45.18233972580035,50.0,50.0,50.0,50.0,50.0,50.0,50.0,50.0,50.0,50.0,-4.805678168409496,17.817144374037117,36.72084896565551,0.0,0.0,0.0,0.0,0.0,0.0,0.0,0.0,0.0,0.0
1.78,54.029924706900125,14.863931790588637,45.54954821545691,50.0,50.0,50.0,50.0,50.0,50.0,50.0,50.0,50.0,50.0,-4.525809649178868,18.383222196359934,36.72084896565551,0.0,0.0,0.0,0.0,0.0,0.0,0.0,0.0,0.0,0.0
1.79,53.98606595300449,15.050594401663854,45.91675670511346,50.0,50.0,50.0,50.0,50.0,50.0,50.0,50.0,50.0,50.0,-4.245941129948239,18.949300018682752,36.72084896565551,0.0,0.0,0.0,0.0,0.0,0.0,0.0,0.0,0.0,0.0
1.8,53.94500588430117,15.242917790962295,46.28396519477002,50.0,50.0,50.0,50.0,50.0,50.0,50.0,50.0,50.0,50.0,-3.966072610717611,19.51537784100557,36.72084896565551,0.0,0.0,0.0,0.0,0.0,0.0,0.0,0.0,0.0,0.0
1.81,53.90674450079015,15.440901958483966,46.651173684426574,50.0,50.0,50.0,50.0,50.0,50.0,50.0,50.0,50.0,50.0,-3.686204091486983,20.081455663328388,36.72084896565551,0.0,0.0,0.0,0.0,0.0,0.0,0.0,0.0,0.0,0.0
1.82,53.87128180247142,15.643141288695778,47.01838217408313,50.0,50.0,50.0,50.0,50.0,50.0,50.0,50.0,50.0,50.0,-3.4063355722563546,20.24861299733499,36.72084896565551,0.0,0.0,0.0,0.0,0.0,0.0,0.0,0.0,0.0,0.0
1.83,53.838617789345015,15.845627418669128,47.385590663739684,50.0,50.0,50.0,50.0,50.0,50.0,50.0,50.0,50.0,50.0,-3.126467053025726,20.24861299733499,36.72084896565551,0.0,0.0,0.0,0.0,0.0,0.0,0.0,0.0,0.0,0.0
1.84,53.80875246141091,16.048113548642476,47.75279915339624,50.0,50.0,50.0,50.0,50.0,50.0,50.0,50.0,50.0,50.0,-2.8465985337950976,20.24861299733499,36.72084896565551,0.0,0.0,0.0,0.0,0.0,0.0,0.0,0.0,0.0,0.0
1.85,53.78168581866911,16.250599678615828,48.120007643052794,50.0,50.0,50.0,50.0,50.0,50.0,50.0,50.0,50.0,50.0,-2.5667300145644694,20.24861299733499,36.72084896565551,0.0,0.0,0.0,0.0,0.0,0.0,0.0,0.0,0.0,0.0
1.86,53.75741786111962,16.45308580858918,48.48721613270935,50.0,50.0,50.0,50.0,50.0,50.0,50.0,50.0,50.0,50.0,-2.2868614953338415,20.24861299733499,36.72084896565551,0.0,0.0,0.0,0.0,0.0,0.0,0.0,0.0,0.0,0.0
1.87,53.73594858876244,16.655571938562527,48.854424622365904,50.0,50.0,50.0,50.0,50.0,50.0,50.0,50.0,50.0,50.0,-2.0069929761032133,20.24861299733499,36.72084896565551,0.0,0.0,0.0,0.0,0.0,0.0,0.0,0.0,0.0,0.0
1.88,53.717278001597556,16.858058068535875,49.22163311202245,50.0,50.0,50.0,50.0,50.0,50.0,50.0,50.0,50.0,50.0,-1.727124456872591,20.24861299733499,36.72084896565551,0.0,0.0,0.0,0.0,0.0,0.0,0.0,0.0,0.0,0.0
1.89,53.70140609962498,17.060544198509223,49.58884160167901,50.0,50.0,50.0,50.0,50.0,50.0,50.0,50.0,50.0,50.0,-1.4472559376419627,20.24861299733499,36.72084896565551,0.0,0.0,0.0,0.0,0.0,0.0,0.0,0.0,0.0,0.0
1.9,53.68833288284472,17.26303032848257,49.95605009133556,50.0,50.0,50.0,50.0,50.0,50.0,50.0,50.0,50.0,50.0,-1.1673874184113344,20.24861299733499,36.72084896565551,0.0,0.0,0.0,0.0,0.0,0.0,0.0,0.0,0.0,0.0
1.91,53.67805835125676,17.465516458455923,50.32325858099212,50.0,50.0,50.0,50.0,50.0,50.0,50.0,50.0,50.0,50.0,-0.887518899180706,20.24861299733499,36.72084896565551,0.0,0.0,0.0,0.0,0.0,0.0,0.0,0.0,0.0,0.0
1.92,53.6705825048611,17.668002588429275,50.69046707064867,50.0,50.0,50.0,50.0,50.0,50.0,50.0,50.0,50.0,50.0,-0.6076503799500779,20.24861299733499,36.72084896565551,0.0,0.0,0.0,0.0,0.0,0.0,0.0,0.0,0.0,0.0
1.93,53.665905343657755,17.870488718402626,51.05767556030523,50.0,50.0,50.0,50.0,50.0,50.0,50.0,50.0,50.0,50.0,-0.3277818607194495,20.24861299733499,36.72084896565551,0.0,0.0,0.0,0.0,0.0,0.0,0.0,0.0,0.0,0.0
1.94,53.66402686764671,18.072974848375974,51.42488404996178,50.0,50.0,50.0,50.0,50.0,50.0,50.0,50.0,50.0,50.0,-0.0479133414888212,20.24861299733499,36.72084896565551,0.0,0.0,0.0,0.0,0.0,0.0,0.0,0.0,0.0,0.0
1.95,53.66103021689209,18.275460978349322,51.79080202712751,50.0,50.0,50.0,50.0,50.0,50.0,50.0,50.0,50.0,50.0,-0.7132324235557157,20.24861299733499,36.28264330616957,0.0,0.0,0.0,0.0,0.0,0.0,0.0,0.0,0.0,0.0
1.96,53.64959509363753,18.477947108322674,52.149908538813584,50.0,50.0,50.0,50.0,50.0,50.0,50.0,50.0,50.0,50.0,-1.5737922273553886,20.24861299733499,35.53865903104568,0.0,0.0,0.0,0.0,0.0,0.0,0.0,0.0,0.0,0.0
1.97,53.629554372344984,18.680433238296025,52.501575207748424,50.0,50.0,50.0,50.0,50.0,50.0,50.0,50.0,50.0,50.0,-2.4343520311550617,20.24861299733499,34.79467475592179,0.0,0.0,0.0,0.0,0.0,0.0,0.0,0.0,0.0,0.0
1.98,53.600908053014436,18.882919368269373,52.84580203393202,50.0,50.0,50.0,50.0,50.0,50.0,50.0,50.0,50.0,50.0,-3.2949118349547346,20.24861299733499,34.0506904807979,0.0,0.0,0.0,0.0,0.0,0.0,0.0,0.0,0.0,0.0
1.99,53.563656135645886,19.085405498242725,53.18258901736438,50.0,50.0,50.0,50.0,50.0,50.0,50.0,50.0,50.0,50.0,-4.155471638754407,20.24861299733499,33.30670620567401,0.0,0.0,0.0,0.0,0.0,0.0,0.0,0.0,0.0,0.0
2.0,53.51779862023935,19.287891628216073,53.5119361580455,50.0,50.0,50.0,50.0,50.0,50.0,50.0,50.0,50.0,50.0,-5.0160314425540795,20.24861299733499,32.56272193055012,0.0,0.0,0.0,0.0,0.0,0.0,0.0,0.0,0.0,0.0
2.01,53.4633355067948,19.490377758189418,53.83384345597538,50.0,50.0,50.0,50.0,50.0,50.0,50.0,50.0,50.0,50.0,-5.876591246353734,20.24861299733499,31.81873765542624,0.0,0.0,0.0,0.0,0.0,0.0,0.0,0.0,0.0,0.0
2.02,53.40026679531226,19.692863888162776,54.14831091115403,50.0,50.0,50.0,50.0,50.0,50.0,50.0,50.0,50.0,50.0,-6.737151050153426,20.24861299733499,31.074753380302337,0.0,0.0,0.0,0.0,0.0,0.0,0.0,0.0,0.0,0.0
2.03,53.32859248579174,19.89535001813612,54.45533852358142,50.0,50.0,50.0,50.0,50.0,50.0,50.0,50.0,50.0,50.0,-7.59771085395308,20.24861299733499,30.33076910517846,0.0,0.0,0.0,0.0,0.0,0.0,0.0,0.0,0.0,0.0
2.04,53.24831257823321,20.097836148109476,54.7549262932576,50.0,50.0,50.0,50.0,50.0,50.0,50.0,50.0,50.0,50.0,-8.458270657752772,20.24861299733499,29.586784830054555,0.0,0.0,0.0,0.0,0.0,0.0,0.0,0.0,0.0,0.0
2.05,53.15942707263668,20.30032227808282,55.047074220182516,50.0,50.0,50.0,50.0,50.0,50.0,50.0,50.0,50.0,50.0,-9.318830461552425,20.24861299733499,28.84280055493068,0.0,0.0,0.0,0.0,0.0,0.0,0.0,0.0,0.0,0.0
2.06,53.06193596900216,20.502808408056175,55.3317823043562,50.0,50.0,50.0,50.0,50.0,50.0,50.0,50.0,50.0,50.0,-10.179390265352119,20.24861299733499,28.09881627980677,0.0,0.0,0.0,0.0,0.0,0.0,0.0,0.0,0.0,0.0
2.07,52.95583926732964,20.70529453802952,55.60905054577865,50.0,50.0,50.0,50.0,50.0,50.0,50.0,50.0,50.0,50.0,-11.039950069151772,20.24861299733499,27.354832004682894,0.0,0.0,0.0,0.0,0.0,0.0,0.0,0.0,0.0,0.0
2.08,52.84113696761912,20.90778066800288,55.87887894444987,50.0,50.0,50.0,50.0,50.0,50.0,50.0,50.0,50.0,50.0,-11.900509872951464,20.24861299733499,26.61084772955899,0.0,0.0,0.0,0.0,0.0,0.0,0.0,0.0,0.0,0.0
2.09,52.717829069870604,21.11026679797622,56.141267500369835,50.0,50.0,50.0,50.0,50.0,50.0,50.0,50.0,50.0,50.0,-12.761069676751118,20.24861299733499,25.866863454435116,0.0,0.0,0.0,0.0,0.0,0.0,0.0,0.0,0.0,0.0
2.1,52.58591557408409,21.312752927949578,56.39621621353857,50.0,50.0,50.0,50.0,50.0,50.0,50.0,50.0,50.0,50.0,-13.62162948055081,20.24861299733499,25.12287917931121,0.0,0.0,0.0,0.0,0.0,0.0,0.0,0.0,0.0,0.0
2.11,52.445396480259596,21.51523905792292,56.64372508395605,50.0,50.0,50.0,50.0,50.0,50.0,50.0,50.0,50.0,50.0,-14.482189284350461,20.24861299733499,24.378894904187334,0.0,0.0,0.0,0.0,0.0,0.0,0.0,0.0,0.0,0.0
2.12,52.29627178839709,21.717725187896278,56.883794111622315,50.0,50.0,50.0,50.0,50.0,50.0,50.0,50.0,50.0,50.0,-15.342749088150155,20.24861299733499,23.634910629063423,0.0,0.0,0.0,0.0,0.0,0.0,0.0,0.0,0.0,0.0
2.13,52.13854149849659,21.920211317869622,57.11642329653732,50.0,50.0,50.0,50.0,50.0,50.0,50.0,50.0,50.0,50.0,-16.203308891949806,20.24861299733499,22.890926353939548,0.0,0.0,0.0,0.0,0.0,0.0,0.0,0.0,0.0,0.0
2.14,51.97220561055809,22.122697447842977,57.34161263870111,50.0,50.0,50.0,50.0,50.0,50.0,50.0,50.0,50.0,50.0,-17.063868695749502,20.24861299733499,22.146942078815645,0.0,0.0,0.0,0.0,0.0,0.0,0.0,0.0,0.0,0.0
2.15,51.7972641245816,22.325183577816322,57.55936213811364,50.0,50.0,50.0,50.0,50.0,50.0,50.0,50.0,50.0,50.0,-17.924428499549155,20.24861299733499,21.40295780369177,0.0,0.0,0.0,0.0,0.0,0.0,0.0,0.0,0.0,0.0
2.16,51.6137170405671,22.527669707789677,57.76967179477494,50.0,50.0,50.0,50.0,50.0,50.0,50.0,50.0,50.0,50.0,-18.784988303348847,20.24861299733499,20.658973528567863,0.0,0.0,0.0,0.0,0.0,0.0,0.0,0.0,0.0,0.0
2.17,51.42156435851462,22.73015583776302,57.97254160868499,50.0,50.0,50.0,50.0,50.0,50.0,50.0,50.0,50.0,50.0,-19.6455481071485,20.24861299733499,19.914989253443988,0.0,0.0,0.0,0.0,0.0,0.0,0.0,0.0,0.0,0.0
2.18,51.22080607842414,22.93016919435654,58.16797157984382,50.0,50.0,50.0,50.0,50.0,50.0,50.0,50.0,50.0,50.0,-20.50610791094819,19.71950390273232,19.17100497832008,0.0,0.0,0.0,0.0,0.0,0.0,0.0,0.0,0.0,0.0
2.19,51.011442200295654,23.124533844272243,58.3559617082514,50.0,50.0,50.0,50.0,50.0,50.0,50.0,50.0,50.0,50.0,-21.366667714747845,19.153426080409517,18.427020703196202,0.0,0.0,0.0,0.0,0.0,0.0,0.0,0.0,0.0,0.0
2.2,50.793472724129174,23.313237715964732,58.536511993907745,50.0,50.0,50.0,50.0,50.0,50.0,50.0,50.0,50.0,50.0,-22.227227518547537,18.587348258086685,17.6830364280723,0.0,0.0,0.0,0.0,0.0,0.0,0.0,0.0,0.0,0.0
2.21,50.566897649924705,23.49628080943398,58.70962243681284,50.0,50.0,50.0,50.0,50.0,50.0,50.0,50.0,50.0,50.0,-23.08778732234719,18.021270435763878,16.939052152948424,0.0,0.0,0.0,0.0,0.0,0.0,0.0,0.0,0.0,0.0
2.22,50.331716977682234,23.673663124680008,58.87529303696672,50.0,50.0,50.0,50.0,50.0,50.0,50.0,50.0,50.0,50.0,-23.948347126146885,17.455192613441046,16.195067877824517,0.0,0.0,0.0,0.0,0.0,0.0,0.0,0.0,0.0,0.0
2.23,50.0897629406669,23.8453846617028,59.03352379436934,50.0,50.0,50.0,50.0,50.0,50.0,50.0,50.0,50.0,50.0,-24.24734726274207,16.889114791118242,15.451083602700644,0.0,0.0,0.0,0.0,0.0,0.0,0.0,0.0,0.0,0.0
2.24,49.84728946803948,24.011445420502373,59.18431470902072,50.0,50.0,50.0,50.0,50.0,50.0,50.0,50.0,50.0,50.0,-24.24734726274207,16.32303696879541,14.707099327576735,0.0,0.0,0.0,0.0,0.0,0.0,0.0,0.0,0.0,0.0
2.25,49.60481599541206,24.17184540107871,59.327665780920874,50.0,50.0,50.0,50.0,50.0,50.0,50.0,50.0,50.0,50.0,-24.24734726274207,15.756959146472605,13.96311505245286,0.0,0.0,0.0,0.0,0.0,0.0,0.0,0.0,0.0,0.0
2.26,49.362342522784644,24.32658460343182,59.463577010069784,50.0,50.0,50.0,50.0,50.0,50.0,50.0,50.0,50.0,50.0,-24.24734726274207,15.1908813241498,13.219130777328987,0.0,0.0,0.0,0.0,0.0,0.0,0.0,0.0,0.0,0.0
2.27,49.11986905015722,24.475663027561705,59.59204839646745,50.0,50.0,50.0,50.0,50.0,50.0,50.0,50.0,50.0,50.0,-24.24734726274207,14.624803501826968,12.475146502205078,0.0,0.0,0.0,0.0,0.0,0.0,0.0,0.0,0.0,0.0
2.28,48.8773955775298,24.619080673468357,59.71307994011388,50.0,50.0,50.0,50.0,50.0,50.0,50.0,50.0,50.0,50.0,-24.24734726274207,14.058725679504162,11.731162227081203,0.0,0.0,0.0,0.0,0.0,0.0,0.0,0.0,0.0,0.0
2.29,48.63492210490237,24.75683754115179,59.82667164100908,50.0,50.0,50.0,50.0,50.0,50.0,50.0,50.0,50.0,50.0,-24.24734726274207,13.492647857181334,10.987177951957298,0.0,0.0,0.0,0.0,0.0,0.0,0.0,0.0,0.0,0.0
2.3,48.39244863227496,24.888933630611984,59.93282349915303,50.0,50.0,50.0,50.0,50.0,50.0,50.0,50.0,50.0,50.0,-24.24734726274207,12.926570034858527,10.243193676833421,0.0,0.0,0.0,0.0,0.0,0.0,0.0,0.0,0.0,0.0
2.31,48.149975159647525,25.01536894184896,60.031535514545745,50.0,50.0,50.0,50.0,50.0,50.0,50.0,50.0,50.0,50.0,-24.24734726274207,12.360492212535696,9.499209401709514,0.0,0.0,0.0,0.0,0.0,0.0,0.0,0.0,0.0,0.0
2.32,47.907501687020115,25.136143474862703,60.12280768718722,50.0,50.0,50.0,50.0,50.0,50.0,50.0,50.0,50.0,50.0,-24.24734726274207,11.794414390212891,8.755225126585641,0.0,0.0,0.0,0.0,0.0,0.0,0.0,0.0,0.0,0.0
2.33,47.66502821439269,25.251257229653216,60.206640017077454,50.0,50.0,50.0,50.0,50.0,50.0,50.0,50.0,50.0,50.0,-24.24734726274207,11.228336567890059,8.011240851461732,0.0,0.0,0.0,0.0,0.0,0.0,0.0,0.0,0.0,0.0
2.34,47.42255474176527,25.360710206220503,60.28303250421645,50.0,50.0,50.0,50.0,50.0,50.0,50.0,50.0,50.0,50.0,-24.24734726274207,10.662258745567254,7.267256576337858,0.0,0.0,0.0,0.0,0.0,0.0,0.0,0.0,0.0,0.0
2.35,47.18008126913786,25.464502404564563,60.351985148604214,50.0,50.0,50.0,50.0,50.0,50.0,50.0,50.0,50.0,50.0,-24.24734726274207,10.096180923244424,6.52327230121395,0.0,0.0,0.0,0.0,0.0,0.0,0.0,0.0,0.0,0.0
2.36,46.937607796510434,25.562633824685392,60.41349795024073,50.0,50.0,50.0,50.0,50.0,50.0,50.0,50.0,50.0,50.0,-24.24734726274207,9.530103100921618,5.779288026090076,0.0,0.0,0.0,0.0,0.0,0.0,0.0,0.0,0.0,0.0
2.37,46.69513432388301,25.655104466582994,60.46757090912602,50.0,50.0,50.0,50.0,50.0,50.0,50.0,50.0,50.0,50.0,-24.24734726274207,8.964025278598786,5.035303750966169,0.0,0.0,0.0,0.0,0.0,0.0,0.0,0.0,0.0,0.0
2.38,46.452660851255594,25.741914330257366,60.51420402526006,50.0,50.0,50.0,50.0,50.0,50.0,50.0,50.0,50.0,50.0,-24.24734726274207,8.39794745627598,4.291319475842294,0.0,0.0,0.0,0.0,0.0,0.0,0.0,0.0,0.0,0.0
2.39,46.21018737862816,25.823063415708514,60.55339729864286,50.0,50.0,50.0,50.0,50.0,50.0,50.0,50.0,50.0,50.0,-24.24734726274207,7.83186963395315,3.5473352007183867,0.0,0.0,0.0,0.0,0.0,0.0,0.0,0.0,0.0,0.0
2.4,45.96771390600075,25.89855172293643,60.585150729274424,50.0,50.0,50.0,50.0,50.0,50.0,50.0,50.0,50.0,50.0,-24.24734726274207,7.265791811630344,2.8033509255945126,0.0,0.0,0.0,0.0,0.0,0.0,0.0,0.0,0.0,0.0
2.41,45.72524043337332,25.96837925194112,60.60946431715475,50.0,50.0,50.0,50.0,50.0,50.0,50.0,50.0,50.0,50.0,-24.24734726274207,6.699713989307515,2.0593666504706047,0.0,0.0,0.0,0.0,0.0,0.0,0.0,0.0,0.0,0.0
2.42,45.482766960745906,26.03254600272258,60.62633806228384,50.0,50.0,50.0,50.0,50.0,50.0,50.0,50.0,50.0,50.0,-24.24734726274207,6.133636166984709,1.3153823753467304,0.0,0.0,0.0,0.0,0.0,0.0,0.0,0.0,0.0,0.0
2.43,45.24029348811848,26.091051975280816,60.635771964661686,50.0,50.0,50.0,50.0,50.0,50.0,50.0,50.0,50.0,50.0,-24.24734726274207,5.567558344661878,0.5713981002228229,0.0,0.0,0.0,0.0,0.0,0.0,0.0,0.0,0.0,0.0
2.44,44.997820015491065,26.14389716961582,60.63685560103472,50.0,50.0,50.0,50.0,50.0,50.0,50.0,50.0,50.0,50.0,-24.24734726274207,5.001480522339072,-0.9575164681291825,0.0,0.0,0.0,0.0,0.0,0.0,0.0,0.0,0.0,0.0
2.45,44.75534654286364,26.1910815857276,60.606642132159344,50.0,50.0,50.0,50.0,50.0,50.0,50.0,50.0,50.0,50.0,-24.24734726274207,4.435402700016242,-5.085177306945799,0.0,0.0,0.0,0.0,0.0,0.0,0.0,0.0,0.0,0.0
2.46,44.512873070236225,26.232605223616144,60.53515205489581,50.0,50.0,50.0,50.0,50.0,50.0,50.0,50.0,50.0,50.0,-24.24734726274207,3.8693248776934364,-9.212838145762234,0.0,0.0,0.0,0.0,0.0,0.0,0.0,0.0,0.0,0.0
2.47,44.2703995976088,26.268468083281462,60.422385369244104,50.0,50.0,50.0,50.0,50.0,50.0,50.0,50.0,50.0,50.0,-24.24734726274207,3.3032470553706053,-13.34049898457885,0.0,0.0,0.0,0.0,0.0,0.0,0.0,0.0,0.0,0.0
2.48,44.027926124981384,26.298670164723557,60.26834207520424,50.0,50.0,50.0,50.0,50.0,50.0,50.0,50.0,50.0,50.0,-24.24734726274207,2.7371692330478,-17.468159823395286,0.0,0.0,0.0,0.0,0.0,0.0,0.0,0.0,0.0,0.0
2.49,43.78545265235395,26.32321146794242,60.0730221727762,50.0,50.0,50.0,50.0,50.0,50.0,50.0,50.0,50.0,50.0,-24.24734726274207,2.1710914107249693,-21.595820662211903,0.0,0.0,0.0,0.0,0.0,0.0,0.0,0.0,0.0,0.0
2.5,43.542979179726544,26.34209199293806,59.83642566196,50.0,50.0,50.0,50.0,50.0,50.0,50.0,50.0,50.0,50.0,-24.24734726274207,1.6050135884021635,-25.72348150102834,0.0,0.0,0.0,0.0,0.0,0.0,0.0,0.0,0.0,0.0
2.51,43.30148185819837,26.355311739710462,59.55855254275564,50.0,50.0,50.0,50.0,50.0,50.0,50.0,50.0,50.0,50.0,-23.83746035188885,1.038935766079358,-29.851142339844774,0.0,0.0,0.0,0.0,0.0,0.0,0.0,0.0,0.0,0.0
2.52,43.067410053698474,26.362870708259642,59.239402815163096,50.0,50.0,50.0,50.0,50.0,50.0,50.0,50.0,50.0,50.0,-22.97690054808916,0.47285794375652723,-33.97880317866139,0.0,0.0,0.0,0.0,0.0,0.0,0.0,0.0,0.0,0.0
2.53,42.841943847236585,26.36473011107508,58.87897647918242,50.0,50.0,50.0,50.0,50.0,50.0,50.0,50.0,50.0,50.0,-22.116340744289506,-0.14032731921655245,-38.10646401747782,0.0,0.0,0.0,0.0,0.0,0.0,0.0,0.0,0.0,0.0
2.54,42.62508323881268,26.359066148827303,58.47727353481354,50.0,50.0,50.0,50.0,50.0,50.0,50.0,50.0,50.0,50.0,-21.255780940489814,-0.9924651303382184,-42.234124856294436,0.0,0.0,0.0,0.0,0.0,0.0,0.0,0.0,0.0,0.0
2.55,42.41682822842679,26.344880808468318,58.034293982056525,50.0,50.0,50.0,50.0,50.0,50.0,50.0,50.0,50.0,50.0,-20.39522113669016,-1.8446029414598464,-46.361785695110875,0.0,0.0,0.0,0.0,0.0,0.0,0.0,0.0,0.0,0.0
2.56,42.21717881607888,26.322174089998107,57.55003782091133,50.0,50.0,50.0,50.0,50.0,50.0,50.0,50.0,50.0,50.0,-19.534661332890465,-2.6967407525815124,-50.48944653392749,0.0,0.0,0.0,0.0,0.0,0.0,0.0,0.0,0.0,0.0
2.57,42.02613500176898,26.29094599341669,57.02450505137797,50.0,50.0,50.0,50.0,50.0,50.0,50.0,50.0,50.0,50.0,-18.674101529090812,-3.548878563703141,-54.61710737274392,0.0,0.0,0.0,0.0,0.0,0.0,0.0,0.0,0.0,0.0
2.58,41.84369678549706,26.251196518724043,56.45769567345644,50.0,50.0,50.0,50.0,50.0,50.0,50.0,50.0,50.0,50.0,-17.81354172529112,-4.401016374824806,-58.74476821156054,0.0,0.0,0.0,0.0,0.0,0.0,0.0,0.0,0.0,0.0
2.59,41.66986416726315,26.20292566592019,55.84960968714676,50.0,50.0,50.0,50.0,50.0,50.0,50.0,50.0,50.0,50.0,-16.952981921491467,-5.253154185946435,-62.87242905037698,0.0,0.0,0.0,0.0,0.0,0.0,0.0,0.0,0.0,0.0
2.6,41.504637147067236,26.146133435005115,55.2002470924489,50.0,50.0,50.0,50.0,50.0,50.0,50.0,50.0,50.0,50.0,-16.092422117691775,-6.105291997068101,-67.00008988919359,0.0,0.0,0.0,0.0,0.0,0.0,0.0,0.0,0.0,0.0
2.61,41.34801572490932,26.080819825978832,54.5096078893629,50.0,50.0,50.0,50.0,50.0,50.0,50.0,50.0,50.0,50.0,-15.231862313892123,-6.957429808189728,-71.12775072801003,0.0,0.0,0.0,0.0,0.0,0.0,0.0,0.0,0.0,0.0
2.62,41.19999990078939,26.00698483884132,53.7915972770376,50.0,50.0,50.0,50.0,50.0,50.0,50.0,50.0,50.0,50.0,-14.371302510092429,-7.8095676193113945,-71.86731635025066,0.0,0.0,0.0,0.0,0.0,0.0,0.0,0.0,0.0,0.0
2.63,41.06058967470747,25.924628473592602,53.07292411353512,50.0,50.0,50.0,50.0,50.0,50.0,50.0,50.0,50.0,50.0,-13.510742706292776,-8.661705430433022,-71.86731635025066,0.0,0.0,0.0,0.0,0.0,0.0,0.0,0.0,0.0,0.0
2.64,40.92978504666354,25.833750730232662,52.35425095003259,50.0,50.0,50.0,50.0,50.0,50.0,50.0,50.0,50.0,50.0,-12.650182902493084,-9.513843241554689,-71.86731635025066,0.0,0.0,0.0,0.0,0.0,0.0,0.0,0.0,0.0,0.0
2.65,40.80758601665761,25.734351608761507,51.635577786530106,50.0,50.0,50.0,50.0,50.0,50.0,50.0,50.0,50.0,50.0,-11.78962309869343,-10.365981052676316,-71.86731635025066,0.0,0.0,0.0,0.0,0.0,0.0,0.0,0.0,0.0,0.0
2.66,40.69399258468967,25.626431109179133,50.916904623027584,50.0,50.0,50.0,50.0,50.0,50.0,50.0,50.0,50.0,50.0,-10.929063294893737,-11.218118863797983,-71.86731635025066,0.0,0.0,0.0,0.0,0.0,0.0,0.0,0.0,0.0,0.0
2.67,40.589004750759734,25.509989231485548,50.19823145952509,50.0,50.0,50.0,50.0,50.0,50.0,50.0,50.0,50.0,50.0,-10.068503491094084,-12.07025667491961,-71.86731635025066,0.0,0.0,0.0,0.0,0.0,0.0,0.0,0.0,0.0,0.0
2.68,40.49262251486778,25.385025975680744,49.47955829602256,50.0,50.0,50.0,50.0,50.0,50.0,50.0,50.0,50.0,50.0,-9.207943687294392,-12.922394486041275,-71.86731635025066,0.0,0.0,0.0,0.0,0.0,0.0,0.0,0.0,0.0,0.0
2.69,40.40484587701384,25.25154134176472,48.76088513252007,50.0,50.0,50.0,50.0,50.0,50.0,50.0,50.0,50.0,50.0,-8.347383883494738,-13.774532297162903,-71.86731635025066,0.0,0.0,0.0,0.0,0.0,0.0,0.0,0.0,0.0,0.0
2.7,40.32567483719789,25.109535329737483,48.04221196901755,50.0,50.0,50.0,50.0,50.0,50.0,50.0,50.0,50.0,50.0,-7.486824079695046,-14.626670108284571,-71.86731635025066,0.0,0.0,0.0,0.0,0.0,0.0,0.0,0.0,0.0,0.0
2.71,40.25510939541994,24.95900793959903,47.32353880551506,50.0,50.0,50.0,50.0,50.0,50.0,50.0,50.0,50.0,50.0,-6.626264275895393,-15.478807919406197,-71.86731635025066,0.0,0.0,0.0,0.0,0.0,0.0,0.0,0.0,0.0,0.0
2.72,40.19314955167998,24.799959171349357,46.60486564201254,50.0,50.0,50.0,50.0,50.0,50.0,50.0,50.0,50.0,50.0,-5.765704472095701,-16.330945730527866,-71.86731635025066,0.0,0.0,0.0,0.0,0.0,0.0,0.0,0.0,0.0,0.0
2.73,40.139795305978026,24.632389024988477,45.88619247851004,50.0,50.0,50.0,50.0,50.0,50.0,50.0,50.0,50.0,50.0,-4.905144668296046,-17.18308354164949,-71.86731635025066,0.0,0.0,0.0,0.0,0.0,0.0,0.0,0.0,0.0,0.0
2.74,40.09504665831407,24.456297500516367,45.167519315007524,50.0,50.0,50.0,50.0,50.0,50.0,50.0,50.0,50.0,50.0,-4.044584864496355,-18.035221352771156,-71.86731635025066,0.0,0.0,0.0,0.0,0.0,0.0,0.0,0.0,0.0,0.0
2.75,40.0589036086881,24.271684597933053,44.44884615150503,50.0,50.0,50.0,50.0,50.0,50.0,50.0,50.0,50.0,50.0,-3.1840250606967007,-18.887359163892786,-71.86731635025066,0.0,0.0,0.0,0.0,0.0,0.0,0.0,0.0,0.0,0.0
2.76,40.03136615710013,24.078550317238516,43.730172988002536,50.0,50.0,50.0,50.0,50.0,50.0,50.0,50.0,50.0,50.0,-2.3234652568970464,-19.739496975014415,-71.86731635025066,0.0,0.0,0.0,0.0,0.0,0.0,0.0,0.0,0.0,0.0
2.77,40.01243430355016,23.876894658432764,43.011499824500014,50.0,50.0,50.0,50.0,50.0,50.0,50.0,50.0,50.0,50.0,-1.4629054530973546,-20.59163478613608,-71.86731635025066,0.0,0.0,0.0,0.0,0.0,0.0,0.0,0.0,0.0,0.0
2.78,40.00210804803818,23.667892221315117,42.29282666099753,50.0,50.0,50.0,50.0,50.0,50.0,50.0,50.0,50.0,50.0,-0.6023456492977008,-20.99635312921115,-71.86731635025066,0.0,0.0,0.0,0.0,0.0,0.0,0.0,0.0,0.0,0.0
2.79,40.000425459824015,23.457928690023,41.57761735451313,50.0,50.0,50.0,50.0,50.0,50.0,50.0,50.0,50.0,50.0,0.2835891187951723,-20.99635312921115,-70.17630322404446,0.0,0.0,0.0,0.0,0.0,0.0,0.0,0.0,0.0,0.0
2.8,40.00798699041196,23.247965158730892,40.89649262646678,50.0,50.0,50.0,50.0,50.0,50.0,50.0,50.0,50.0,50.0,1.2287169987937077,-20.99635312921115,-66.04864238522804,0.0,0.0,0.0,0.0,0.0,0.0,0.0,0.0,0.0,0.0
2.81,40.02499979979989,23.038001627438778,40.25664450680857,50.0,50.0,50.0,50.0,50.0,50.0,50.0,50.0,50.0,50.0,2.173844878792285,-20.99635312921115,-61.92098154641142,0.0,0.0,0.0,0.0,0.0,0.0,0.0,0.0,0.0,0.0
2.82,40.0514638879878,22.82803809614667,39.658072995538554,50.0,50.0,50.0,50.0,50.0,50.0,50.0,50.0,50.0,50.0,3.1189727587908207,-20.99635312921115,-57.793320707594994,0.0,0.0,0.0,0.0,0.0,0.0,0.0,0.0,0.0,0.0
2.83,40.0873792549757,22.618074564854552,39.100778092656675,50.0,50.0,50.0,50.0,50.0,50.0,50.0,50.0,50.0,50.0,4.064100638789398,-20.99635312921115,-53.66565986877837,0.0,0.0,0.0,0.0,0.0,0.0,0.0,0.0,0.0,0.0
2.84,40.13274590076359,22.40811103356245,38.584759798162985,50.0,50.0,50.0,50.0,50.0,50.0,50.0,50.0,50.0,50.0,5.009228518787934,-20.99635312921115,-49.53799902996193,0.0,0.0,0.0,0.0,0.0,0.0,0.0,0.0,0.0,0.0
2.85,40.18756382535147,22.19814750227033,38.11001811205744,50.0,50.0,50.0,50.0,50.0,50.0,50.0,50.0,50.0,50.0,5.954356398786511,-20.99635312921115,-45.41033819114532,0.0,0.0,0.0,0.0,0.0,0.0,0.0,0.0,0.0,0.0
2.86,40.25183302873932,21.98818397097822,37.676553034340074,50.0,50.0,50.0,50.0,50.0,50.0,50.0,50.0,50.0,50.0,6.899484278785046,-20.99635312921115,-41.28267735232889,0.0,0.0,0.0,0.0,0.0,0.0,0.0,0.0,0.0,0.0
2.87,40.325553510927165,21.778220439686105,37.28436456501086,50.0,50.0,50.0,50.0,50.0,50.0,50.0,50.0,50.0,50.0,7.844612158783623,-20.99635312921115,-37.155016513512265,0.0,0.0,0.0,0.0,0.0,0.0,0.0,0.0,0.0,0.0
2.88,40.408725271914996,21.568256908394,36.93345270406983,50.0,50.0,50.0,50.0,50.0,50.0,50.0,50.0,50.0,50.0,8.78974003878216,-20.99635312921115,-33.02735567469583,0.0,0.0,0.0,0.0,0.0,0.0,0.0,0.0,0.0,0.0
2.89,40.501348311702806,21.35829337710188,36.62381745151694,50.0,50.0,50.0,50.0,50.0,50.0,50.0,50.0,50.0,50.0,9.734867918780736,-20.99635312921115,-28.899694835879217,0.0,0.0,0.0,0.0,0.0,0.0,0.0,0.0,0.0,0.0
2.9,40.60342263029061,21.148329845809776,36.35545880735224,50.0,50.0,50.0,50.0,50.0,50.0,50.0,50.0,50.0,50.0,10.679995798779272,-20.99635312921115,-24.77203399706278,0.0,0.0,0.0,0.0,0.0,0.0,0.0,0.0,0.0,0.0
2.91,40.7149482276784,20.93836631451766,36.12837677157569,50.0,50.0,50.0,50.0,50.0,50.0,50.0,50.0,50.0,50.0,11.62512367877785,-20.99635312921115,-20.644373158246164,0.0,0.0,0.0,0.0,0.0,0.0,0.0,0.0,0.0,0.0
2.92,40.83592510386616,20.728402783225555,35.942571344187314,50.0,50.0,50.0,50.0,50.0,50.0,50.0,50.0,50.0,50.0,12.570251558776386,-20.99635312921115,-16.51671231942973,0.0,0.0,0.0,0.0,0.0,0.0,0.0,0.0,0.0,0.0
2.93,40.96635325885392,20.518439251933437,35.7980425251871,50.0,50.0,50.0,50.0,50.0,50.0,50.0,50.0,50.0,50.0,13.51537943877496,-20.99635312921115,-12.389051480613112,0.0,0.0,0.0,0.0,0.0,0.0,0.0,0.0,0.0,0.0
2.94,41.10623269264166,20.30847572064133,35.69479031457505,50.0,50.0,50.0,50.0,50.0,50.0,50.0,50.0,50.0,50.0,14.460507318773496,-20.99635312921115,-8.261390641796678,0.0,0.0,0.0,0.0,0.0,0.0,0.0,0.0,0.0,0.0
2.95,41.255563405229395,20.098512189349215,35.63281471235116,50.0,50.0,50.0,50.0,50.0,50.0,50.0,50.0,50.0,50.0,15.405635198772076,-20.99635312921115,-4.133729802980062,0.0,0.0,0.0,0.0,0.0,0.0,0.0,0.0,0.0,0.0
2.96,41.4143453966171,19.888548658057108,35.61211571851545,50.0,50.0,50.0,50.0,50.0,50.0,50.0,50.0,50.0,50.0,16.350763078770612,-20.99635312921115,-0.006068964163627427,0.0,0.0,0.0,0.0,0.0,0.0,0.0,0.0,0.0,0.0
2.97,41.582578666804814,19.67858512676499,35.61469225467742,50.0,50.0,50.0,50.0,50.0,50.0,50.0,50.0,50.0,50.0,17.29589095876919,-20.99635312921115,0.5160749487403276,0.0,0.0,0.0,0.0,0.0,0.0,0.0,0.0,0.0,0.0
2.98,41.76026321579249,19.468621595472882,35.62243717846033,50.0,50.0,50.0,50.0,50.0,50.0,50.0,50.0,50.0,50.0,18.241018838767722,-20.99635312921115,1.0329098078417023,0.0,0.0,0.0,0.0,0.0,0.0,0.0,0.0,0.0,0.0
2.99,41.94739904358017,19.258658064180764,35.63535045083425,50.0,50.0,50.0,50.0,50.0,50.0,50.0,50.0,50.0,50.0,19.186146718766302,-20.99635312921115,1.5497446669430999,0.0,0.0,0.0,0.0,0.0,0.0,0.0,0.0,0.0,0.0
3.0,42.14398615016782,19.04869453288866,35.653432071799195,50.0,50.0,50.0,50.0,50.0,50.0,50.0,50.0,50.0,50.0,20.131274598764836,-20.99635312921115,2.0665795260444746,0.0,0.0,0.0,0.0,0.0,0.0,0.0,0.0,0.0,0.0
3.01,42.35002453555545,18.838731001596553,35.67668204135514,50.0,50.0,50.0,50.0,50.0,50.0,50.0,50.0,50.0,50.0,21.076402478763374,-20.99635312921115,2.5834143851458493,0.0,0.0,0.0,0.0,0.0,0.0,0.0,0.0,0.0,0.0
3.02,42.56551419974308,18.628767470304435,35.705100359502104,50.0,50.0,50.0,50.0,50.0,50.0,50.0,50.0,50.0,50.0,22.02153035876195,-20.99635312921115,3.1002492442472467,0.0,0.0,0.0,0.0,0.0,0.0,0.0,0.0,0.0,0.0
3.03,42.79045514273069,18.42214428943788,35.738687026240086,50.0,50.0,50.0,50.0,50.0,50.0,50.0,50.0,50.0,50.0,22.966658238760484,-20.24184151233459,3.617084103348622,0.0,0.0,0.0,0.0,0.0,0.0,0.0,0.0,0.0,0.0
3.04,43.024847364518294,18.223986563370136,35.77744204156909,50.0,50.0,50.0,50.0,50.0,50.0,50.0,50.0,50.0,50.0,23.91178611875906,-19.389703701212927,4.133918962450019,0.0,0.0,0.0,0.0,0.0,0.0,0.0,0.0,0.0,0.0
3.05,43.26867732058547,18.03435021541362,35.82136540548908,50.0,50.0,50.0,50.0,50.0,50.0,50.0,50.0,50.0,50.0,24.806314979278817,-18.537565890091297,4.650753821551394,0.0,0.0,0.0,0.0,0.0,0.0,0.0,0.0,0.0,0.0
3.06,43.51674047037825,17.85323524556831,35.87045711800011,50.0,50.0,50.0,50.0,50.0,50.0,50.0,50.0,50.0,50.0,24.806314979278817,-17.68542807896963,5.167588680652791,0.0,0.0,0.0,0.0,0.0,0.0,0.0,0.0,0.0,0.0
3.07,43.76480362017104,17.680641653834225,35.924717179102146,50.0,50.0,50.0,50.0,50.0,50.0,50.0,50.0,50.0,50.0,24.806314979278817,-16.833290267848,5.6844235397541665,0.0,0.0,0.0,0.0,0.0,0.0,0.0,0.0,0.0,0.0
3.08,44.01286676996383,17.516569440211352,35.984145588795194,50.0,50.0,50.0,50.0,50.0,50.0,50.0,50.0,50.0,50.0,24.806314979278817,-15.981152456726337,6.201258398855564,0.0,0.0,0.0,0.0,0.0,0.0,0.0,0.0,0.0,0.0
3.09,44.26092991975661,17.3610186046997,36.048742347079255,50.0,50.0,50.0,50.0,50.0,50.0,50.0,50.0,50.0,50.0,24.806314979278817,-15.129014645604707,6.718093257956939,0.0,0.0,0.0,0.0,0.0,0.0,0.0,0.0,0.0,0.0
3.1,44.50899306954941,17.21398914729926,36.11850745395433,50.0,50.0,50.0,50.0,50.0,50.0,50.0,50.0,50.0,50.0,24.806314979278817,-14.276876834483042,7.234928117058336,0.0,0.0,0.0,0.0,0.0,0.0,0.0,0.0,0.0,0.0
3.11,44.75705621934219,17.07548106801004,36.19344090942042,50.0,50.0,50.0,50.0,50.0,50.0,50.0,50.0,50.0,50.0,24.806314979278817,-13.424739023361415,7.751762976159711,0.0,0.0,0.0,0.0,0.0,0.0,0.0,0.0,0.0,0.0
3.12,45.00511936913499,16.94549436683203,36.273542713477525,50.0,50.0,50.0,50.0,50.0,50.0,50.0,50.0,50.0,50.0,24.806314979278817,-12.572601212239746,8.268597835261108,0.0,0.0,0.0,0.0,0.0,0.0,0.0,0.0,0.0,0.0
3.13,45.253182518927765,16.824029043765243,36.358812866125646,50.0,50.0,50.0,50.0,50.0,50.0,50.0,50.0,50.0,50.0,24.806314979278817,-11.72046340111812,8.785432694362484,0.0,0.0,0.0,0.0,0.0,0.0,0.0,0.0,0.0,0.0
3.14,45.501245668720564,16.71108509880967,36.44925136736478,50.0,50.0,50.0,50.0,50.0,50.0,50.0,50.0,50.0,50.0,24.806314979278817,-10.868325589996454,9.302267553463881,0.0,0.0,0.0,0.0,0.0,0.0,0.0,0.0,0.0,0.0
3.15,45.74930881851334,16.606662531965313,36.54485821719493,50.0,50.0,50.0,50.0,50.0,50.0,50.0,50.0,50.0,50.0,24.806314979278817,-10.016187778874826,9.819102412565256,0.0,0.0,0.0,0.0,0.0,0.0,0.0,0.0,0.0,0.0
3.16,45.99737196830614,16.510761343232172,36.64563341561608,50.0,50.0,50.0,50.0,50.0,50.0,50.0,50.0,50.0,50.0,24.806314979278817,-9.16404996775316,10.335937271666653,0.0,0.0,0.0,0.0,0.0,0.0,0.0,0.0,0.0,0.0
3.17,46.245435118098925,16.423381532610247,36.75157696262825,50.0,50.0,50.0,50.0,50.0,50.0,50.0,50.0,50.0,50.0,24.806314979278817,-8.311912156631532,10.852772130768027,0.0,0.0,0.0,0.0,0.0,0.0,0.0,0.0,0.0,0.0
3.18,46.49349826789172,16.34452310009954,36.862688858231444,50.0,50.0,50.0,50.0,50.0,50.0,50.0,50.0,50.0,50.0,24.806314979278817,-7.4597743455098655,11.369606989869425,0.0,0.0,0.0,0.0,0.0,0.0,0.0,0.0,0.0,0.0
3.19,46.741561417684494,16.274186045700052,36.978969102425644,50.0,50.0,50.0,50.0,50.0,50.0,50.0,50.0,50.0,50.0,24.806314979278817,-6.607636534388239,11.8864418489708,0.0,0.0,0.0,0.0,0.0,0.0,0.0,0.0,0.0,0.0
3.2,46.98962456747729,16.212370369411776,37.100417695210865,50.0,50.0,50.0,50.0,50.0,50.0,50.0,50.0,50.0,50.0,24.806314979278817,-5.755498723266572,12.403276708072198,0.0,0.0,0.0,0.0,0.0,0.0,0.0,0.0,0.0,0.0
3.21,47.23768771727008,16.15907607123472,37.227034636587085,50.0,50.0,50.0,50.0,50.0,50.0,50.0,50.0,50.0,50.0,24.806314979278817,-4.903360912144945,12.920111567173572,0.0,0.0,0.0,0.0,0.0,0.0,0.0,0.0,0.0,0.0
3.22,47.48575086706287,16.114303151168876,37.35881992655433,50.0,50.0,50.0,50.0,50.0,50.0,50.0,50.0,50.0,50.0,24.806314979278817,-4.051223101023279,13.436946426274972,0.0,0.0,0.0,0.0,0.0,0.0,0.0,0.0,0.0,0.0
3.23,47.73381401685565,16.078051609214253,37.495773565112586,50.0,50.0,50.0,50.0,50.0,50.0,50.0,50.0,50.0,50.0,24.806314979278817,-3.1990852899016504,13.953781285376346,0.0,0.0,0.0,0.0,0.0,0.0,0.0,0.0,0.0,0.0
3.24,47.981877166648445,16.050321445370844,37.63789555226186,50.0,50.0,50.0,50.0,50.0,50.0,50.0,50.0,50.0,50.0,24.806314979278817,-2.346947478779984,14.470616144477741,0.0,0.0,0.0,0.0,0.0,0.0,0.0,0.0,0.0,0.0
3.25,48.22994031644123,16.031112659638655,37.78518588800215,50.0,50.0,50.0,50.0,50.0,50.0,50.0,50.0,50.0,50.0,24.806314979278817,-1.4948096676583562,14.987451003579116,0.0,0.0,0.0,0.0,0.0,0.0,0.0,0.0,0.0,0.0
3.26,48.478003466234014,16.020425252017677,37.93764457233343,50.0,50.0,50.0,50.0,50.0,50.0,50.0,50.0,50.0,50.0,24.806314979278817,-0.6426718565367283,15.504285862680492,0.0,0.0,0.0,0.0,0.0,0.0,0.0,0.0,0.0,0.0
3.27,48.7260666160268,16.018073254249074,38.09527160525575,50.0,50.0,50.0,50.0,50.0,50.0,50.0,50.0,50.0,50.0,24.806314979278817,0.05815679759919495,16.02112072178189,0.0,0.0,0.0,0.0,0.0,0.0,0.0,0.0,0.0,0.0
3.28,48.97412976581959,16.019837773562106,38.25806698676907,50.0,50.0,50.0,50.0,50.0,50.0,50.0,50.0,50.0,50.0,24.806314979278817,0.2947470650067029,16.537955580883263,0.0,0.0,0.0,0.0,0.0,0.0,0.0,0.0,0.0,0.0
3.29,49.22219291561238,16.023968195549212,38.42603071687341,50.0,50.0,50.0,50.0,50.0,50.0,50.0,50.0,50.0,50.0,24.806314979278817,0.5313373324142212,17.05479043998466,0.0,0.0,0.0,0.0,0.0,0.0,0.0,0.0,0.0,0.0
3.3,49.47025606540517,16.03046452021039,38.599162795568766,50.0,50.0,50.0,50.0,50.0,50.0,50.0,50.0,50.0,50.0,24.806314979278817,0.7679275998217292,17.571625299086037,0.0,0.0,0.0,0.0,0.0,0.0,0.0,0.0,0.0,0.0
3.31,49.718319215197965,16.039326747545648,38.77746322285514,50.0,50.0,50.0,50.0,50.0,50.0,50.0,50.0,50.0,50.0,24.806314979278817,1.0045178672292476,18.088460158187434,0.0,0.0,0.0,0.0,0.0,0.0,0.0,0.0,0.0,0.0
3.32,49.96330464694522,16.050554877554976,38.96093199873252,50.0,50.0,50.0,50.0,50.0,50.0,50.0,50.0,50.0,50.0,24.043578179117844,1.2411081346367556,18.605295017288807,0.0,0.0,0.0,0.0,0.0,0.0,0.0,0.0,0.0,0.0
3.33,50.19901478933641,16.06414891023838,39.14956912320092,50.0,50.0,50.0,50.0,50.0,50.0,50.0,50.0,50.0,50.0,23.098450299119264,1.477698402044274,19.122129876390204,0.0,0.0,0.0,0.0,0.0,0.0,0.0,0.0,0.0,0.0
3.34,50.4252736529276,16.080108845595863,39.34337459626032,50.0,50.0,50.0,50.0,50.0,50.0,50.0,50.0,50.0,50.0,22.153322419120727,1.714288669451782,19.63896473549158,0.0,0.0,0.0,0.0,0.0,0.0,0.0,0.0,0.0,0.0
3.35,50.64208123771883,16.098434683627417,39.542348417910745,50.0,50.0,50.0,50.0,50.0,50.0,50.0,50.0,50.0,50.0,21.208194539122154,1.9508789368593005,20.155799594592978,0.0,0.0,0.0,0.0,0.0,0.0,0.0,0.0,0.0,0.0
3.36,50.849437543710046,16.119126424333047,39.74649058815218,50.0,50.0,50.0,50.0,50.0,50.0,50.0,50.0,50.0,50.0,20.263066659123616,2.187469204266808,20.672634453694354,0.0,0.0,0.0,0.0,0.0,0.0,0.0,0.0,0.0,0.0
3.37,51.04734257090129,16.14218406771275,39.95580110698464,50.0,50.0,50.0,50.0,50.0,50.0,50.0,50.0,50.0,50.0,19.317938779125036,2.4240594716743264,21.18946931279575,0.0,0.0,0.0,0.0,0.0,0.0,0.0,0.0,0.0,0.0
3.38,51.23579631929255,16.167607613766535,40.17027997440809,50.0,50.0,50.0,50.0,50.0,50.0,50.0,50.0,50.0,50.0,18.372810899126502,2.6606497390818347,21.706304171897127,0.0,0.0,0.0,0.0,0.0,0.0,0.0,0.0,0.0,0.0
3.39,51.41479878888383,16.19539706249439,40.389927190422576,50.0,50.0,50.0,50.0,50.0,50.0,50.0,50.0,50.0,50.0,17.427683019127926,2.897240006489353,22.223139030998524,0.0,0.0,0.0,0.0,0.0,0.0,0.0,0.0,0.0,0.0
3.4,51.58434997967511,16.22555241389632,40.61474275502806,50.0,50.0,50.0,50.0,50.0,50.0,50.0,50.0,50.0,50.0,16.482555139129392,3.133830273896861,22.7399738900999,0.0,0.0,0.0,0.0,0.0,0.0,0.0,0.0,0.0,0.0
3.41,51.74444989166641,16.25807366797233,40.84439211685209,50.0,50.0,50.0,50.0,50.0,50.0,50.0,50.0,50.0,50.0,15.537427259130814,3.3704205413043793,23.07084756429376,0.0,0.0,0.0,0.0,0.0,0.0,0.0,0.0,0.0,0.0
3.42,51.89509852485773,16.29296082472241,41.075100592495026,50.0,50.0,50.0,50.0,50.0,50.0,50.0,50.0,50.0,50.0,14.592299379132278,3.6070108087118875,23.07084756429376,0.0,0.0,0.0,0.0,0.0,0.0,0.0,0.0,0.0,0.0
3.43,52.03629587924906,16.330213884146566,41.30580906813797,50.0,50.0,50.0,50.0,50.0,50.0,50.0,50.0,50.0,50.0,13.6471714991337,3.843601076119406,23.07084756429376,0.0,0.0,0.0,0.0,0.0,0.0,0.0,0.0,0.0,0.0
3.44,52.1680419548404,16.369832846244798,41.5365175437809,50.0,50.0,50.0,50.0,50.0,50.0,50.0,50.0,50.0,50.0,12.702043619135164,4.080191343526914,23.07084756429376,0.0,0.0,0.0,0.0,0.0,0.0,0.0,0.0,0.0,0.0
3.45,52.29033675163176,16.411817711017104,41.767226019423845,50.0,50.0,50.0,50.0,50.0,50.0,50.0,50.0,50.0,50.0,11.756915739136586,4.316781610934433,23.07084756429376,0.0,0.0,0.0,0.0,0.0,0.0,0.0,0.0,0.0,0.0
3.46,52.403180269623135,16.456168478463486,41.99793449506677,50.0,50.0,50.0,50.0,50.0,50.0,50.0,50.0,50.0,50.0,10.811787859138052,4.55337187834194,23.07084756429376,0.0,0.0,0.0,0.0,0.0,0.0,0.0,0.0,0.0,0.0
3.47,52.50657250881453,16.502885148583946,42.228642970709714,50.0,50.0,50.0,50.0,50.0,50.0,50.0,50.0,50.0,50.0,9.866659979139476,4.789962145749458,23.07084756429376,0.0,0.0,0.0,0.0,0.0,0.0,0.0,0.0,0.0,0.0
3.48,52.60051346920593,16.551967721378475,42.45935144635265,50.0,50.0,50.0,50.0,50.0,50.0,50.0,50.0,50.0,50.0,8.92153209914094,5.026552413156966,23.07084756429376,0.0,0.0,0.0,0.0,0.0,0.0,0.0,0.0,0.0,0.0
3.49,52.68500315079734,16.603416196847082,42.6900599219956,50.0,50.0,50.0,50.0,50.0,50.0,50.0,50.0,50.0,50.0,7.976404219142362,5.263142680564484,23.07084756429376,0.0,0.0,0.0,0.0,0.0,0.0,0.0,0.0,0.0,0.0
3.5,52.76004155358878,16.65723057498976,42.920768397638525,50.0,50.0,50.0,50.0,50.0,50.0,50.0,50.0,50.0,50.0,7.031276339143826,5.499732947971992,23.07084756429376,0.0,0.0,0.0,0.0,0.0,0.0,0.0,0.0,0.0,0.0
3.51,52.82562867758021,16.71341085580652,43.15147687328145,50.0,50.0,50.0,50.0,50.0,50.0,50.0,50.0,50.0,50.0,6.08614845914529,5.7363232153795005,23.07084756429376,0.0,0.0,0.0,0.0,0.0,0.0,0.0,0.0,0.0,0.0
3.52,52.881764522771675,16.771957039297355,43.38218534892441,50.0,50.0,50.0,50.0,50.0,50.0,50.0,50.0,50.0,50.0,5.141020579146713,5.972913482787019,23.07084756429376,0.0,0.0,0.0,0.0,0.0,0.0,0.0,0.0,0.0,0.0
3.53,52.92844908916315,16.83286912546226,43.61289382456734,50.0,50.0,50.0,50.0,50.0,50.0,50.0,50.0,50.0,50.0,4.195892699148177,6.209503750194527,23.07084756429376,0.0,0.0,0.0,0.0,0.0,0.0,0.0,0.0,0.0,0.0
3.54,52.96568237675464,16.896147114301247,43.84360230021028,50.0,50.0,50.0,50.0,50.0,50.0,50.0,50.0,50.0,50.0,3.2507648191496004,6.446094017602045,23.07084756429376,0.0,0.0,0.0,0.0,0.0,0.0,0.0,0.0,0.0,0.0
3.55,52.99346438554615,16.9617910058143,44.074310775853206,50.0,50.0,50.0,50.0,50.0,50.0,50.0,50.0,50.0,50.0,2.3056369391510647,6.682684285009553,23.07084756429376,0.0,0.0,0.0,0.0,0.0,0.0,0.0,0.0,0.0,0.0
3.56,53.01179511553766,17.029800800001436,44.30501925149615,50.0,50.0,50.0,50.0,50.0,50.0,50.0,50.0,50.0,50.0,1.360509059152487,6.919274552417072,23.07084756429376,0.0,0.0,0.0,0.0,0.0,0.0,0.0,0.0,0.0,0.0
3.57,53.0206745667292,17.10017649686264,44.53572772713909,50.0,50.0,50.0,50.0,50.0,50.0,50.0,50.0,50.0,50.0,0.4153811791539518,7.15586481982458,23.07084756429376,0.0,0.0,0.0,0.0,0.0,0.0,0.0,0.0,0.0,0.0
3.58,53.020832622699274,17.17291809639793,44.76643620278203,50.0,50.0,50.0,50.0,50.0,50.0,50.0,50.0,50.0,50.0,-0.2693077710240043,7.392455087232098,23.07084756429376,0.0,0.0,0.0,0.0,0.0,0.0,0.0,0.0,0.0,0.0
3.59,53.01573716775582,17.248025598607285,44.99714467842496,50.0,50.0,50.0,50.0,50.0,50.0,50.0,50.0,50.0,50.0,-0.7497832176652316,7.629045354639605,23.07084756429376,0.0,0.0,0.0,0.0,0.0,0.0,0.0,0.0,0.0,0.0
3.6,53.00583695834596,17.32549900349072,45.2278531540679,50.0,50.0,50.0,50.0,50.0,50.0,50.0,50.0,50.0,50.0,-1.2302586643064801,7.865635622047125,23.07084756429376,0.0,0.0,0.0,0.0,0.0,0.0,0.0,0.0,0.0,0.0
3.61,52.99113199446969,17.405338311048226,45.45856162971084,50.0,50.0,50.0,50.0,50.0,50.0,50.0,50.0,50.0,50.0,-1.7107341109477074,8.102225889454633,23.07084756429376,0.0,0.0,0.0,0.0,0.0,0.0,0.0,0.0,0.0,0.0
3.62,52.97162227612701,17.487543521279814,45.689270105353785,50.0,50.0,50.0,50.0,50.0,50.0,50.0,50.0,50.0,50.0,-2.1912095575889565,8.338816156862151,23.07084756429376,0.0,0.0,0.0,0.0,0.0,0.0,0.0,0.0,0.0,0.0
3.63,52.94730780331791,17.57210620908712,45.91997858099671,50.0,50.0,50.0,50.0,50.0,50.0,50.0,50.0,50.0,50.0,-2.6716850042301834,8.555439971046228,23.07084756429376,0.0,0.0,0.0,0.0,0.0,0.0,0.0,0.0,0.0,0.0
3.64,52.918188576042404,17.657660608797585,46.150687056639654,50.0,50.0,50.0,50.0,50.0,50.0,50.0,50.0,50.0,50.0,-3.1521604508714325,8.555439971046228,23.07084756429376,0.0,0.0,0.0,0.0,0.0,0.0,0.0,0.0,0.0,0.0
3.65,52.88426459430049,17.743215008508045,46.38139553228259,50.0,50.0,50.0,50.0,50.0,50.0,50.0,50.0,50.0,50.0,-3.6326358975126594,8.555439971046228,23.07084756429376,0.0,0.0,0.0,0.0,0.0,0.0,0.0,0.0,0.0,0.0
3.66,52.845535858092155,17.82876940821851,46.61210400792553,50.0,50.0,50.0,50.0,50.0,50.0,50.0,50.0,50.0,50.0,-4.113111344153908,8.555439971046228,23.07084756429376,0.0,0.0,0.0,0.0,0.0,0.0,0.0,0.0,0.0,0.0
3.67,52.80200236741741,17.91432380792897,46.842812483568466,50.0,50.0,50.0,50.0,50.0,50.0,50.0,50.0,50.0,50.0,-4.593586790795135,8.555439971046228,23.07084756429376,0.0,0.0,0.0,0.0,0.0,0.0,0.0,0.0,0.0,0.0
3.68,52.75366412227625,17.999878207639433,47.07352095921141,50.0,50.0,50.0,50.0,50.0,50.0,50.0,50.0,50.0,50.0,-5.074062237436384,8.555439971046228,23.07084756429376,0.0,0.0,0.0,0.0,0.0,0.0,0.0,0.0,0.0,0.0
3.69,52.70052112266868,18.085432607349894,47.30422943485434,50.0,50.0,50.0,50.0,50.0,50.0,50.0,50.0,50.0,50.0,-5.554537684077611,8.555439971046228,23.07084756429376,0.0,0.0,0.0,0.0,0.0,0.0,0.0,0.0,0.0,0.0
3.7,52.6425733685947,18.170987007060358,47.534937910497284,50.0,50.0,50.0,50.0,50.0,50.0,50.0,50.0,50.0,50.0,-6.03501313071886,8.555439971046228,23.07084756429376,0.0,0.0,0.0,0.0,0.0,0.0,0.0,0.0,0.0,0.0
3.71,52.579820860054305,18.25654140677082,47.76564638614021,50.0,50.0,50.0,50.0,50.0,50.0,50.0,50.0,50.0,50.0,-6.515488577360086,8.555439971046228,23.07084756429376,0.0,0.0,0.0,0.0,0.0,0.0,0.0,0.0,0.0,0.0
3.72,52.5122635970475,18.342095806481282,47.99635486178315,50.0,50.0,50.0,50.0,50.0,50.0,50.0,50.0,50.0,50.0,-6.995964024001335,8.555439971046228,23.07084756429376,0.0,0.0,0.0,0.0,0.0,0.0,0.0,0.0,0.0,0.0
3.73,52.439901579574276,18.427650206191743,48.22706333742609,50.0,50.0,50.0,50.0,50.0,50.0,50.0,50.0,50.0,50.0,-7.476439470642562,8.555439971046228,23.07084756429376,0.0,0.0,0.0,0.0,0.0,0.0,0.0,0.0,0.0,0.0
3.74,52.36273480763464,18.513204605902207,48.45777181306903,50.0,50.0,50.0,50.0,50.0,50.0,50.0,50.0,50.0,50.0,-7.956914917283811,8.555439971046228,23.07084756429376,0.0,0.0,0.0,0.0,0.0,0.0,0.0,0.0,0.0,0.0
3.75,52.2807632812286,18.59875900561267,48.688480288711965,50.0,50.0,50.0,50.0,50.0,50.0,50.0,50.0,50.0,50.0,-8.437390363925038,8.555439971046228,23.07084756429376,0.0,0.0,0.0,0.0,0.0,0.0,0.0,0.0,0.0,0.0
3.76,52.193987000356145,18.68431340532313,48.9191887643549,50.0,50.0,50.0,50.0,50.0,50.0,50.0,50.0,50.0,50.0,-8.917865810566267,8.555439971046228,23.07084756429376,0.0,0.0,0.0,0.0,0.0,0.0,0.0,0.0,0.0,0.0
3.77,52.102405965017276,18.76986780503359,49.14989723999784,50.0,50.0,50.0,50.0,50.0,50.0,50.0,50.0,50.0,50.0,-9.398341257207514,8.555439971046228,23.07084756429376,0.0,0.0,0.0,0.0,0.0,0.0,0.0,0.0,0.0,0.0
3.78,52.006020175211994,18.855422204744052,49.380605715640776,50.0,50.0,50.0,50.0,50.0,50.0,50.0,50.0,50.0,50.0,-9.878816703848743,8.555439971046228,23.07084756429376,0.0,0.0,0.0,0.0,0.0,0.0,0.0,0.0,0.0,0.0
3.79,51.9048296309403,18.94097660445452,49.61131419128372,50.0,50.0,50.0,50.0,50.0,50.0,50.0,50.0,50.0,50.0,-10.35929215048999,8.555439971046228,23.07084756429376,0.0,0.0,0.0,0.0,0.0,0.0,0.0,0.0,0.0,0.0
3.8,51.7988343322022,19.02653100416498,49.84202266692665,50.0,50.0,50.0,50.0,50.0,50.0,50.0,50.0,50.0,50.0,-10.83976759713122,8.555439971046228,23.07084756429376,0.0,0.0,0.0,0.0,0.0,0.0,0.0,0.0,0.0,0.0
3.81,51.68803427899768,19.11208540387544,50.072731142569594,50.0,50.0,50.0,50.0,50.0,50.0,50.0,50.0,50.0,50.0,-11.320243043772466,8.555439971046228,23.07084756429376,0.0,0.0,0.0,0.0,0.0,0.0,0.0,0.0,0.0,0.0
3.82,51.57242947132674,19.197639803585904,50.30343961821252,50.0,50.0,50.0,50.0,50.0,50.0,50.0,50.0,50.0,50.0,-11.800718490413695,8.555439971046228,23.07084756429376,0.0,0.0,0.0,0.0,0.0,0.0,0.0,0.0,0.0,0.0
3.83,51.4520199091894,19.283194203296368,50.53414809385547,50.0,50.0,50.0,50.0,50.0,50.0,50.0,50.0,50.0,50.0,-12.281193937054942,8.555439971046228,23.07084756429376,0.0,0.0,0.0,0.0,0.0,0.0,0.0,0.0,0.0,0.0
3.84,51.32680559258565,19.36874860300683,50.7648565694984,50.0,50.0,50.0,50.0,50.0,50.0,50.0,50.0,50.0,50.0,-12.761669383696171,8.555439971046228,23.07084756429376,0.0,0.0,0.0,0.0,0.0,0.0,0.0,0.0,0.0,0.0
3.85,51.19678652151548,19.454303002717293,50.99556504514134,50.0,50.0,50.0,50.0,50.0,50.0,50.0,50.0,50.0,50.0,-13.24214483033742,8.555439971046228,23.07084756429376,0.0,0.0,0.0,0.0,0.0,0.0,0.0,0.0,0.0,0.0
3.86,51.06196269597889,19.539857402427753,51.224929841275134,50.0,50.0,50.0,50.0,50.0,50.0,50.0,50.0,50.0,50.0,-13.722620276978645,8.555439971046228,22.698165284117632,0.0,0.0,0.0,0.0,0.0,0.0,0.0,0.0,0.0,0.0
3.87,50.9223341159759,19.625411802138217,51.4493273198208,50.0,50.0,50.0,50.0,50.0,50.0,50.0,50.0,50.0,50.0,-14.203095723619894,8.555439971046228,22.181330425016235,0.0,0.0,0.0,0.0,0.0,0.0,0.0,0.0,0.0,0.0
3.88,50.7779007815065,19.710966201848677,51.66855644977546,50.0,50.0,50.0,50.0,50.0,50.0,50.0,50.0,50.0,50.0,-14.683571170261123,8.555439971046228,21.66449556591486,0.0,0.0,0.0,0.0,0.0,0.0,0.0,0.0,0.0,0.0
3.89,50.628662692570686,19.79652060155914,51.88261723113911,50.0,50.0,50.0,50.0,50.0,50.0,50.0,50.0,50.0,50.0,-15.164046616902372,8.555439971046228,21.147660706813465,0.0,0.0,0.0,0.0,0.0,0.0,0.0,0.0,0.0,0.0
3.9,50.474619849168455,19.8820750012696,52.09150966391173,50.0,50.0,50.0,50.0,50.0,50.0,50.0,50.0,50.0,50.0,-15.644522063543597,8.555439971046228,20.63082584771209,0.0,0.0,0.0,0.0,0.0,0.0,0.0,0.0,0.0,0.0
3.91,50.315772251299805,19.967629400980066,52.295233748093345,50.0,50.0,50.0,50.0,50.0,50.0,50.0,50.0,50.0,50.0,-16.124997510184844,8.555439971046228,20.11399098861069,0.0,0.0,0.0,0.0,0.0,0.0,0.0,0.0,0.0,0.0
3.92,50.152119898964756,20.053183800690526,52.49378948368394,50.0,50.0,50.0,50.0,50.0,50.0,50.0,50.0,50.0,50.0,-16.605472956826073,8.555439971046228,19.597156129509315,0.0,0.0,0.0,0.0,0.0,0.0,0.0,0.0,0.0,0.0
3.93,49.98366279216328,20.13873820040099,52.68717687068354,50.0,50.0,50.0,50.0,50.0,50.0,50.0,50.0,50.0,50.0,-17.085948403467324,8.555439971046228,19.080321270407918,0.0,0.0,0.0,0.0,0.0,0.0,0.0,0.0,0.0,0.0
3.94,49.81040093089541,20.22429260011145,52.8753959090921,50.0,50.0,50.0,50.0,50.0,50.0,50.0,50.0,50.0,50.0,-17.56642385010855,8.555439971046228,18.563486411306545,0.0,0.0,0.0,0.0,0.0,0.0,0.0,0.0,0.0,0.0
3.95,49.633682715929424,20.309846999821914,53.05844659890967,50.0,50.0,50.0,50.0,50.0,50.0,50.0,50.0,50.0,50.0,-17.686934448074798,8.555439971046228,18.046651552205148,0.0,0.0,0.0,0.0,0.0,0.0,0.0,0.0,0.0,0.0
3.96,49.45681337144868,20.395401399532375,53.236328940136204,50.0,50.0,50.0,50.0,50.0,50.0,50.0,50.0,50.0,50.0,-17.686934448074798,8.555439971046228,17.529816693103772,0.0,0.0,0.0,0.0,0.0,0.0,0.0,0.0,0.0,0.0
3.97,49.27994402696793,20.48095579924284,53.40904293277174,50.0,50.0,50.0,50.0,50.0,50.0,50.0,50.0,50.0,50.0,-17.686934448074798,8.555439971046228,17.012981834002375,0.0,0.0,0.0,0.0,0.0,0.0,0.0,0.0,0.0,0.0
3.98,49.10307468248719,20.566510198953303,53.576588576816256,50.0,50.0,50.0,50.0,50.0,50.0,50.0,50.0,50.0,50.0,-17.686934448074798,8.555439971046228,16.496146974901,0.0,0.0,0.0,0.0,0.0,0.0,0.0,0.0,0.0,0.0
3.99,48.92620533800644,20.652064598663763,53.73896587226976,50.0,50.0,50.0,50.0,50.0,50.0,50.0,50.0,50.0,50.0,-17.686934448074798,8.555439971046228,15.979312115799601,0.0,0.0,0.0,0.0,0.0,0.0,0.0,0.0,0.0,0.0
4.0,48.7493359935257,20.736611267270124,53.89617481913225,50.0,50.0,50.0,50.0,50.0,50.0,50.0,50.0,50.0,50.0,-17.686934448074798,8.337073594791047,15.462477256698225,0.0,0.0,0.0,0.0,0.0,0.0,0.0,0.0,0.0,0.0
4.01,48.57246664904495,20.818799051880994,54.04821541740372,50.0,50.0,50.0,50.0,50.0,50.0,50.0,50.0,50.0,50.0,-17.686934448074798,8.100483327383541,14.945642397596853,0.0,0.0,0.0,0.0,0.0,0.0,0.0,0.0,0.0,0.0
4.02,48.395597304564205,20.898620933817792,54.195087667084174,50.0,50.0,50.0,50.0,50.0,50.0,50.0,50.0,50.0,50.0,-17.686934448074798,7.863893059976032,14.428807538495478,0.0,0.0,0.0,0.0,0.0,0.0,0.0,0.0,0.0,0.0
4.03,48.21872796008344,20.976076913080522,54.33679156817364,50.0,50.0,50.0,50.0,50.0,50.0,50.0,50.0,50.0,50.0,-17.686934448074798,7.6273027925685035,13.911972679394058,0.0,0.0,0.0,0.0,0.0,0.0,0.0,0.0,0.0,0.0
4.04,48.041858615602706,21.051166989669163,54.47332712067206,50.0,50.0,50.0,50.0,50.0,50.0,50.0,50.0,50.0,50.0,-17.686934448074798,7.390712525160995,13.395137820292682,0.0,0.0,0.0,0.0,0.0,0.0,0.0,0.0,0.0,0.0
4.05,47.86498927112196,21.12389116358374,54.604694324579484,50.0,50.0,50.0,50.0,50.0,50.0,50.0,50.0,50.0,50.0,-17.686934448074798,7.154122257753487,12.878302961191308,0.0,0.0,0.0,0.0,0.0,0.0,0.0,0.0,0.0,0.0
4.06,47.688119926641214,21.194249434824233,54.73089317989589,50.0,50.0,50.0,50.0,50.0,50.0,50.0,50.0,50.0,50.0,-17.686934448074798,6.91753199034598,12.361468102089932,0.0,0.0,0.0,0.0,0.0,0.0,0.0,0.0,0.0,0.0
4.07,47.51125058216045,21.26224180339066,54.851923686621284,50.0,50.0,50.0,50.0,50.0,50.0,50.0,50.0,50.0,50.0,-17.686934448074798,6.680941722938451,11.844633242988511,0.0,0.0,0.0,0.0,0.0,0.0,0.0,0.0,0.0,0.0
4.08,47.33438123767971,21.327868269283005,54.96778584475566,50.0,50.0,50.0,50.0,50.0,50.0,50.0,50.0,50.0,50.0,-17.686934448074798,6.444351455530943,11.327798383887137,0.0,0.0,0.0,0.0,0.0,0.0,0.0,0.0,0.0,0.0
4.09,47.157511893198965,21.391128832501273,55.078479654299024,50.0,50.0,50.0,50.0,50.0,50.0,50.0,50.0,50.0,50.0,-17.686934448074798,6.207761188123435,10.81096352478576,0.0,0.0,0.0,0.0,0.0,0.0,0.0,0.0,0.0,0.0
4.1,46.980642548718215,21.45202349304547,55.18400511525137,50.0,50.0,50.0,50.0,50.0,50.0,50.0,50.0,50.0,50.0,-17.686934448074798,5.9711709207159265,10.294128665684388,0.0,0.0,0.0,0.0,0.0,0.0,0.0,0.0,0.0,0.0
4.11,46.80377320423746,21.510552250915595,55.28436222761272,50.0,50.0,50.0,50.0,50.0,50.0,50.0,50.0,50.0,50.0,-17.686934448074798,5.734580653308398,9.777293806582968,0.0,0.0,0.0,0.0,0.0,0.0,0.0,0.0,0.0,0.0
4.12,46.62690385975671,21.56671510611164,55.379550991383034,50.0,50.0,50.0,50.0,50.0,50.0,50.0,50.0,50.0,50.0,-17.686934448074798,5.49799038590089,9.260458947481593,0.0,0.0,0.0,0.0,0.0,0.0,0.0,0.0,0.0,0.0
4.13,46.45003451527597,21.620512058633615,55.469571406562345,50.0,50.0,50.0,50.0,50.0,50.0,50.0,50.0,50.0,50.0,-17.686934448074798,5.261400118493381,8.743624088380217,0.0,0.0,0.0,0.0,0.0,0.0,0.0,0.0,0.0,0.0
4.14,46.273165170795224,21.671943108481507,55.55442347315064,50.0,50.0,50.0,50.0,50.0,50.0,50.0,50.0,50.0,50.0,-17.686934448074798,5.024809851085874,8.226789229278843,0.0,0.0,0.0,0.0,0.0,0.0,0.0,0.0,0.0,0.0
4.15,46.09629582631447,21.72100825565533,55.63410719114792,50.0,50.0,50.0,50.0,50.0,50.0,50.0,50.0,50.0,50.0,-17.686934448074798,4.788219583678345,7.709954370177423,0.0,0.0,0.0,0.0,0.0,0.0,0.0,0.0,0.0,0.0
4.16,45.919426481833725,21.767707500155076,55.70862256055419,50.0,50.0,50.0,50.0,50.0,50.0,50.0,50.0,50.0,50.0,-17.686934448074798,4.551629316270837,7.193119511076048,0.0,0.0,0.0,0.0,0.0,0.0,0.0,0.0,0.0,0.0
4.17,45.74255713735298,21.812040841980746,55.77796958136945,50.0,50.0,50.0,50.0,50.0,50.0,50.0,50.0,50.0,50.0,-17.686934448074798,4.315039048863329,6.676284651974673,0.0,0.0,0.0,0.0,0.0,0.0,0.0,0.0,0.0,0.0
4.18,45.56568779287223,21.85400828113234,55.84214825359368,50.0,50.0,50.0,50.0,50.0,50.0,50.0,50.0,50.0,50.0,-17.686934448074798,4.078448781455822,6.159449792873298,0.0,0.0,0.0,0.0,0.0,0.0,0.0,0.0,0.0,0.0
4.19,45.388818448391476,21.893609817609864,55.90115857722691,50.0,50.0,50.0,50.0,50.0,50.0,50.0,50.0,50.0,50.0,-17.686934448074798,3.841858514048292,5.642614933771878,0.0,0.0,0.0,0.0,0.0,0.0,0.0,0.0,0.0,0.0
4.2,45.211949103910726,21.930845451413308,55.95500055226912,50.0,50.0,50.0,50.0,50.0,50.0,50.0,50.0,50.0,50.0,-17.686934448074798,3.605268246640784,5.125780074670503,0.0,0.0,0.0,0.0,0.0,0.0,0.0,0.0,0.0,0.0
4.21,45.03507975942999,21.96571518254268,56.00367417872032,50.0,50.0,50.0,50.0,50.0,50.0,50.0,50.0,50.0,50.0,-17.686934448074798,3.3686779792332766,4.608945215569129,0.0,0.0,0.0,0.0,0.0,0.0,0.0,0.0,0.0,0.0
4.22,44.85821041494924,21.998219010997975,56.0471794565805,50.0,50.0,50.0,50.0,50.0,50.0,50.0,50.0,50.0,50.0,-17.686934448074798,3.1320877118257684,4.092110356467754,0.0,0.0,0.0,0.0,0.0,0.0,0.0,0.0,0.0,0.0
4.23,44.68134107046848,22.028356936779197,56.08551638584967,50.0,50.0,50.0,50.0,50.0,50.0,50.0,50.0,50.0,50.0,-17.686934448074798,2.8954974444182398,3.575275497366333,0.0,0.0,0.0,0.0,0.0,0.0,0.0,0.0,0.0,0.0
4.24,44.50447172598774,22.05612895988634,56.11868496652783,50.0,50.0,50.0,50.0,50.0,50.0,50.0,50.0,50.0,50.0,-17.686934448074798,2.6589071770107315,3.0584406382649587,0.0,0.0,0.0,0.0,0.0,0.0,0.0,0.0,0.0,0.0
4.25,44.32760238150699,22.08153508031941,56.146685198614975,50.0,50.0,50.0,50.0,50.0,50.0,50.0,50.0,50.0,50.0,-17.686934448074798,2.4223169096032238,2.541605779163584,0.0,0.0,0.0,0.0,0.0,0.0,0.0,0.0,0.0,0.0
4.26,44.15073303702626,22.104575298078405,56.169517082111106,50.0,50.0,50.0,50.0,50.0,50.0,50.0,50.0,50.0,50.0,-17.686934448074798,2.1857266421957156,2.0247709200622093,0.0,0.0,0.0,0.0,0.0,0.0,0.0,0.0,0.0,0.0
4.27,43.97386369254551,22.125249613163323,56.18718061701622,50.0,50.0,50.0,50.0,50.0,50.0,50.0,50.0,50.0,50.0,-17.686934448074798,1.949136374788208,1.5079360609608343,0.0,0.0,0.0,0.0,0.0,0.0,0.0,0.0,0.0,0.0
4.28,43.79699434806474,22.143558025574166,56.19967580333032,50.0,50.0,50.0,50.0,50.0,50.0,50.0,50.0,50.0,50.0,-17.686934448074798,1.712546107380679,0.991101201859414,0.0,0.0,0.0,0.0,0.0,0.0,0.0,0.0,0.0,0.0
4.29,43.620125003584,22.159500535310936,56.20700264105341,50.0,50.0,50.0,50.0,50.0,50.0,50.0,50.0,50.0,50.0,-17.686934448074798,1.4759558399731711,0.47426634275803925,0.0,0.0,0.0,0.0,0.0,0.0,0.0,0.0,0.0,0.0
4.3,43.44325565910326,22.173077142373632,56.20921553813439,50.0,50.0,50.0,50.0,50.0,50.0,50.0,50.0,50.0,50.0,-17.686934448074798,1.2393655725656632,0.08954754982524729,0.0,0.0,0.0,0.0,0.0,0.0,0.0,0.0,0.0,0.0
4.31,43.266386314622515,22.184287846762253,56.215547108107195,50.0,50.0,50.0,50.0,50.0,50.0,50.0,50.0,50.0,50.0,-17.686934448074798,1.0027753051581554,1.1767664447357309,0.0,0.0,0.0,0.0,0.0,0.0,0.0,0.0,0.0,0.0
4.32,43.091630086658995,22.193132648476794,56.232750867029104,50.0,50.0,50.0,50.0,50.0,50.0,50.0,50.0,50.0,50.0,-17.236312521748793,0.7661850377506263,2.263985339646311,0.0,0.0,0.0,0.0,0.0,0.0,0.0,0.0,0.0,0.0
4.33,42.921669338674725,22.199611547517264,56.26082681490012,50.0,50.0,50.0,50.0,50.0,50.0,50.0,50.0,50.0,50.0,-16.755837075107564,0.5295947703431184,3.351204234556794,0.0,0.0,0.0,0.0,0.0,0.0,0.0,0.0,0.0,0.0
4.34,42.756513345156854,22.203724543883656,56.299774951720245,50.0,50.0,50.0,50.0,50.0,50.0,50.0,50.0,50.0,50.0,-16.27536162846634,0.2930045029356105,4.438423129467278,0.0,0.0,0.0,0.0,0.0,0.0,0.0,0.0,0.0,0.0
4.35,42.59616210610541,22.20547163757597,56.34959527748946,50.0,50.0,50.0,50.0,50.0,50.0,50.0,50.0,50.0,50.0,-15.79488618182511,0.05641423552810255,5.525642024377761,0.0,0.0,0.0,0.0,0.0,0.0,0.0,0.0,0.0,0.0
4.36,42.44061562152035,22.20750384484001,56.4102877922078,50.0,50.0,50.0,50.0,50.0,50.0,50.0,50.0,50.0,50.0,-15.31441073518384,0.5160371502525286,6.612860919288342,0.0,0.0,0.0,0.0,0.0,0.0,0.0,0.0,0.0,0.0
4.37,42.28987389140171,22.216052274290554,56.48185249587523,50.0,50.0,50.0,50.0,50.0,50.0,50.0,50.0,50.0,50.0,-14.833935288542612,1.1936487398570557,7.7000798141988245,0.0,0.0,0.0,0.0,0.0,0.0,0.0,0.0,0.0,0.0
4.38,42.14393691574951,22.23137681963715,56.56428938849177,50.0,50.0,50.0,50.0,50.0,50.0,50.0,50.0,50.0,50.0,-14.353459841901387,1.8712603294615828,8.787298709109308,0.0,0.0,0.0,0.0,0.0,0.0,0.0,0.0,0.0,0.0
4.39,42.0028046945637,22.253477480879788,56.657598470057415,50.0,50.0,50.0,50.0,50.0,50.0,50.0,50.0,50.0,50.0,-13.872984395260158,2.54887191906611,9.874517604019792,0.0,0.0,0.0,0.0,0.0,0.0,0.0,0.0,0.0,0.0
4.4,41.86647722784429,22.282354258018476,56.76177974057218,50.0,50.0,50.0,50.0,50.0,50.0,50.0,50.0,50.0,50.0,-13.392508948618888,3.2264835086706976,10.961736498930373,0.0,0.0,0.0,0.0,0.0,0.0,0.0,0.0,0.0,0.0
4.41,41.73495451559131,22.318007151053205,56.876833200036025,50.0,50.0,50.0,50.0,50.0,50.0,50.0,50.0,50.0,50.0,-12.91203350197766,3.9040950982752243,12.048955393840856,0.0,0.0,0.0,0.0,0.0,0.0,0.0,0.0,0.0,0.0
4.42,41.608236557804744,22.360436159983976,57.00275884844899,50.0,50.0,50.0,50.0,50.0,50.0,50.0,50.0,50.0,50.0,-12.431558055336433,4.581706687879751,13.13617428875134,0.0,0.0,0.0,0.0,0.0,0.0,0.0,0.0,0.0,0.0
4.43,41.48632335448459,22.409641284810792,57.13955668581105,50.0,50.0,50.0,50.0,50.0,50.0,50.0,50.0,50.0,50.0,-11.951082608695206,5.259318277484279,14.223393183661823,0.0,0.0,0.0,0.0,0.0,0.0,0.0,0.0,0.0,0.0
4.44,41.36921490563084,22.465622525533668,57.28722671212223,50.0,50.0,50.0,50.0,50.0,50.0,50.0,50.0,50.0,50.0,-11.470607162053936,5.936929867088866,15.310612078572403,0.0,0.0,0.0,0.0,0.0,0.0,0.0,0.0,0.0,0.0
4.45,41.256911211243505,22.528379882152574,57.4457689273825,50.0,50.0,50.0,50.0,50.0,50.0,50.0,50.0,50.0,50.0,-10.990131715412709,6.614541456693393,16.397830973482886,0.0,0.0,0.0,0.0,0.0,0.0,0.0,0.0,0.0,0.0
4.46,41.14941227132258,22.59791335466753,57.61518333159188,50.0,50.0,50.0,50.0,50.0,50.0,50.0,50.0,50.0,50.0,-10.509656268771481,7.292153046297921,17.485049868393368,0.0,0.0,0.0,0.0,0.0,0.0,0.0,0.0,0.0,0.0
4.47,41.04671808586808,22.67422294307853,57.795469924750364,50.0,50.0,50.0,50.0,50.0,50.0,50.0,50.0,50.0,50.0,-10.029180822130254,7.969764635902448,18.572268763303857,0.0,0.0,0.0,0.0,0.0,0.0,0.0,0.0,0.0,0.0
4.48,40.948828654879975,22.757308647385585,57.98662870685797,50.0,50.0,50.0,50.0,50.0,50.0,50.0,50.0,50.0,50.0,-9.548705375488984,8.647376225507035,19.65948765821443,0.0,0.0,0.0,0.0,0.0,0.0,0.0,0.0,0.0,0.0
4.49,40.85574397835829,22.847170467588676,58.188659677914664,50.0,50.0,50.0,50.0,50.0,50.0,50.0,50.0,50.0,50.0,-9.068229928847757,9.324987815111562,20.74670655312492,0.0,0.0,0.0,0.0,0.0,0.0,0.0,0.0,0.0,0.0
4.5,40.76746405630302,22.94380840368781,58.40156283792046,50.0,50.0,50.0,50.0,50.0,50.0,50.0,50.0,50.0,50.0,-8.58775448220653,10.00259940471609,21.833925448035398,0.0,0.0,0.0,0.0,0.0,0.0,0.0,0.0,0.0,0.0
4.51,40.68398888871417,23.04722245568299,58.625338186875354,50.0,50.0,50.0,50.0,50.0,50.0,50.0,50.0,50.0,50.0,-8.107279035565302,10.680210994320616,22.921144342945883,0.0,0.0,0.0,0.0,0.0,0.0,0.0,0.0,0.0,0.0
4.52,40.60531847559172,23.15741262357422,58.859985724779364,50.0,50.0,50.0,50.0,50.0,50.0,50.0,50.0,50.0,50.0,-7.626803588924075,11.357822583925143,24.008363237856365,0.0,0.0,0.0,0.0,0.0,0.0,0.0,0.0,0.0,0.0
4.53,40.53145281693568,23.274378907361502,59.105505451632496,50.0,50.0,50.0,50.0,50.0,50.0,50.0,50.0,50.0,50.0,-7.146328142282805,12.03543417352973,25.095582132766946,0.0,0.0,0.0,0.0,0.0,0.0,0.0,0.0,0.0,0.0
4.54,40.46239191274606,23.398121307044818,59.361897367434715,50.0,50.0,50.0,50.0,50.0,50.0,50.0,50.0,50.0,50.0,-6.665852695641577,12.713045763134259,26.18280102767743,0.0,0.0,0.0,0.0,0.0,0.0,0.0,0.0,0.0,0.0
4.55,40.39813576302286,23.528639822624182,59.629161472186034,50.0,50.0,50.0,50.0,50.0,50.0,50.0,50.0,50.0,50.0,-6.18537724900035,13.390657352738785,27.270019922587913,0.0,0.0,0.0,0.0,0.0,0.0,0.0,0.0,0.0,0.0
4.56,40.338684367766064,23.665934454099588,59.90729776588646,50.0,50.0,50.0,50.0,50.0,50.0,50.0,50.0,50.0,50.0,-5.704901802359123,14.068268942343312,28.3572388174984,0.0,0.0,0.0,0.0,0.0,0.0,0.0,0.0,0.0,0.0
4.57,40.28403772697567,23.810005201471053,60.19630624853602,50.0,50.0,50.0,50.0,50.0,50.0,50.0,50.0,50.0,50.0,-5.224426355717853,14.745880531947899,29.444457712408976,0.0,0.0,0.0,0.0,0.0,0.0,0.0,0.0,0.0,0.0
4.58,40.234195840651694,23.96085206473855,60.49618692013465,50.0,50.0,50.0,50.0,50.0,50.0,50.0,50.0,50.0,50.0,-4.743950909076625,15.423492121552426,30.53167660731946,0.0,0.0,0.0,0.0,0.0,0.0,0.0,0.0,0.0,0.0
4.59,40.18915870879414,24.118475043902095,60.80693978068239,50.0,50.0,50.0,50.0,50.0,50.0,50.0,50.0,50.0,50.0,-4.263475462435398,16.101103711156952,31.618895502229943,0.0,0.0,0.0,0.0,0.0,0.0,0.0,0.0,0.0,0.0
4.6,40.14892633140299,24.282874138961684,61.12856483017924,50.0,50.0,50.0,50.0,50.0,50.0,50.0,50.0,50.0,50.0,-3.7830000157941712,16.778715300761483,32.70611439714043,0.0,0.0,0.0,0.0,0.0,0.0,0.0,0.0,0.0,0.0
4.61,40.113498708478254,24.454049349917334,61.46106206862522,50.0,50.0,50.0,50.0,50.0,50.0,50.0,50.0,50.0,50.0,-3.3025245691529013,17.456326890366068,33.79333329205101,0.0,0.0,0.0,0.0,0.0,0.0,0.0,0.0,0.0,0.0
4.62,40.08287584001993,24.632000676769014,61.80443149602027,50.0,50.0,50.0,50.0,50.0,50.0,50.0,50.0,50.0,50.0,-2.822049122511674,18.133938479970595,34.880552186961495,0.0,0.0,0.0,0.0,0.0,0.0,0.0,0.0,0.0,0.0
4.63,40.05705772602802,24.81672811951674,62.15867311236443,50.0,50.0,50.0,50.0,50.0,50.0,50.0,50.0,50.0,50.0,-2.3415736758704466,18.81155006957512,35.96777108187198,0.0,0.0,0.0,0.0,0.0,0.0,0.0,0.0,0.0,0.0
4.64,40.03604436650252,25.008231678160506,62.5237869176577,50.0,50.0,50.0,50.0,50.0,50.0,50.0,50.0,50.0,50.0,-1.861098229229219,19.48916165917965,37.054989976782466,0.0,0.0,0.0,0.0,0.0,0.0,0.0,0.0,0.0,0.0
4.65,40.01983576144343,25.20651135270034,62.8997729119001,50.0,50.0,50.0,50.0,50.0,50.0,50.0,50.0,50.0,50.0,-1.3806227825879491,20.166773248784235,38.142208871693036,0.0,0.0,0.0,0.0,0.0,0.0,0.0,0.0,0.0,0.0
4.66,40.00843191085076,25.4115671431362,63.28663109509157,50.0,50.0,50.0,50.0,50.0,50.0,50.0,50.0,50.0,50.0,-0.9001473359467219,20.844384838388763,39.22942776660352,0.0,0.0,0.0,0.0,0.0,0.0,0.0,0.0,0.0,0.0
4.67,40.0018328147245,25.623399049468105,63.68436146723215,50.0,50.0,50.0,50.0,50.0,50.0,50.0,50.0,50.0,50.0,-0.4196718893054946,21.52199642799329,40.31664666151401,0.0,0.0,0.0,0.0,0.0,0.0,0.0,0.0,0.0,0.0
4.68,40.0000009513359,25.84200707169606,64.09296402832183,50.0,50.0,50.0,50.0,50.0,50.0,50.0,50.0,50.0,50.0,0.0015035092114753451,22.199608017597818,41.40386555642449,0.0,0.0,0.0,0.0,0.0,0.0,0.0,0.0,0.0,0.0
4.69,40.000075390786215,26.067391209820073,64.51243877836066,50.0,50.0,50.0,50.0,50.0,50.0,50.0,50.0,50.0,50.0,0.013384380850680319,22.877219607202406,42.49108445133508,0.0,0.0,0.0,0.0,0.0,0.0,0.0,0.0,0.0,0.0
4.7,40.00026863895292,26.299551463840118,64.94278571734856,50.0,50.0,50.0,50.0,50.0,50.0,50.0,50.0,50.0,50.0,0.02526525248988424,23.554831196806933,43.578303346245555,0.0,0.0,0.0,0.0,0.0,0.0,0.0,0.0,0.0,0.0
4.71,40.00058069583601,26.538487833756204,65.38324701547589,50.0,50.0,50.0,50.0,50.0,50.0,50.0,50.0,50.0,50.0,0.03714612412908816,24.23244278641146,44.25958458875397,0.0,0.0,0.0,0.0,0.0,0.0,0.0,0.0,0.0,0.0
4.72,40.001011561435504,26.784200319568335,65.82584286136343,50.0,50.0,50.0,50.0,50.0,50.0,50.0,50.0,50.0,50.0,0.049026995768292086,24.910054376015985,44.25958458875397,0.0,0.0,0.0,0.0,0.0,0.0,0.0,0.0,0.0,0.0
4.73,40.00156123575138,27.036688921276536,66.268438707251,50.0,50.0,50.0,50.0,50.0,50.0,50.0,50.0,50.0,50.0,0.060907867407497054,25.587665965620577,44.25958458875397,0.0,0.0,0.0,0.0,0.0,0.0,0.0,0.0,0.0,0.0
4.74,40.00222971878365,27.295953638880757,66.71103455313852,50.0,50.0,50.0,50.0,50.0,50.0,50.0,50.0,50.0,50.0,0.07278873904670098,26.2652775552251,44.25958458875397,0.0,0.0,0.0,0.0,0.0,0.0,0.0,0.0,0.0,0.0
4.75,40.00301701053231,27.561994472381024,67.15363039902606,50.0,50.0,50.0,50.0,50.0,50.0,50.0,50.0,50.0,50.0,0.0846696106859049,26.94288914482963,44.25958458875397,0.0,0.0,0.0,0.0,0.0,0.0,0.0,0.0,0.0,0.0
4.76,40.00392311099737,27.83481142177734,67.5962262449136,50.0,50.0,50.0,50.0,50.0,50.0,50.0,50.0,50.0,50.0,0.09655048232510881,27.620500734434156,44.25958458875397,0.0,0.0,0.0,0.0,0.0,0.0,0.0,0.0,0.0,0.0
4.77,40.004948020178816,28.1144044870697,68.03882209080112,50.0,50.0,50.0,50.0,50.0,50.0,50.0,50.0,50.0,50.0,0.10843135396431273,28.298112324038684,44.25958458875397,0.0,0.0,0.0,0.0,0.0,0.0,0.0,0.0,0.0,0.0
4.78,40.00609173807665,28.400773668258125,68.48141793668869,50.0,50.0,50.0,50.0,50.0,50.0,50.0,50.0,50.0,50.0,0.1203122256035177,28.97572391364327,44.25958458875397,0.0,0.0,0.0,0.0,0.0,0.0,0.0,0.0,0.0,0.0
4.79,40.00735426469088,28.693918965342576,68.92401378257622,50.0,50.0,50.0,50.0,50.0,50.0,50.0,50.0,50.0,50.0,0.13219309724272163,29.6533355032478,44.25958458875397,0.0,0.0,0.0,0.0,0.0,0.0,0.0,0.0,0.0,0.0
4.8,40.00873560002151,28.99384037832307,69.36660962846375,50.0,50.0,50.0,50.0,50.0,50.0,50.0,50.0,50.0,50.0,0.14407396888192556,30.330947092852327,44.25958458875397,0.0,0.0,0.0,0.0,0.0,0.0,0.0,0.0,0.0,0.0
4.81,40.010235744068524,29.30053790719961,69.80920547435127,50.0,50.0,50.0,50.0,50.0,50.0,50.0,50.0,50.0,50.0,0.15595484052112948,31.00855868245685,44.25958458875397,0.0,0.0,0.0,0.0,0.0,0.0,0.0,0.0,0.0,0.0
4.82,40.011854696831925,29.614011551972226,70.25180132023885,50.0,50.0,50.0,50.0,50.0,50.0,50.0,50.0,50.0,50.0,0.16783571216033444,31.686170272061442,44.25958458875397,0.0,0.0,0.0,0.0,0.0,0.0,0.0,0.0,0.0,0.0
4.83,40.01359245831173,29.934261312640853,70.69439716612638,50.0,50.0,50.0,50.0,50.0,50.0,50.0,50.0,50.0,50.0,0.17971658379953837,32.36378186166597,44.25958458875397,0.0,0.0,0.0,0.0,0.0,0.0,0.0,0.0,0.0,0.0
