milky766/affetto/tests/data/rand_traj_trapez_sync_1-3-5-7.csv
t,q0,q1,q2,q3,q4,q5,q6,q7,q8,q9,q10,q11,q12,dq0,dq1,dq2,dq3,dq4,dq5,dq6,dq7,dq8,dq9,dq10,dq11,dq12
0.0,50.0,50.0,50.0,50.0,50.0,50.0,50.0,50.0,50.0,50.0,50.0,50.0,50.0,0.0,-0.0,0.0,-0.0,0.0,-0.0,0.0,-0.0,0.0,0.0,0.0,0.0,0.0
0.01,50.0,49.99517548303057,50.0,49.993188135064884,50.0,49.99335954821772,50.0,49.995538775674476,50.0,50.0,50.0,50.0,50.0,0.0,-0.9649033938857166,0.0,-1.3623729870237737,0.0,-1.3280903564568005,0.0,-0.8922448651053343,0.0,0.0,0.0,0.0,0.0
0.02,50.0,49.98070193212228,50.0,49.97275254025952,50.0,49.97343819287086,50.0,49.98215510269789,50.0,50.0,50.0,50.0,50.0,0.0,-1.929806787771433,0.0,-2.7247459740475475,0.0,-2.656180712913601,0.0,-1.7844897302106686,0.0,0.0,0.0,0.0,0.0
0.03,50.0,49.956579347275145,50.0,49.93869321558393,50.0,49.94023593395944,50.0,49.95984898107026,50.0,50.0,50.0,50.0,50.0,0.0,-2.8947101816571497,0.0,-4.0871189610713206,0.0,-3.984271069370401,0.0,-2.676734595316003,0.0,0.0,0.0,0.0,0.0
0.04,50.0,49.92280772848915,50.0,49.8910101610381,50.0,49.89375277148346,50.0,49.92862041079158,50.0,50.0,50.0,50.0,50.0,0.0,-3.859613575542866,0.0,-5.449491948095095,0.0,-5.312361425827202,0.0,-3.568979460421337,0.0,0.0,0.0,0.0,0.0
0.05,50.0,49.87938707576429,50.0,49.829703376622035,50.0,49.833988705442906,50.0,49.88846939186184,50.0,50.0,50.0,50.0,50.0,0.0,-4.824516969428584,0.0,-6.8118649351188685,0.0,-6.640451782284003,0.0,-4.461224325526672,0.0,0.0,0.0,0.0,0.0
0.06,50.0,49.826317389100566,50.0,49.75477286233572,50.0,49.76094373583777,50.0,49.839395924281035,50.0,50.0,50.0,50.0,50.0,0.0,-5.789420363314299,0.0,-8.174237922142641,0.0,-7.968542138740802,0.0,-5.353469190632006,0.0,0.0,0.0,0.0,0.0
0.07,50.0,49.763598668498,50.0,49.66621861817917,50.0,49.674617862668086,50.0,49.78140000804919,50.0,50.0,50.0,50.0,50.0,0.0,-6.754323757200018,0.0,-9.536610909166416,0.0,-9.296632495197604,0.0,-6.245714055737341,0.0,0.0,0.0,0.0,0.0
0.08,50.0,49.691230913956566,50.0,49.564040644152385,50.0,49.575011085933816,50.0,49.71448164316629,50.0,50.0,50.0,50.0,50.0,0.0,-7.719227151085732,0.0,-10.89898389619019,0.0,-10.624722851654404,0.0,-7.137958920842674,0.0,0.0,0.0,0.0,0.0
0.09,50.0,49.609214125476285,50.0,49.44823894025537,50.0,49.462123405635,50.0,49.638640829632344,50.0,50.0,50.0,50.0,50.0,0.0,-8.684130544971449,0.0,-12.261356883213962,0.0,-11.952813208111204,0.0,-8.030203785948009,0.0,0.0,0.0,0.0,0.0
0.1,50.0,49.51754830305714,50.0,49.31881350648811,50.0,49.3359548217716,50.0,49.55387756744733,50.0,50.0,50.0,50.0,50.0,0.0,-9.649033938857167,0.0,-13.623729870237737,0.0,-13.280903564568005,0.0,-8.922448651053344,0.0,0.0,0.0,0.0,0.0
0.11,50.0,49.416233446699145,50.0,49.17576434285062,50.0,49.196505334343634,50.0,49.460191856611274,50.0,50.0,50.0,50.0,50.0,0.0,-10.613937332742882,0.0,-14.98610285726151,0.0,-14.608993921024805,0.0,-9.814693516158679,0.0,0.0,0.0,0.0,0.0
0.12,50.0,49.30526955640229,50.0,49.01909144934289,50.0,49.04377494335111,50.0,49.35758369712416,50.0,50.0,50.0,50.0,50.0,0.0,-11.578840726628599,0.0,-16.348475844285282,0.0,-15.937084277481604,0.0,-10.706938381264012,0.0,0.0,0.0,0.0,0.0
0.13,50.0,49.18465663216657,50.0,48.84879482596491,50.0,48.877763648794,50.0,49.246053088985995,50.0,50.0,50.0,50.0,50.0,0.0,-12.543744120514317,0.0,-17.710848831309058,0.0,-17.265174633938408,0.0,-11.599183246369348,0.0,0.0,0.0,0.0,0.0
0.14,50.0,49.05439467399199,50.0,48.6648744727167,50.0,48.698471450672336,50.0,49.12560003219677,50.0,50.0,50.0,50.0,50.0,0.0,-13.508647514400035,0.0,-19.073221818332833,0.0,-18.59326499039521,0.0,-12.491428111474683,0.0,0.0,0.0,0.0,0.0
0.15,50.0,48.914483681878565,50.0,48.46733038959825,50.0,48.50589834898609,50.0,48.99622452675649,50.0,50.0,50.0,50.0,50.0,0.0,-14.473550908285748,0.0,-20.435594805356605,0.0,-19.921355346852003,0.0,-13.383672976580014,0.0,0.0,0.0,0.0,0.0
0.16,50.0,48.76492365582629,50.0,48.256162576609576,50.0,48.3000443437353,50.0,48.85792657266518,50.0,50.0,50.0,50.0,50.0,0.0,-15.438454302171465,0.0,-21.79796779238038,0.0,-21.249445703308808,0.0,-14.275917841685349,0.0,0.0,0.0,0.0,0.0
0.17,50.0,48.60571459583514,50.0,48.031371033750645,50.0,48.080909434919924,50.0,48.710706169922794,50.0,50.0,50.0,50.0,50.0,0.0,-16.40335769605718,0.0,-23.160340779404155,0.0,-22.57753605976561,0.0,-15.168162706790685,0.0,0.0,0.0,0.0,0.0
0.18,50.0,48.43685650190513,50.0,47.79295576102148,50.0,47.848493622539976,50.0,48.554563318529354,50.0,50.0,50.0,50.0,50.0,0.0,-17.368261089942898,0.0,-24.522713766427923,0.0,-23.905626416222407,0.0,-16.060407571896018,0.0,0.0,0.0,0.0,0.0
0.19,50.0,48.258349374036285,50.0,47.54091675842209,50.0,47.60279690659548,50.0,48.38949801848487,50.0,50.0,50.0,50.0,50.0,0.0,-18.333164483828615,0.0,-25.8850867534517,0.0,-25.23371677267921,0.0,-16.95265243700135,0.0,0.0,0.0,0.0,0.0
0.2,50.0,48.07019321222857,50.0,47.27525402595246,50.0,47.3438192870864,50.0,48.215510269789334,50.0,50.0,50.0,50.0,50.0,0.0,-19.298067877714335,0.0,-27.247459740475474,0.0,-26.56180712913601,0.0,-17.844897302106688,0.0,0.0,0.0,0.0,0.0
0.21,50.0,47.872388016482,50.0,46.99596756361258,50.0,47.07156076401276,50.0,48.03260007244274,50.0,50.0,50.0,50.0,50.0,0.0,-20.262971271600048,0.0,-28.609832727499246,0.0,-27.889897485592808,0.0,-18.73714216721202,0.0,0.0,0.0,0.0,0.0
0.22,50.0,47.66493378679656,50.0,46.703057371402465,50.0,46.78602133737454,50.0,47.84076742644509,50.0,50.0,50.0,50.0,50.0,0.0,-21.227874665485764,0.0,-29.97220571452302,0.0,-29.21798784204961,0.0,-19.629387032317357,0.0,0.0,0.0,0.0,0.0
0.23,50.0,47.44783052317228,50.0,46.39652344932212,50.0,46.48720100717176,50.0,47.64001233179639,50.0,50.0,50.0,50.0,50.0,0.0,-22.192778059371484,0.0,-31.334578701546796,0.0,-30.54607819850641,0.0,-20.52163189742269,0.0,0.0,0.0,0.0,0.0
0.24,50.0,47.22107822560913,50.0,46.07636579737153,50.0,46.17509977340441,50.0,47.43033478849664,50.0,50.0,50.0,50.0,50.0,0.0,-23.157681453257197,0.0,-32.696951688570564,0.0,-31.87416855496321,0.0,-21.413876762528023,0.0,0.0,0.0,0.0,0.0
0.25,50.0,46.98467689410714,50.0,45.74258441555071,50.0,45.849717636072505,50.0,47.211734796545834,50.0,50.0,50.0,50.0,50.0,0.0,-24.122584847142917,0.0,-34.05932467559434,0.0,-33.20225891142001,0.0,-22.30612162763336,0.0,0.0,0.0,0.0,0.0
0.26,50.0,46.73862652866628,50.0,45.39517930385965,50.0,45.51105459517602,50.0,46.984212355943974,50.0,50.0,50.0,50.0,50.0,0.0,-25.087488241028634,0.0,-35.421697662618115,0.0,-34.530349267876815,0.0,-23.198366492738696,0.0,0.0,0.0,0.0,0.0
0.27,50.0,46.482927129286566,50.0,45.03415046229834,50.0,45.159110650714965,50.0,46.74776746669106,50.0,50.0,50.0,50.0,50.0,0.0,-26.05239163491435,0.0,-36.78407064964189,0.0,-35.85843962433361,0.0,-24.09061135784403,0.0,0.0,0.0,0.0,0.0
0.28,50.0,46.217578695967994,50.0,44.65949789086681,50.0,44.793885802689346,50.0,46.502400128787095,50.0,50.0,50.0,50.0,50.0,0.0,-27.01729502880007,0.0,-38.146443636665666,0.0,-37.18652998079042,0.0,-24.982856222949366,0.0,0.0,0.0,0.0,0.0
0.29,50.0,45.942581228710566,50.0,44.27122158956503,50.0,44.415380051099156,50.0,46.24811034223207,50.0,50.0,50.0,50.0,50.0,0.0,-27.982198422685777,0.0,-39.508816623689434,0.0,-38.51462033724721,0.0,-25.87510108805469,0.0,0.0,0.0,0.0,0.0
0.3,50.0,45.657934727514274,50.0,43.86932155839302,50.0,44.023593395944395,50.0,45.984898107026,50.0,50.0,50.0,50.0,50.0,0.0,-28.947101816571497,0.0,-40.87118961071321,0.0,-39.84271069370401,0.0,-26.767345953160028,0.0,0.0,0.0,0.0,0.0
0.31,50.0,45.36363919237913,50.0,43.45379779735077,50.0,43.61852583722508,50.0,45.71276342316887,50.0,50.0,50.0,50.0,50.0,0.0,-29.912005210457213,0.0,-42.233562597736984,0.0,-41.17080105016081,0.0,-27.659590818265364,0.0,0.0,0.0,0.0,0.0
0.32,50.0,45.05969462330513,50.0,43.024650306438275,50.0,43.20017737494118,50.0,45.431706290660685,50.0,50.0,50.0,50.0,50.0,0.0,-30.87690860434293,0.0,-43.59593558476076,0.0,-42.498891406617616,0.0,-28.551835683370697,0.0,0.0,0.0,0.0,0.0
0.33,50.0,44.74610102029227,50.0,42.58187908565555,50.0,42.768548009092726,50.0,45.141726709501455,50.0,50.0,50.0,50.0,50.0,0.0,-31.84181199822865,0.0,-44.958308571784535,0.0,-43.826981763074414,0.0,-29.444080548476034,0.0,0.0,0.0,0.0,0.0
0.34,50.0,44.422858383340554,50.0,42.12548413500259,50.0,42.32363773967969,50.0,44.84282467969117,50.0,50.0,50.0,50.0,50.0,0.0,-32.80671539211436,0.0,-46.32068155880831,0.0,-45.15507211953122,0.0,-30.33632541358137,0.0,0.0,0.0,0.0,0.0
0.35,50.0,44.089966712449986,50.0,41.65546545447938,50.0,41.8654465667021,50.0,44.53500020122982,50.0,50.0,50.0,50.0,50.0,0.0,-33.771618786000076,0.0,-47.68305454583207,0.0,-46.48316247598801,0.0,-31.2285702786867,0.0,0.0,0.0,0.0,0.0
0.36,50.0,43.747426007620554,50.0,41.17182304408595,50.0,41.393974490159934,50.0,44.21825327411743,50.0,50.0,50.0,50.0,50.0,0.0,-34.736522179885796,0.0,-49.04542753285585,0.0,-47.811252832444815,0.0,-32.120815143792036,0.0,0.0,0.0,0.0,0.0
0.37,50.0,43.39523626885227,50.0,40.67455690382227,50.0,40.9092215100532,50.0,43.89258389835399,50.0,50.0,50.0,50.0,50.0,0.0,-35.701425573771516,0.0,-50.40780051987962,0.0,-49.13934318890161,0.0,-33.01306000889737,0.0,0.0,0.0,0.0,0.0
0.38,50.0,43.03346264824513,50.0,40.16375902368616,50.0,40.41127730155173,50.0,43.55805231999836,50.0,50.0,50.0,50.0,50.0,0.0,-36.55419914788882,0.0,-51.611854406296715,0.0,-50.31309837227341,0.0,-33.80161858110798,0.0,0.0,0.0,0.0,0.0
0.39,50.0,42.66792065676624,50.0,39.64764047962319,50.0,39.908146317828994,50.0,43.22003613418728,50.0,50.0,50.0,50.0,50.0,0.0,-36.55419914788882,0.0,-51.611854406296715,0.0,-50.31309837227341,0.0,-33.80161858110798,0.0,0.0,0.0,0.0,0.0
0.4,50.0,42.30237866528735,50.0,39.13152193556022,50.0,39.40501533410625,50.0,42.8820199483762,50.0,50.0,50.0,50.0,50.0,0.0,-36.55419914788882,0.0,-51.611854406296715,0.0,-50.31309837227341,0.0,-33.80161858110798,0.0,0.0,0.0,0.0,0.0
0.41,50.0,41.93683667380846,50.0,38.61540339149726,50.0,38.901884350383526,50.0,42.54400376256512,50.0,50.0,50.0,50.0,50.0,0.0,-36.55419914788882,0.0,-51.611854406296715,0.0,-50.31309837227341,0.0,-33.80161858110798,0.0,0.0,0.0,0.0,0.0
0.42,50.0,41.57129468232957,50.0,38.09928484743429,50.0,38.39875336666079,50.0,42.20598757675404,50.0,50.0,50.0,50.0,50.0,0.0,-36.55419914788882,0.0,-51.611854406296715,0.0,-50.31309837227341,0.0,-33.80161858110798,0.0,0.0,0.0,0.0,0.0
0.43,50.0,41.20575269085068,50.0,37.58316630337132,50.0,37.89562238293805,50.0,41.867971390942955,50.0,50.0,50.0,50.0,50.0,0.0,-36.55419914788882,0.0,-51.611854406296715,0.0,-50.31309837227341,0.0,-33.80161858110798,0.0,0.0,0.0,0.0,0.0
0.44,50.0,40.84021069937179,50.0,37.06704775930835,50.0,37.39249139921532,50.0,41.52995520513188,50.0,50.0,50.0,50.0,50.0,0.0,-36.55419914788882,0.0,-51.611854406296715,0.0,-50.31309837227341,0.0,-33.80161858110798,0.0,0.0,0.0,0.0,0.0
0.45,50.0,40.4746687078929,50.0,36.55092921524539,50.0,36.88936041549258,50.0,41.1919390193208,50.0,50.0,50.0,50.0,50.0,0.0,-36.55419914788882,0.0,-51.611854406296715,0.0,-50.31309837227341,0.0,-33.80161858110798,0.0,0.0,0.0,0.0,0.0
0.46,50.0,40.10912671641402,50.0,36.03481067118242,50.0,36.386229431769856,50.0,40.85392283350972,50.0,50.0,50.0,50.0,50.0,0.0,-36.55419914788882,0.0,-51.611854406296715,0.0,-50.31309837227341,0.0,-33.80161858110798,0.0,0.0,0.0,0.0,0.0
0.47,50.0,39.74358472493513,50.0,35.51869212711946,50.0,35.88309844804712,50.0,40.51590664769864,50.0,50.0,50.0,50.0,50.0,0.0,-36.55419914788882,0.0,-51.611854406296715,0.0,-50.31309837227341,0.0,-33.80161858110798,0.0,0.0,0.0,0.0,0.0
0.48,50.0,39.37804273345624,50.0,35.00257358305649,50.0,35.37996746432438,50.0,40.17789046188756,50.0,50.0,50.0,50.0,50.0,0.0,-36.55419914788882,0.0,-51.611854406296715,0.0,-50.31309837227341,0.0,-33.80161858110798,0.0,0.0,0.0,0.0,0.0
0.49,50.0,39.012500741977355,50.0,34.48645503899352,50.0,34.87683648060165,50.0,39.839874276076486,50.0,50.0,50.0,50.0,50.0,0.0,-36.55419914788882,0.0,-51.611854406296715,0.0,-50.31309837227341,0.0,-33.80161858110798,0.0,0.0,0.0,0.0,0.0
0.5,50.0,38.64695875049846,50.0,33.97033649493055,50.0,34.37370549687891,50.0,39.5018580902654,50.0,50.0,50.0,50.0,50.0,0.0,-36.55419914788882,0.0,-51.611854406296715,0.0,-50.31309837227341,0.0,-33.80161858110798,0.0,0.0,0.0,0.0,0.0
0.51,50.0,38.28141675901958,50.0,33.45421795086758,50.0,33.87057451315618,50.0,39.163841904454316,50.0,50.0,50.0,50.0,50.0,0.0,-36.55419914788882,0.0,-51.611854406296715,0.0,-50.31309837227341,0.0,-33.80161858110798,0.0,0.0,0.0,0.0,0.0
0.52,50.0,37.915874767540686,50.0,32.93809940680462,50.0,33.367443529433444,50.0,38.825825718643244,50.0,50.0,50.0,50.0,50.0,0.0,-36.55419914788882,0.0,-51.611854406296715,0.0,-50.31309837227341,0.0,-33.80161858110798,0.0,0.0,0.0,0.0,0.0
0.53,50.0,37.5503327760618,50.0,32.421980862741655,50.0,32.86431254571072,50.0,38.487809532832166,50.0,50.0,50.0,50.0,50.0,0.0,-36.55419914788882,0.0,-51.611854406296715,0.0,-50.31309837227341,0.0,-33.80161858110798,0.0,0.0,0.0,0.0,0.0
0.54,50.0,37.18479078458291,50.0,31.90586231867868,50.0,32.361181561987976,50.0,38.14979334702108,50.0,50.0,50.0,50.0,50.0,0.0,-36.55419914788882,0.0,-51.611854406296715,0.0,-50.31309837227341,0.0,-33.80161858110798,0.0,0.0,0.0,0.0,0.0
0.55,50.0,36.81924879310402,50.0,31.389743774615713,50.0,31.858050578265242,50.0,37.81177716121,50.0,50.0,50.0,50.0,50.0,0.0,-36.55419914788882,0.0,-51.611854406296715,0.0,-50.31309837227341,0.0,-33.80161858110798,0.0,0.0,0.0,0.0,0.0
0.56,50.0,36.45370680162513,50.0,30.873625230552747,50.0,31.35491959454251,50.0,37.47376097539892,50.0,50.0,50.0,50.0,50.0,0.0,-36.55419914788882,0.0,-51.611854406296715,0.0,-50.31309837227341,0.0,-33.80161858110798,0.0,0.0,0.0,0.0,0.0
0.57,50.0,36.08816481014625,50.0,30.357506686489785,50.0,30.85178861081978,50.0,37.13574478958785,50.0,50.0,50.0,50.0,50.0,0.0,-36.55419914788882,0.0,-51.611854406296715,0.0,-50.31309837227341,0.0,-33.80161858110798,0.0,0.0,0.0,0.0,0.0
0.58,50.0,35.72262281866736,50.0,29.841388142426815,50.0,30.34865762709704,50.0,36.79772860377676,50.0,50.0,50.0,50.0,50.0,0.0,-36.55419914788882,0.0,-51.611854406296715,0.0,-50.31309837227341,0.0,-33.80161858110798,0.0,0.0,0.0,0.0,0.0
0.59,50.0,35.35708082718847,50.0,29.32526959836385,50.0,29.84552664337431,50.0,36.45971241796568,50.0,50.0,50.0,50.0,50.0,0.0,-36.55419914788882,0.0,-51.611854406296715,0.0,-50.31309837227341,0.0,-33.80161858110798,0.0,0.0,0.0,0.0,0.0
0.6,50.0,34.991538835709584,50.0,28.809151054300884,50.0,29.342395659651576,50.0,36.121696232154605,50.0,50.0,50.0,50.0,50.0,0.0,-36.55419914788882,0.0,-51.611854406296715,0.0,-50.31309837227341,0.0,-33.80161858110798,0.0,0.0,0.0,0.0,0.0
0.61,50.0,34.62599684423069,50.0,28.29303251023791,50.0,28.83926467592884,50.0,35.78368004634352,50.0,50.0,50.0,50.0,50.0,0.0,-36.55419914788882,0.0,-51.611854406296715,0.0,-50.31309837227341,0.0,-33.80161858110798,0.0,0.0,0.0,0.0,0.0
0.62,50.0,34.260454852751806,50.0,27.776913966174945,50.0,28.336133692206104,50.0,35.44566386053244,50.0,50.0,50.0,50.0,50.0,0.0,-36.55419914788882,0.0,-51.611854406296715,0.0,-50.31309837227341,0.0,-33.80161858110798,0.0,0.0,0.0,0.0,0.0
0.63,50.0,33.894912861272914,50.0,27.260795422111975,50.0,27.83300270848337,50.0,35.10764767472136,50.0,50.0,50.0,50.0,50.0,0.0,-36.55419914788882,0.0,-51.611854406296715,0.0,-50.31309837227341,0.0,-33.80161858110798,0.0,0.0,0.0,0.0,0.0
0.64,50.0,33.52937086979403,50.0,26.74467687804901,50.0,27.329871724760636,50.0,34.76963148891028,50.0,50.0,50.0,50.0,50.0,0.0,-36.55419914788882,0.0,-51.611854406296715,0.0,-50.31309837227341,0.0,-33.80161858110798,0.0,0.0,0.0,0.0,0.0
0.65,50.0,33.163828878315144,50.0,26.228558333986044,50.0,26.826740741037902,50.0,34.43161530309921,50.0,50.0,50.0,50.0,50.0,0.0,-36.55419914788882,0.0,-51.611854406296715,0.0,-50.31309837227341,0.0,-33.80161858110798,0.0,0.0,0.0,0.0,0.0
0.66,50.0,32.79828688683625,50.0,25.712439789923078,50.0,26.323609757315168,50.0,34.09359911728812,50.0,50.0,50.0,50.0,50.0,0.0,-36.55419914788882,0.0,-51.611854406296715,0.0,-50.31309837227341,0.0,-33.80161858110798,0.0,0.0,0.0,0.0,0.0
0.67,50.0,32.43274489535736,50.0,25.19632124586011,50.0,25.820478773592434,50.0,33.75558293147704,50.0,50.0,50.0,50.0,50.0,0.0,-36.55419914788882,0.0,-51.611854406296715,0.0,-50.31309837227341,0.0,-33.80161858110798,0.0,0.0,0.0,0.0,0.0
0.68,50.0,32.067202903878474,50.0,24.680202701797143,50.0,25.3173477898697,50.0,33.417566745665965,50.0,50.0,50.0,50.0,50.0,0.0,-36.55419914788882,0.0,-51.611854406296715,0.0,-50.31309837227341,0.0,-33.80161858110798,0.0,0.0,0.0,0.0,0.0
0.69,50.0,31.70166091239959,50.0,24.164084157734177,50.0,24.814216806146966,50.0,33.07955055985488,50.0,50.0,50.0,50.0,50.0,0.0,-36.55419914788882,0.0,-51.611854406296715,0.0,-50.31309837227341,0.0,-33.80161858110798,0.0,0.0,0.0,0.0,0.0
0.7,50.0,31.336118920920704,50.0,23.64796561367121,50.0,24.311085822424236,50.0,32.74153437404381,50.0,50.0,50.0,50.0,50.0,0.0,-36.55419914788882,0.0,-51.611854406296715,0.0,-50.31309837227341,0.0,-33.80161858110798,0.0,0.0,0.0,0.0,0.0
0.71,50.0,30.970576929441812,50.0,23.13184706960824,50.0,23.807954838701498,50.0,32.403518188232724,50.0,50.0,50.0,50.0,50.0,0.0,-36.55419914788882,0.0,-51.611854406296715,0.0,-50.31309837227341,0.0,-33.80161858110798,0.0,0.0,0.0,0.0,0.0
0.72,50.0,30.605034937962927,50.0,22.615728525545276,50.0,23.304823854978764,50.0,32.065502002421645,50.0,50.0,50.0,50.0,50.0,0.0,-36.55419914788882,0.0,-51.611854406296715,0.0,-50.31309837227341,0.0,-33.80161858110798,0.0,0.0,0.0,0.0,0.0
0.73,50.0,30.239492946484035,50.0,22.099609981482306,50.0,22.80169287125603,50.0,31.727485816610567,50.0,50.0,50.0,50.0,50.0,0.0,-36.55419914788882,0.0,-51.611854406296715,0.0,-50.31309837227341,0.0,-33.80161858110798,0.0,0.0,0.0,0.0,0.0
0.74,50.0,29.87395095500515,50.0,21.58349143741934,50.0,22.298561887533296,50.0,31.38946963079949,50.0,50.0,50.0,50.0,50.0,0.0,-36.55419914788882,0.0,-51.611854406296715,0.0,-50.31309837227341,0.0,-33.80161858110798,0.0,0.0,0.0,0.0,0.0
0.75,50.0,29.50840896352626,50.0,21.06737289335637,50.0,21.795430903810562,50.0,31.051453444988407,50.0,50.0,50.0,50.0,50.0,0.0,-36.55419914788882,0.0,-51.611854406296715,0.0,-50.31309837227341,0.0,-33.80161858110798,0.0,0.0,0.0,0.0,0.0
0.76,50.0,29.143127580447363,50.0,20.551622309284625,50.0,21.29265862076712,50.0,30.713678243412815,50.0,50.0,50.0,50.0,50.0,0.0,-36.32993950835201,0.0,-51.295216205083356,0.0,-50.004428026103405,0.0,-33.59424599531853,0.0,0.0,0.0,0.0,0.0
0.77,50.0,28.78465270233327,50.0,20.045482012168907,50.0,20.799254792288373,50.0,30.382197007785155,50.0,50.0,50.0,50.0,50.0,0.0,-35.36503611446629,0.0,-49.93284321805958,0.0,-48.6763376696466,0.0,-32.7020011302132,0.0,0.0,0.0,0.0,0.0
0.78,50.0,28.435826858158038,50.0,19.55296544492343,50.0,20.31913186737419,50.0,30.05963822080855,50.0,50.0,50.0,50.0,50.0,0.0,-34.40013272058057,0.0,-48.570470231035806,0.0,-47.3482473131898,0.0,-31.80975626510786,0.0,0.0,0.0,0.0,0.0
0.79,50.0,28.096650047921656,50.0,19.07407260754819,50.0,19.852289846024576,50.0,29.746001882482993,50.0,50.0,50.0,50.0,50.0,0.0,-33.43522932669486,0.0,-47.20809724401203,0.0,-46.020156956733,0.0,-30.917511400002528,0.0,0.0,0.0,0.0,0.0
0.8,50.0,27.767122271624135,50.0,18.608803500043187,50.0,19.398728728239526,50.0,29.441287992808498,50.0,50.0,50.0,50.0,50.0,0.0,-32.47032593280914,0.0,-45.845724256988255,0.0,-44.69206660027619,0.0,-30.02526653489719,0.0,0.0,0.0,0.0,0.0
0.81,50.0,27.447243529265478,50.0,18.157158122408426,50.0,18.95844851401905,50.0,29.14549655178505,50.0,50.0,50.0,50.0,50.0,0.0,-31.505422538923423,0.0,-44.48335126996448,0.0,-43.363976243819394,0.0,-29.133021669791855,0.0,0.0,0.0,0.0,0.0
0.82,50.0,27.13701382084567,50.0,17.719136474643904,50.0,18.531449203363145,50.0,28.858627559412664,50.0,50.0,50.0,50.0,50.0,0.0,-30.540519145037717,0.0,-43.12097828294072,0.0,-42.03588588736261,0.0,-28.240776804686533,0.0,0.0,0.0,0.0,0.0
0.83,50.0,26.836433146364726,50.0,17.294738556749614,50.0,18.1177307962718,50.0,28.580681015691326,50.0,50.0,50.0,50.0,50.0,0.0,-29.575615751152,0.0,-41.758605295916944,0.0,-40.707795530905805,0.0,-27.348531939581196,0.0,0.0,0.0,0.0,0.0
0.84,50.0,26.545501505822628,50.0,16.883964368725564,50.0,17.717293292745026,50.0,28.31165692062104,50.0,50.0,50.0,50.0,50.0,0.0,-28.61071235726628,0.0,-40.39623230889317,0.0,-39.37970517444901,0.0,-26.45628707447586,0.0,0.0,0.0,0.0,0.0
0.85,50.0,26.2642188992194,50.0,16.48681391057175,50.0,17.330136692782823,50.0,28.05155527420181,50.0,50.0,50.0,50.0,50.0,0.0,-27.645808963380563,0.0,-39.03385932186939,0.0,-38.0516148179922,0.0,-25.564042209370527,0.0,0.0,0.0,0.0,0.0
0.86,50.0,25.992585326555016,50.0,16.10328718228817,50.0,16.956260996385183,50.0,27.80037607643363,50.0,50.0,50.0,50.0,50.0,0.0,-26.680905569494847,0.0,-37.671486334845625,0.0,-36.723524461535405,0.0,-24.671797344265194,0.0,0.0,0.0,0.0,0.0
0.87,50.0,25.730600787829502,50.0,15.733384183874838,50.0,16.595666203552113,50.0,27.558119327316504,50.0,50.0,50.0,50.0,50.0,0.0,-25.71600217560913,0.0,-36.30911334782185,0.0,-35.3954341050786,0.0,-23.779552479159857,0.0,0.0,0.0,0.0,0.0
0.88,50.0,25.478265283042838,50.0,15.377104915331739,50.0,16.24835231428361,50.0,27.32478502685043,50.0,50.0,50.0,50.0,50.0,0.0,-24.751098781723414,0.0,-34.946740360798074,0.0,-34.0673437486218,0.0,-22.88730761405452,0.0,0.0,0.0,0.0,0.0
0.89,50.0,25.235578812195033,50.0,15.034449376658877,50.0,15.914319328579678,50.0,27.100373175035415,50.0,50.0,50.0,50.0,50.0,0.0,-23.786195387837694,0.0,-33.5843673737743,0.0,-32.739253392165,0.0,-21.995062748949188,0.0,0.0,0.0,0.0,0.0
0.9,50.0,25.00254137528608,50.0,14.70541756785625,50.0,15.593567246440308,50.0,26.884883771871444,50.0,50.0,50.0,50.0,50.0,0.0,-22.821291993951977,0.0,-32.221994386750524,0.0,-31.411163035708196,0.0,-21.10281788384385,0.0,0.0,0.0,0.0,0.0
0.91,50.0,24.77915297231599,50.0,14.390009488923866,50.0,15.286096067865513,50.0,26.678316817358535,50.0,50.0,50.0,50.0,50.0,0.0,-21.85638860006626,0.0,-30.859621399726745,0.0,-30.083072679251394,0.0,-20.210573018738515,0.0,0.0,0.0,0.0,0.0
0.92,50.0,24.56541360328476,50.0,14.088225139861716,50.0,14.991905792855283,50.0,26.480672311496676,50.0,50.0,50.0,50.0,50.0,0.0,-20.89148520618054,0.0,-29.49724841270297,0.0,-28.754982322794593,0.0,-19.318328153633182,0.0,0.0,0.0,0.0,0.0
0.93,50.0,24.36132326819238,50.0,13.800064520669807,50.0,14.710996421409622,50.0,26.29195025428587,50.0,50.0,50.0,50.0,50.0,0.0,-19.926581812294824,0.0,-28.134875425679194,0.0,-27.42689196633779,0.0,-18.426083288527845,0.0,0.0,0.0,0.0,0.0
0.94,50.0,24.16688196703886,50.0,13.525527631348135,50.0,14.443367953528528,50.0,26.11215064572612,50.0,50.0,50.0,50.0,50.0,0.0,-18.961678418409118,0.0,-26.772502438655437,0.0,-26.098801609881004,0.0,-17.533838423422523,0.0,0.0,0.0,0.0,0.0
0.95,50.0,23.9820896998242,50.0,13.2646144718967,50.0,14.189020389212004,50.0,25.941273485817423,50.0,50.0,50.0,50.0,50.0,0.0,-17.9967750245234,0.0,-25.41012945163166,0.0,-24.770711253424203,0.0,-16.641593558317187,0.0,0.0,0.0,0.0,0.0
0.96,50.0,23.806946466548396,50.0,13.017325042315502,50.0,13.947953728460046,50.0,25.77931877455978,50.0,50.0,50.0,50.0,50.0,0.0,-17.031871630637685,0.0,-24.047756464607886,0.0,-23.4426208969674,0.0,-15.74934869321185,0.0,0.0,0.0,0.0,0.0
0.97,50.0,23.641452267211445,50.0,12.783659342604542,50.0,13.720167971272653,50.0,25.626286511953186,50.0,50.0,50.0,50.0,50.0,0.0,-16.066968236751965,0.0,-22.68538347758411,0.0,-22.1145305405106,0.0,-14.857103828106515,0.0,0.0,0.0,0.0,0.0
0.98,50.0,23.485607101813354,50.0,12.56361737276382,50.0,13.505663117649833,50.0,25.482176697997648,50.0,50.0,50.0,50.0,50.0,0.0,-15.102064842866248,0.0,-21.323010490560335,0.0,-20.7864401840538,0.0,-13.96485896300118,0.0,0.0,0.0,0.0,0.0
0.99,50.0,23.33941097035412,50.0,12.357199132793331,50.0,13.304439167591575,50.0,25.34698933269316,50.0,50.0,50.0,50.0,50.0,0.0,-14.13716144898053,0.0,-19.96063750353656,0.0,-19.458349827596997,0.0,-13.072614097895844,0.0,0.0,0.0,0.0,0.0
1.0,50.0,23.202863872833746,50.0,12.164404622693088,50.0,13.116496121097892,50.0,25.220724416039733,50.0,50.0,50.0,50.0,50.0,0.0,-13.172258055094813,0.0,-18.598264516512785,0.0,-18.130259471140192,0.0,-12.18036923279051,0.0,0.0,0.0,0.0,0.0
1.01,50.0,23.075965809252224,50.0,11.985233842463078,50.0,12.941833978168775,50.0,25.10338194803735,50.0,50.0,50.0,50.0,50.0,0.0,-12.207354661209097,0.0,-17.235891529489013,0.0,-16.802169114683394,0.0,-11.288124367685175,0.0,0.0,0.0,0.0,0.0
1.02,50.0,22.958716779609563,50.0,11.819686792103308,50.0,12.780452738804225,50.0,24.994961928686028,50.0,50.0,50.0,50.0,50.0,0.0,-11.242451267323379,0.0,-15.873518542465238,0.0,-15.474078758226591,0.0,-10.39587950257984,0.0,0.0,0.0,0.0,0.0
1.03,50.0,22.851116783905752,50.0,11.667763471613771,50.0,12.632352403004239,50.0,24.89546435798575,50.0,50.0,50.0,50.0,50.0,0.0,-10.27754787343766,0.0,-14.511145555441463,0.0,-14.14598840176979,0.0,-9.503634637474505,0.0,0.0,0.0,0.0,0.0
1.04,50.0,22.753165822140808,50.0,11.529463880994477,50.0,12.497532970768827,50.0,24.804889235936535,50.0,50.0,50.0,50.0,50.0,0.0,-9.312644479551944,0.0,-13.148772568417687,0.0,-12.817898045312988,0.0,-8.611389772369169,0.0,0.0,0.0,0.0,0.0
1.05,50.0,22.664863894314713,50.0,11.404788020245418,50.0,12.37599444209798,50.0,24.723236562538368,50.0,50.0,50.0,50.0,50.0,0.0,-8.347741085666225,0.0,-11.786399581393912,0.0,-11.489807688856185,0.0,-7.719144907263834,0.0,0.0,0.0,0.0,0.0
1.06,50.0,22.586211000427483,50.0,11.293735889366598,50.0,12.267736816991702,50.0,24.650506337791256,50.0,50.0,50.0,50.0,50.0,0.0,-7.382837691780508,0.0,-10.424026594370137,0.0,-10.161717332399384,0.0,-6.826900042158498,0.0,0.0,0.0,0.0,0.0
1.07,50.0,22.517207140479105,50.0,11.196307488358014,50.0,12.172760095449993,50.0,24.5866985616952,50.0,50.0,50.0,50.0,50.0,0.0,-6.41793429789479,0.0,-9.061653607346361,0.0,-8.833626975942583,0.0,-5.9346551770531635,0.0,0.0,0.0,0.0,0.0
1.08,50.0,22.457852314469587,50.0,11.112502817219672,50.0,12.091064277472853,50.0,24.531813234250194,50.0,50.0,50.0,50.0,50.0,0.0,-5.453030904009073,0.0,-7.699280620322587,0.0,-7.505536619485781,0.0,-5.042410311947829,0.0,0.0,0.0,0.0,0.0
1.09,50.0,22.408146522398926,50.0,11.042321875951563,50.0,12.022649363060276,50.0,24.485850355456243,50.0,50.0,50.0,50.0,50.0,0.0,-4.4881275101233555,0.0,-6.336907633298813,0.0,-6.17744626302898,0.0,-4.150165446842494,0.0,0.0,0.0,0.0,0.0
1.1,50.0,22.36808976426712,50.0,10.985764664553692,50.0,11.96751535221227,50.0,24.44880992531334,50.0,50.0,50.0,50.0,50.0,0.0,-3.523224116237638,0.0,-4.974534646275037,0.0,-4.849355906572178,0.0,-3.2579205817371584,0.0,0.0,0.0,0.0,0.0
1.11,50.0,22.33768204007417,50.0,10.942831183026062,50.0,11.925662244928832,50.0,24.4206919438215,50.0,50.0,50.0,50.0,50.0,0.0,-2.5583207223519207,0.0,-3.612161659251263,0.0,-3.5212655501153765,0.0,-2.365675716631823,0.0,0.0,0.0,0.0,0.0
1.12,50.0,22.31692334982008,50.0,10.913521431368668,50.0,11.897090041209962,50.0,24.40149641098071,50.0,50.0,50.0,50.0,50.0,0.0,-1.5934173284662032,0.0,-2.2497886722274876,0.0,-2.1931751936585746,0.0,-1.473430851526488,0.0,0.0,0.0,0.0,0.0
1.13,50.0,22.30581369350485,50.0,10.897835409581514,50.0,11.881798741055663,50.0,24.39122332679097,50.0,50.0,50.0,50.0,50.0,0.0,-0.6285139345805072,0.0,-0.8874156852037429,0.0,-0.8650848372018025,0.0,-0.5811859864211727,0.0,0.0,0.0,0.0,0.0
1.14,50.0,22.3038727689255,50.0,10.895498221082962,50.0,11.879354172352341,50.0,24.38917547321591,50.0,50.0,50.0,50.0,50.0,0.0,0.06084858671344302,0.0,0.31725399855151853,0.0,0.21392866244971742,0.0,-0.08892276816493007,0.0,0.0,0.0,0.0,0.0
1.15,50.0,22.305353948722374,50.0,10.903220836159392,50.0,11.884561636155658,50.0,24.387010910079738,50.0,50.0,50.0,50.0,50.0,0.0,0.23538737266178483,0.0,1.2272690167344418,0.0,0.8275640982137035,0.0,-0.3439898590698348,0.0,0.0,0.0,0.0,0.0
1.16,50.0,22.308580516378736,50.0,10.920043601417648,50.0,11.895905454316615,50.0,24.382295676034513,50.0,50.0,50.0,50.0,50.0,0.0,0.40992615861012666,0.0,2.137284034917365,0.0,1.4411995339776895,0.0,-0.5990569499747396,0.0,0.0,0.0,0.0,0.0
1.17,50.0,22.31355247189458,50.0,10.94596651685774,50.0,11.913385626835213,50.0,24.375029771080243,50.0,50.0,50.0,50.0,50.0,0.0,0.5844649445584684,0.0,3.0472990531002884,0.0,2.0548349697416755,0.0,-0.8541240408796444,0.0,0.0,0.0,0.0,0.0
1.18,50.0,22.320269815269906,50.0,10.980989582479657,50.0,11.937002153711449,50.0,24.36521319521692,50.0,50.0,50.0,50.0,50.0,0.0,0.7590037305068102,0.0,3.9573140712832116,0.0,2.6684704055056616,0.0,-1.109191131784549,0.0,0.0,0.0,0.0,0.0
1.19,50.0,22.328732546504718,50.0,11.025112798283402,50.0,11.966755034945326,50.0,24.35284594844455,50.0,50.0,50.0,50.0,50.0,0.0,0.9335425164551522,0.0,4.867329089466136,0.0,3.2821058412696478,0.0,-1.364258222689454,0.0,0.0,0.0,0.0,0.0
1.2,50.0,22.338940665599008,50.0,11.078336164268977,50.0,12.002644270536841,50.0,24.33792803076313,50.0,50.0,50.0,50.0,50.0,0.0,1.108081302403494,0.0,5.777344107649058,0.0,3.8957412770336335,0.0,-1.6193253135943586,0.0,0.0,0.0,0.0,0.0
1.21,50.0,22.35089417255279,50.0,11.140659680436384,50.0,12.044669860485998,50.0,24.320459442172663,50.0,50.0,50.0,50.0,50.0,0.0,1.2826200883518357,0.0,6.687359125831982,0.0,4.50937671279762,0.0,-1.8743924044992635,0.0,0.0,0.0,0.0,0.0
1.22,50.0,22.364593067366048,50.0,11.212083346785619,50.0,12.092831804792795,50.0,24.300440182673146,50.0,50.0,50.0,50.0,50.0,0.0,1.4571588743001775,0.0,7.597374144014905,0.0,5.123012148561606,0.0,-2.129459495404168,0.0,0.0,0.0,0.0,0.0
1.23,50.0,22.380037350038787,50.0,11.292607163316681,50.0,12.147130103457231,50.0,24.277870252264577,50.0,50.0,50.0,50.0,50.0,0.0,1.6316976602485194,0.0,8.507389162197828,0.0,5.736647584325592,0.0,-2.384526586309073,0.0,0.0,0.0,0.0,0.0
1.24,50.0,22.397227020571012,50.0,11.382231130029574,50.0,12.207564756479304,50.0,24.25274965094696,50.0,50.0,50.0,50.0,50.0,0.0,1.806236446196861,0.0,9.417404180380752,0.0,6.350283020089577,0.0,-2.639593677213978,0.0,0.0,0.0,0.0,0.0
1.25,50.0,22.416162078962724,50.0,11.480955246924296,50.0,12.274135763859023,50.0,24.225078378720298,50.0,50.0,50.0,50.0,50.0,0.0,1.980775232145203,0.0,10.327419198563675,0.0,6.963918455853564,0.0,-2.8946607681188827,0.0,0.0,0.0,0.0,0.0
1.26,50.0,22.43684252521392,50.0,11.58877951400085,50.0,12.346843125596378,50.0,24.194856435584583,50.0,50.0,50.0,50.0,50.0,0.0,2.155314018093545,0.0,11.237434216746598,0.0,7.57755389161755,0.0,-3.1497278590237876,0.0,0.0,0.0,0.0,0.0
1.27,50.0,22.4592683593246,50.0,11.70570393125923,50.0,12.425686841691373,50.0,24.162083821539824,50.0,50.0,50.0,50.0,50.0,0.0,2.3298528040418867,0.0,12.147449234929521,0.0,8.191189327381537,0.0,-3.404794949928692,0.0,0.0,0.0,0.0,0.0
1.28,50.0,22.483439581294757,50.0,11.831728498699437,50.0,12.510666912144009,50.0,24.126760536586012,50.0,50.0,50.0,50.0,50.0,0.0,2.5043915899902283,0.0,13.057464253112444,0.0,8.804824763145522,0.0,-3.659862040833597,0.0,0.0,0.0,0.0,0.0
1.29,50.0,22.5093561911244,50.0,11.966853216321478,50.0,12.601783336954282,50.0,24.088886580723152,50.0,50.0,50.0,50.0,50.0,0.0,2.6789303759385703,0.0,13.96747927129537,0.0,9.418460198909509,0.0,-3.9149291317385018,0.0,0.0,0.0,0.0,0.0
1.3,50.0,22.53701818881353,50.0,12.111078084125348,50.0,12.699036116122198,50.0,24.048461953951243,50.0,50.0,50.0,50.0,50.0,0.0,2.853469161886912,0.0,14.87749428947829,0.0,10.032095634673494,0.0,-4.169996222643406,0.0,0.0,0.0,0.0,0.0
1.31,50.0,22.56642557436214,50.0,12.264403102111045,50.0,12.802425249647753,50.0,24.005486656270282,50.0,50.0,50.0,50.0,50.0,0.0,3.028007947835254,0.0,15.787509307661216,0.0,10.645731070437481,0.0,-4.4250633135483115,0.0,0.0,0.0,0.0,0.0
1.32,50.0,22.597578347770234,50.0,12.426828270278572,50.0,12.91195073753095,50.0,23.959960687680276,50.0,50.0,50.0,50.0,50.0,0.0,3.2025467337835956,0.0,16.697524325844135,0.0,11.259366506201465,0.0,-4.680130404453216,0.0,0.0,0.0,0.0,0.0
1.33,50.0,22.630476509037813,50.0,12.598353588627928,50.0,13.027612579771782,50.0,23.911884048181218,50.0,50.0,50.0,50.0,50.0,0.0,3.3770855197319376,0.0,17.60753934402706,0.0,11.873001941965452,0.0,-4.93519749535812,0.0,0.0,0.0,0.0,0.0
1.34,50.0,22.665120058164874,50.0,12.778979057159113,50.0,13.149410776370258,50.0,23.86125673777311,50.0,50.0,50.0,50.0,50.0,0.0,3.5516243056802796,0.0,18.517554362209985,0.0,12.486637377729439,0.0,-5.190264586263026,0.0,0.0,0.0,0.0,0.0
1.35,50.0,22.701508995151418,50.0,12.968704675872127,50.0,13.277345327326373,50.0,23.80807875645596,50.0,50.0,50.0,50.0,50.0,0.0,3.726163091628621,0.0,19.427569380392907,0.0,13.100272813493424,0.0,-5.44533167716793,0.0,0.0,0.0,0.0,0.0
1.36,50.0,22.739643319997445,50.0,13.167530444766971,50.0,13.411416232640127,50.0,23.752350104229752,50.0,50.0,50.0,50.0,50.0,0.0,3.900701877576963,0.0,20.33758439857583,0.0,13.713908249257411,0.0,-5.700398768072835,0.0,0.0,0.0,0.0,0.0
1.37,50.0,22.779523032702954,50.0,13.375456363843645,50.0,13.55162349231152,50.0,23.6940707810945,50.0,50.0,50.0,50.0,50.0,0.0,4.075240663525305,0.0,21.247599416758753,0.0,14.327543685021395,0.0,-5.95546585897774,0.0,0.0,0.0,0.0,0.0
1.38,50.0,22.82114813326795,50.0,13.592482433102141,50.0,13.69796710634055,50.0,23.633240787050198,50.0,50.0,50.0,50.0,50.0,0.0,4.2497794494736425,0.0,22.157614434941657,0.0,14.94117912078537,0.0,-6.210532949882639,0.0,0.0,0.0,0.0,0.0
1.39,50.0,22.86451862169243,50.0,13.818608652542475,50.0,13.850447074727226,50.0,23.56986012209685,50.0,50.0,50.0,50.0,50.0,0.0,4.4243182354219845,0.0,23.06762945312458,0.0,15.554814556549356,0.0,-6.465600040787544,0.0,0.0,0.0,0.0,0.0
1.4,50.0,22.90963449797639,50.0,14.053835022164634,50.0,14.00906339747154,50.0,23.50392878623445,50.0,50.0,50.0,50.0,50.0,0.0,4.598857021370326,0.0,23.977644471307503,0.0,16.16844999231334,0.0,-6.720667131692449,0.0,0.0,0.0,0.0,0.0
1.41,50.0,22.956495762119836,50.0,14.298161541968623,50.0,14.173816074573491,50.0,23.435446779463,50.0,50.0,50.0,50.0,50.0,0.0,4.773395807318668,0.0,24.887659489490428,0.0,16.782085428077327,0.0,-6.975734222597353,0.0,0.0,0.0,0.0,0.0
1.42,50.0,23.005102414122767,50.0,14.551588211954444,50.0,14.344705106033086,50.0,23.364414101782504,50.0,50.0,50.0,50.0,50.0,0.0,4.94793459326701,0.0,25.79767450767335,0.0,17.395720863841312,0.0,-7.2308013135022575,0.0,0.0,0.0,0.0,0.0
1.43,50.0,23.055454453985178,50.0,14.814115032122093,50.0,14.52173049185032,50.0,23.290830753192957,50.0,50.0,50.0,50.0,50.0,0.0,5.122473379215352,0.0,26.707689525856278,0.0,18.0093562996053,0.0,-7.485868404407164,0.0,0.0,0.0,0.0,0.0
1.44,50.0,23.107551881707074,50.0,15.08574200247157,50.0,14.704892232025191,50.0,23.21469673369436,50.0,50.0,50.0,50.0,50.0,0.0,5.297012165163694,0.0,27.6177045440392,0.0,18.622991735369286,0.0,-7.740935495312068,0.0,0.0,0.0,0.0,0.0
1.45,50.0,23.16139469728845,50.0,15.366469123002876,50.0,14.894190326557704,50.0,23.136012043286712,50.0,50.0,50.0,50.0,50.0,0.0,5.471550951112035,0.0,28.52771956222212,0.0,19.23662717113327,0.0,-7.996002586216972,0.0,0.0,0.0,0.0,0.0
1.46,50.0,23.216982900729313,50.0,15.656296393716012,50.0,15.089624775447856,50.0,23.054776681970022,50.0,50.0,50.0,50.0,50.0,0.0,5.646089737060377,0.0,29.437734580405042,0.0,19.850262606897257,0.0,-8.251069677121876,0.0,0.0,0.0,0.0,0.0
1.47,50.0,23.274316492029655,50.0,15.955223814610978,50.0,15.29119557869565,50.0,22.970990649744273,50.0,50.0,50.0,50.0,50.0,0.0,5.820628523008719,0.0,30.347749598587967,0.0,20.463898042661246,0.0,-8.506136768026783,0.0,0.0,0.0,0.0,0.0
1.48,50.0,23.333395471189483,50.0,16.263251385687774,50.0,15.498902736301083,50.0,22.884653946609486,50.0,50.0,50.0,50.0,50.0,0.0,5.995167308957061,0.0,31.25776461677089,0.0,21.077533478425227,0.0,-8.761203858931687,0.0,0.0,0.0,0.0,0.0
1.49,50.0,23.3942198382088,50.0,16.580379106946395,50.0,15.712746248264153,50.0,22.795766572565643,50.0,50.0,50.0,50.0,50.0,0.0,6.169706094905402,0.0,32.16777963495381,0.0,21.691168914189213,0.0,-9.01627094983659,0.0,0.0,0.0,0.0,0.0
1.5,50.0,23.456789593087596,50.0,16.906606978386847,50.0,15.932726114584867,50.0,22.704328527612752,50.0,50.0,50.0,50.0,50.0,0.0,6.344244880853744,0.0,33.07779465313674,0.0,22.3048043499532,0.0,-9.271338040741497,0.0,0.0,0.0,0.0,0.0
1.51,50.0,23.521104735825872,50.0,17.24193500000913,50.0,16.158842335263216,50.0,22.610339811750812,50.0,50.0,50.0,50.0,50.0,0.0,6.518783666802086,0.0,33.98780967131966,0.0,22.918439785717187,0.0,-9.526405131646401,0.0,0.0,0.0,0.0,0.0
1.52,50.0,23.586966704719337,50.0,17.58532790545702,50.0,16.39039681619204,50.0,22.51409059862808,50.0,50.0,50.0,50.0,50.0,0.0,6.6100677606253795,0.0,34.46374913571471,0.0,23.239372204189237,0.0,-9.659805671422637,0.0,0.0,0.0,0.0,0.0
1.53,50.0,23.65306738232559,50.0,17.92996539681417,50.0,16.622790538233932,50.0,22.41749254191385,50.0,50.0,50.0,50.0,50.0,0.0,6.6100677606253795,0.0,34.46374913571471,0.0,23.239372204189237,0.0,-9.659805671422637,0.0,0.0,0.0,0.0,0.0
1.54,50.0,23.719168059931846,50.0,18.274602888171316,50.0,16.855184260275824,50.0,22.320894485199624,50.0,50.0,50.0,50.0,50.0,0.0,6.6100677606253795,0.0,34.46374913571471,0.0,23.239372204189237,0.0,-9.659805671422637,0.0,0.0,0.0,0.0,0.0
1.55,50.0,23.785268737538097,50.0,18.619240379528463,50.0,17.08757798231772,50.0,22.2242964284854,50.0,50.0,50.0,50.0,50.0,0.0,6.6100677606253795,0.0,34.46374913571471,0.0,23.239372204189237,0.0,-9.659805671422637,0.0,0.0,0.0,0.0,0.0
1.56,50.0,23.851369415144354,50.0,18.96387787088561,50.0,17.31997170435961,50.0,22.127698371771174,50.0,50.0,50.0,50.0,50.0,0.0,6.6100677606253795,0.0,34.46374913571471,0.0,23.239372204189237,0.0,-9.659805671422637,0.0,0.0,0.0,0.0,0.0
1.57,50.0,23.917470092750605,50.0,19.30851536224276,50.0,17.5523654264015,50.0,22.031100315056946,50.0,50.0,50.0,50.0,50.0,0.0,6.6100677606253795,0.0,34.46374913571471,0.0,23.239372204189237,0.0,-9.659805671422637,0.0,0.0,0.0,0.0,0.0
1.58,50.0,23.98357077035686,50.0,19.653152853599906,50.0,17.784759148443396,50.0,21.93450225834272,50.0,50.0,50.0,50.0,50.0,0.0,6.6100677606253795,0.0,34.46374913571471,0.0,23.239372204189237,0.0,-9.659805671422637,0.0,0.0,0.0,0.0,0.0
1.59,50.0,24.049671447963114,50.0,19.997790344957053,50.0,18.017152870485287,50.0,21.837904201628493,50.0,50.0,50.0,50.0,50.0,0.0,6.6100677606253795,0.0,34.46374913571471,0.0,23.239372204189237,0.0,-9.659805671422637,0.0,0.0,0.0,0.0,0.0
1.6,50.0,24.115772125569368,50.0,20.3424278363142,50.0,18.249546592527178,50.0,21.74130614491427,50.0,50.0,50.0,50.0,50.0,0.0,6.6100677606253795,0.0,34.46374913571471,0.0,23.239372204189237,0.0,-9.659805671422637,0.0,0.0,0.0,0.0,0.0
1.61,50.0,24.181872803175622,50.0,20.68706532767135,50.0,18.481940314569073,50.0,21.64470808820004,50.0,50.0,50.0,50.0,50.0,0.0,6.6100677606253795,0.0,34.46374913571471,0.0,23.239372204189237,0.0,-9.659805671422637,0.0,0.0,0.0,0.0,0.0
1.62,50.0,24.247973480781877,50.0,21.031702819028496,50.0,18.714334036610964,50.0,21.548110031485812,50.0,50.0,50.0,50.0,50.0,0.0,6.6100677606253795,0.0,34.46374913571471,0.0,23.239372204189237,0.0,-9.659805671422637,0.0,0.0,0.0,0.0,0.0
1.63,50.0,24.314074158388127,50.0,21.376340310385633,50.0,18.94672775865285,50.0,21.451511974771588,50.0,50.0,50.0,50.0,50.0,0.0,6.6100677606253795,0.0,34.46374913571471,0.0,23.239372204189237,0.0,-9.659805671422637,0.0,0.0,0.0,0.0,0.0
1.64,50.0,24.38017483599438,50.0,21.72097780174278,50.0,19.179121480694743,50.0,21.354913918057363,50.0,50.0,50.0,50.0,50.0,0.0,6.6100677606253795,0.0,34.46374913571471,0.0,23.239372204189237,0.0,-9.659805671422637,0.0,0.0,0.0,0.0,0.0
1.65,50.0,24.446275513600632,50.0,22.065615293099928,50.0,19.411515202736638,50.0,21.258315861343135,50.0,50.0,50.0,50.0,50.0,0.0,6.6100677606253795,0.0,34.46374913571471,0.0,23.239372204189237,0.0,-9.659805671422637,0.0,0.0,0.0,0.0,0.0
1.66,50.0,24.51237619120689,50.0,22.41025278445708,50.0,19.64390892477853,50.0,21.16171780462891,50.0,50.0,50.0,50.0,50.0,0.0,6.6100677606253795,0.0,34.46374913571471,0.0,23.239372204189237,0.0,-9.659805671422637,0.0,0.0,0.0,0.0,0.0
1.67,50.0,24.57847686881314,50.0,22.754890275814223,50.0,19.876302646820424,50.0,21.065119747914682,50.0,50.0,50.0,50.0,50.0,0.0,6.6100677606253795,0.0,34.46374913571471,0.0,23.239372204189237,0.0,-9.659805671422637,0.0,0.0,0.0,0.0,0.0
1.68,50.0,24.644577546419395,50.0,23.099527767171374,50.0,20.108696368862315,50.0,20.968521691200458,50.0,50.0,50.0,50.0,50.0,0.0,6.6100677606253795,0.0,34.46374913571471,0.0,23.239372204189237,0.0,-9.659805671422637,0.0,0.0,0.0,0.0,0.0
1.69,50.0,24.71067822402565,50.0,23.444165258528518,50.0,20.341090090904206,50.0,20.87192363448623,50.0,50.0,50.0,50.0,50.0,0.0,6.6100677606253795,0.0,34.46374913571471,0.0,23.239372204189237,0.0,-9.659805671422637,0.0,0.0,0.0,0.0,0.0
1.7,50.0,24.776778901631904,50.0,23.78880274988567,50.0,20.5734838129461,50.0,20.775325577772005,50.0,50.0,50.0,50.0,50.0,0.0,6.6100677606253795,0.0,34.46374913571471,0.0,23.239372204189237,0.0,-9.659805671422637,0.0,0.0,0.0,0.0,0.0
1.71,50.0,24.842879579238158,50.0,24.133440241242816,50.0,20.805877534987992,50.0,20.67872752105778,50.0,50.0,50.0,50.0,50.0,0.0,6.6100677606253795,0.0,34.46374913571471,0.0,23.239372204189237,0.0,-9.659805671422637,0.0,0.0,0.0,0.0,0.0
1.72,50.0,24.908980256844416,50.0,24.47807773259996,50.0,21.038271257029884,50.0,20.582129464343552,50.0,50.0,50.0,50.0,50.0,0.0,6.6100677606253795,0.0,34.46374913571471,0.0,23.239372204189237,0.0,-9.659805671422637,0.0,0.0,0.0,0.0,0.0
1.73,50.0,24.975080934450666,50.0,24.82271522395711,50.0,21.27066497907178,50.0,20.485531407629324,50.0,50.0,50.0,50.0,50.0,0.0,6.6100677606253795,0.0,34.46374913571471,0.0,23.239372204189237,0.0,-9.659805671422637,0.0,0.0,0.0,0.0,0.0
1.74,50.0,25.04118161205692,50.0,25.167352715314255,50.0,21.503058701113673,50.0,20.3889333509151,50.0,50.0,50.0,50.0,50.0,0.0,6.6100677606253795,0.0,34.46374913571471,0.0,23.239372204189237,0.0,-9.659805671422637,0.0,0.0,0.0,0.0,0.0
1.75,50.0,25.107282289663175,50.0,25.511990206671406,50.0,21.735452423155564,50.0,20.292335294200875,50.0,50.0,50.0,50.0,50.0,0.0,6.6100677606253795,0.0,34.46374913571471,0.0,23.239372204189237,0.0,-9.659805671422637,0.0,0.0,0.0,0.0,0.0
1.76,50.0,25.173382967269426,50.0,25.85662769802855,50.0,21.967846145197456,50.0,20.195737237486647,50.0,50.0,50.0,50.0,50.0,0.0,6.6100677606253795,0.0,34.46374913571471,0.0,23.239372204189237,0.0,-9.659805671422637,0.0,0.0,0.0,0.0,0.0
1.77,50.0,25.239483644875683,50.0,26.2012651893857,50.0,22.200239867239347,50.0,20.09913918077242,50.0,50.0,50.0,50.0,50.0,0.0,6.6100677606253795,0.0,34.46374913571471,0.0,23.239372204189237,0.0,-9.659805671422637,0.0,0.0,0.0,0.0,0.0
1.78,50.0,25.305584322481938,50.0,26.545902680742845,50.0,22.43263358928124,50.0,20.002541124058194,50.0,50.0,50.0,50.0,50.0,0.0,6.6100677606253795,0.0,34.46374913571471,0.0,23.239372204189237,0.0,-9.659805671422637,0.0,0.0,0.0,0.0,0.0
1.79,50.0,25.371685000088192,50.0,26.890540172099996,50.0,22.665027311323133,50.0,19.905943067343966,50.0,50.0,50.0,50.0,50.0,0.0,6.6100677606253795,0.0,34.46374913571471,0.0,23.239372204189237,0.0,-9.659805671422637,0.0,0.0,0.0,0.0,0.0
1.8,50.0,25.437785677694443,50.0,27.23517766345714,50.0,22.897421033365028,50.0,19.80934501062974,50.0,50.0,50.0,50.0,50.0,0.0,6.6100677606253795,0.0,34.46374913571471,0.0,23.239372204189237,0.0,-9.659805671422637,0.0,0.0,0.0,0.0,0.0
1.81,50.0,25.5038863553007,50.0,27.579815154814288,50.0,23.12981475540692,50.0,19.712746953915513,50.0,50.0,50.0,50.0,50.0,0.0,6.6100677606253795,0.0,34.46374913571471,0.0,23.239372204189237,0.0,-9.659805671422637,0.0,0.0,0.0,0.0,0.0
1.82,50.0,25.56998703290695,50.0,27.924452646171435,50.0,23.362208477448814,50.0,19.616148897201285,50.0,50.0,50.0,50.0,50.0,0.0,6.6100677606253795,0.0,34.46374913571471,0.0,23.239372204189237,0.0,-9.659805671422637,0.0,0.0,0.0,0.0,0.0
1.83,50.0,25.636087710513205,50.0,28.26909013752858,50.0,23.5946021994907,50.0,19.519550840487064,50.0,50.0,50.0,50.0,50.0,0.0,6.6100677606253795,0.0,34.46374913571471,0.0,23.239372204189237,0.0,-9.659805671422637,0.0,0.0,0.0,0.0,0.0
1.84,50.0,25.70218838811946,50.0,28.613727628885727,50.0,23.826995921532596,50.0,19.422952783772836,50.0,50.0,50.0,50.0,50.0,0.0,6.6100677606253795,0.0,34.46374913571471,0.0,23.239372204189237,0.0,-9.659805671422637,0.0,0.0,0.0,0.0,0.0
1.85,50.0,25.76828906572571,50.0,28.95836512024287,50.0,24.059389643574487,50.0,19.326354727058607,50.0,50.0,50.0,50.0,50.0,0.0,6.6100677606253795,0.0,34.46374913571471,0.0,23.239372204189237,0.0,-9.659805671422637,0.0,0.0,0.0,0.0,0.0
1.86,50.0,25.834389743331965,50.0,29.30300261160002,50.0,24.29178336561638,50.0,19.229756670344383,50.0,50.0,50.0,50.0,50.0,0.0,6.6100677606253795,0.0,34.46374913571471,0.0,23.239372204189237,0.0,-9.659805671422637,0.0,0.0,0.0,0.0,0.0
1.87,50.0,25.90049042093822,50.0,29.647640102957165,50.0,24.524177087658273,50.0,19.133158613630155,50.0,50.0,50.0,50.0,50.0,0.0,6.6100677606253795,0.0,34.46374913571471,0.0,23.239372204189237,0.0,-9.659805671422637,0.0,0.0,0.0,0.0,0.0
1.88,50.0,25.966591098544473,50.0,29.99227759431431,50.0,24.75657080970016,50.0,19.03656055691593,50.0,50.0,50.0,50.0,50.0,0.0,6.6100677606253795,0.0,34.46374913571471,0.0,23.239372204189237,0.0,-9.659805671422637,0.0,0.0,0.0,0.0,0.0
1.89,50.0,26.032691776150727,50.0,30.336915085671457,50.0,24.988964531742056,50.0,18.939962500201705,50.0,50.0,50.0,50.0,50.0,0.0,6.6100677606253795,0.0,34.46374913571471,0.0,23.239372204189237,0.0,-9.659805671422637,0.0,0.0,0.0,0.0,0.0
1.9,50.0,26.09847263360711,50.0,30.679885090126373,50.0,25.220233844811087,50.0,18.843831821524958,50.0,50.0,50.0,50.0,50.0,0.0,6.504406963088726,0.0,33.91285202669048,0.0,22.86789483205509,0.0,-9.505395337330231,0.0,0.0,0.0,0.0,0.0
1.91,50.0,26.162644009308252,50.0,31.014463535302365,50.0,25.44584461595282,50.0,18.75005320360618,50.0,50.0,50.0,50.0,50.0,0.0,6.329868177140384,0.0,33.002837008507555,0.0,22.254259396291104,0.0,-9.250328246425328,0.0,0.0,0.0,0.0,0.0
1.92,50.0,26.225069997149916,50.0,31.339941830296524,50.0,25.66531903273691,50.0,18.65882525659645,50.0,50.0,50.0,50.0,50.0,0.0,6.155329391192042,0.0,32.09282199032464,0.0,21.64062396052712,0.0,-8.995261155520422,0.0,0.0,0.0,0.0,0.0
1.93,50.0,26.285750597132093,50.0,31.656319975108854,50.0,25.878657095163362,50.0,18.57014798049577,50.0,50.0,50.0,50.0,50.0,0.0,5.9807906052437,0.0,31.18280697214171,0.0,21.02698852476313,0.0,-8.740194064615517,0.0,0.0,0.0,0.0,0.0
1.94,50.0,26.34468580925479,50.0,31.96359796973936,50.0,26.085858803232174,50.0,18.48402137530414,50.0,50.0,50.0,50.0,50.0,0.0,5.806251819295358,0.0,30.272791953958787,0.0,20.413353088999145,0.0,-8.485126973710612,0.0,0.0,0.0,0.0,0.0
1.95,50.0,26.401875633518003,50.0,32.261775814188034,50.0,26.286924156943343,50.0,18.400445441021557,50.0,50.0,50.0,50.0,50.0,0.0,5.631713033347017,0.0,29.362776935775866,0.0,19.79971765323516,0.0,-8.230059882805708,0.0,0.0,0.0,0.0,0.0
1.96,50.0,26.45732006992173,50.0,32.55085350845488,50.0,26.481853156296875,50.0,18.319420177648023,50.0,50.0,50.0,50.0,50.0,0.0,5.457174247398674,0.0,28.452761917592937,0.0,19.18608221747117,0.0,-7.974992791900802,0.0,0.0,0.0,0.0,0.0
1.97,50.0,26.511019118465974,50.0,32.83083105253989,50.0,26.670645801292768,50.0,18.240945585183542,50.0,50.0,50.0,50.0,50.0,0.0,5.282635461450333,0.0,27.542746899410016,0.0,18.57244678170719,0.0,-7.719925700995898,0.0,0.0,0.0,0.0,0.0
1.98,50.0,26.562972779150737,50.0,33.101708446443084,50.0,26.85330209193102,50.0,18.165021663628107,50.0,50.0,50.0,50.0,50.0,0.0,5.108096675501992,0.0,26.632731881227095,0.0,17.958811345943204,0.0,-7.464858610090994,0.0,0.0,0.0,0.0,0.0
1.99,50.0,26.613181051976017,50.0,33.36348569016443,50.0,27.02982202821163,50.0,18.091648412981723,50.0,50.0,50.0,50.0,50.0,0.0,4.93355788955365,0.0,25.722716863044173,0.0,17.345175910179215,0.0,-7.209791519186089,0.0,0.0,0.0,0.0,0.0
2.0,50.0,26.66164393694181,50.0,33.61616278370396,50.0,27.200205610134603,50.0,18.020825833244384,50.0,50.0,50.0,50.0,50.0,0.0,4.759019103605308,0.0,24.812701844861248,0.0,16.73154047441523,0.0,-6.954724428281184,0.0,0.0,0.0,0.0,0.0
2.01,50.0,26.708361434048122,50.0,33.85973972706166,50.0,27.364452837699933,50.0,17.9525539244161,50.0,50.0,50.0,50.0,50.0,0.0,4.58448031765697,0.0,23.902686826678345,0.0,16.11790503865126,0.0,-6.699657337376285,0.0,0.0,0.0,0.0,0.0
2.02,50.0,26.75333354329495,50.0,34.09421652023753,50.0,27.52256371090763,50.0,17.88683268649686,50.0,50.0,50.0,50.0,50.0,0.0,4.409941531708624,0.0,22.992671808495402,0.0,15.504269602887257,0.0,-6.444590246471374,0.0,0.0,0.0,0.0,0.0
2.03,50.0,26.79656026468229,50.0,34.319593163231566,50.0,27.67453822975768,50.0,17.82366211948667,50.0,50.0,50.0,50.0,50.0,0.0,4.235402745760286,0.0,22.082656790312498,0.0,14.890634167123286,0.0,-6.189523155566476,0.0,0.0,0.0,0.0,0.0
2.04,50.0,26.838041598210154,50.0,34.53586965604378,50.0,27.820376394250097,50.0,17.763042223385533,50.0,50.0,50.0,50.0,50.0,0.0,4.0608639598119405,0.0,21.172641772129555,0.0,14.276998731359285,0.0,-5.934456064661565,0.0,0.0,0.0,0.0,0.0
2.05,50.0,26.877777543878533,50.0,34.743045998674155,50.0,27.960078204384864,50.0,17.70497299819344,50.0,50.0,50.0,50.0,50.0,0.0,3.886325173863603,0.0,20.262626753946655,0.0,13.663363295595314,0.0,-5.679388973756666,0.0,0.0,0.0,0.0,0.0
2.06,50.0,26.91576810168743,50.0,34.94112219112271,50.0,28.093643660162,50.0,17.649454443910397,50.0,50.0,50.0,50.0,50.0,0.0,3.711786387915257,0.0,19.35261173576371,0.0,13.049727859831314,0.0,-5.424321882851755,0.0,0.0,0.0,0.0,0.0
2.07,50.0,26.95201327163684,50.0,35.13009823338943,50.0,28.221072761581492,50.0,17.596486560536405,50.0,50.0,50.0,50.0,50.0,0.0,3.537247601966919,0.0,18.442596717580805,0.0,12.436092424067342,0.0,-5.169254791946856,0.0,0.0,0.0,0.0,0.0
2.08,50.0,26.986513053726767,50.0,35.30997412547433,50.0,28.34236550864335,50.0,17.54606934807146,50.0,50.0,50.0,50.0,50.0,0.0,3.362708816018573,0.0,17.532581699397863,0.0,11.822456988303342,0.0,-4.914187701041946,0.0,0.0,0.0,0.0,0.0
2.09,50.0,27.01926744795721,50.0,35.48074986737739,50.0,28.45752190134756,50.0,17.498202806515565,50.0,50.0,50.0,50.0,50.0,0.0,3.188170030070235,0.0,16.62256668121496,0.0,11.20882155253937,0.0,-4.659120610137046,0.0,0.0,0.0,0.0,0.0
2.1,50.0,27.05027645432817,50.0,35.642425459098625,50.0,28.566541939694137,50.0,17.452886935868715,50.0,50.0,50.0,50.0,50.0,0.0,3.01363124412189,0.0,15.712551663032016,0.0,10.59518611677537,0.0,-4.404053519232137,0.0,0.0,0.0,0.0,0.0
2.11,50.0,27.07954007283965,50.0,35.79500090063803,50.0,28.66942562368307,50.0,17.41012173613092,50.0,50.0,50.0,50.0,50.0,0.0,2.839092458173552,0.0,14.802536644849113,0.0,9.981550681011397,0.0,-4.1489864283272375,0.0,0.0,0.0,0.0,0.0
2.12,50.0,27.10705830349164,50.0,35.938476191995605,50.0,28.766172953314364,50.0,17.369907207302173,50.0,50.0,50.0,50.0,50.0,0.0,2.664553672225206,0.0,13.892521626666168,0.0,9.367915245247397,0.0,-3.8939193374223264,0.0,0.0,0.0,0.0,0.0
2.13,50.0,27.13283114628415,50.0,36.07285133317135,50.0,28.856783928588015,50.0,17.332243349382477,50.0,50.0,50.0,50.0,50.0,0.0,2.490014886276868,0.0,12.982506608483265,0.0,8.754279809483425,0.0,-3.6388522465174273,0.0,0.0,0.0,0.0,0.0
2.14,50.0,27.15685860121718,50.0,36.19812632416527,50.0,28.94125854950403,50.0,17.297130162371825,50.0,50.0,50.0,50.0,50.0,0.0,2.3154761003285222,0.0,12.072491590300322,0.0,8.140644373719425,0.0,-3.383785155612517,0.0,0.0,0.0,0.0,0.0
2.15,50.0,27.179140668290724,50.0,36.31430116497736,50.0,29.019596816062407,50.0,17.264567646270226,50.0,50.0,50.0,50.0,50.0,0.0,2.1409373143801846,0.0,11.16247657211742,0.0,7.527008937955453,0.0,-3.128718064707618,0.0,0.0,0.0,0.0,0.0
2.16,50.0,27.199677347504785,50.0,36.42137585560762,50.0,29.091798728263143,50.0,17.234555801077672,50.0,50.0,50.0,50.0,50.0,0.0,1.9663985284318388,0.0,10.252461553934475,0.0,6.913373502191454,0.0,-2.873650973802708,0.0,0.0,0.0,0.0,0.0
2.17,50.0,27.21846863885936,50.0,36.51935039605605,50.0,29.157864286106236,50.0,17.20709462679417,50.0,50.0,50.0,50.0,50.0,0.0,1.791859742483501,0.0,9.342446535751574,0.0,6.299738066427481,0.0,-2.6185838828978087,0.0,0.0,0.0,0.0,0.0
2.18,50.0,27.23551454235445,50.0,36.60822478632265,50.0,29.217793489591692,50.0,17.182184123419717,50.0,50.0,50.0,50.0,50.0,0.0,1.6173209565351552,0.0,8.43243151756863,0.0,5.686102630663481,0.0,-2.363516791992898,0.0,0.0,0.0,0.0,0.0
2.19,50.0,27.250815057990064,50.0,36.687999026407425,50.0,29.271586338719505,50.0,17.159824290954315,50.0,50.0,50.0,50.0,50.0,0.0,1.4427821705868171,0.0,7.522416499385725,0.0,5.072467194899509,0.0,-2.108449701087999,0.0,0.0,0.0,0.0,0.0
2.2,50.0,27.26437018576619,50.0,36.75867311631037,50.0,29.31924283348968,50.0,17.14001512939796,50.0,50.0,50.0,50.0,50.0,0.0,1.2682433846384715,0.0,6.612401481202783,0.0,4.458831759135509,0.0,-1.8533826101830884,0.0,0.0,0.0,0.0,0.0
2.21,50.0,27.276179925682833,50.0,36.820247056031484,50.0,29.360762973902215,50.0,17.12275663875065,50.0,50.0,50.0,50.0,50.0,0.0,1.0937045986901337,0.0,5.70238646301988,0.0,3.845196323371537,0.0,-1.5983155192781895,0.0,0.0,0.0,0.0,0.0
2.22,50.0,27.286244277739993,50.0,36.87272084557077,50.0,29.396146759957112,50.0,17.108048819012392,50.0,50.0,50.0,50.0,50.0,0.0,0.9191658127417879,0.0,4.7923714448369354,0.0,3.231560887607537,0.0,-1.3432484283732788,0.0,0.0,0.0,0.0,0.0
2.23,50.0,27.29456324193767,50.0,36.916094484928216,50.0,29.425394191654366,50.0,17.095891670183185,50.0,50.0,50.0,50.0,50.0,0.0,0.7446270267934499,0.0,3.882356426654033,0.0,2.617925451843565,0.0,-1.08818133746838,0.0,0.0,0.0,0.0,0.0
2.24,50.0,27.30113681827586,50.0,36.95036797410385,50.0,29.448505268993983,50.0,17.086285192263023,50.0,50.0,50.0,50.0,50.0,0.0,0.5700882408451042,0.0,2.9723414084710895,0.0,2.004290016079565,0.0,-0.8331142465634694,0.0,0.0,0.0,0.0,0.0
2.25,50.0,27.30596500675457,50.0,36.975541313097644,50.0,29.465479991975958,50.0,17.079229385251917,50.0,50.0,50.0,50.0,50.0,0.0,0.3955494548967663,0.0,2.0623263902881863,0.0,1.3906545803155925,0.0,-0.5780471556585703,0.0,0.0,0.0,0.0,0.0
2.26,50.0,27.309047807373794,50.0,36.99161450190961,50.0,29.476318360600295,50.0,17.074724249149856,50.0,50.0,50.0,50.0,50.0,0.0,0.2210106689484284,0.0,1.1523113721052833,0.0,0.7770191445516202,0.0,-0.32298006475367125,0.0,0.0,0.0,0.0,0.0
2.27,50.0,27.310385220133536,50.0,36.998587540539745,50.0,29.48102037486699,50.0,17.072769783956844,50.0,50.0,50.0,50.0,50.0,0.0,0.0464718830000827,0.0,0.24229635392233984,0.0,0.1633837087876206,0.0,-0.06791297384876079,0.0,0.0,0.0,0.0,0.0
2.28,50.0,27.314364015417947,50.0,37.00264197861396,50.0,29.4842145047108,50.0,17.072772313078428,50.0,50.0,50.0,50.0,50.0,0.0,1.067654332527046,0.0,1.017213417559314,0.0,0.8113506146321849,0.0,0.02533308499190591,0.0,0.0,0.0,0.0,0.0
2.29,50.0,27.332315939295178,50.0,37.019745770808285,50.0,29.49785684570814,50.0,17.073198272679296,50.0,50.0,50.0,50.0,50.0,0.0,2.522730442917992,0.0,2.4035450213063467,0.0,1.9171175848349649,0.0,0.05985883518202366,0.0,0.0,0.0,0.0,0.0
2.3,50.0,27.36481862427631,50.0,37.050712879040084,50.0,29.522556856407498,50.0,17.073969489782066,50.0,50.0,50.0,50.0,50.0,0.0,3.977806553308873,0.0,3.7898766250533176,0.0,3.0228845550376953,0.0,0.09438458537213987,0.0,0.0,0.0,0.0,0.0
2.31,50.0,27.411872070361355,50.0,37.09554330330935,50.0,29.55831453680889,50.0,17.075085964386737,50.0,50.0,50.0,50.0,50.0,0.0,5.432882663699819,0.0,5.17620822880035,0.0,4.128651525240475,0.0,0.12891033556225762,0.0,0.0,0.0,0.0,0.0
2.32,50.0,27.473476277550304,50.0,37.15423704361609,50.0,29.60512988691231,50.0,17.076547696493314,50.0,50.0,50.0,50.0,50.0,0.0,6.8879587740907,0.0,6.562539832547321,0.0,5.234418495443206,0.0,0.16343608575237384,0.0,0.0,0.0,0.0,0.0
2.33,50.0,27.54963124584317,50.0,37.2267940999603,50.0,29.663002906717757,50.0,17.07835468610179,50.0,50.0,50.0,50.0,50.0,0.0,8.343034884481646,0.0,7.948871436294354,0.0,6.340185465645986,0.0,0.1979618359424916,0.0,0.0,0.0,0.0,0.0
2.34,50.0,27.640336975239936,50.0,37.313214472341976,50.0,29.731933596225225,50.0,17.080506933212163,50.0,50.0,50.0,50.0,50.0,0.0,9.798110994872527,0.0,9.335203040041325,0.0,7.445952435848716,0.0,0.23248758613260778,0.0,0.0,0.0,0.0,0.0
2.35,50.0,27.74559346574062,50.0,37.41349816076113,50.0,29.81192195543473,50.0,17.08300443782444,50.0,50.0,50.0,50.0,50.0,0.0,11.253187105263473,0.0,10.721534643788358,0.0,8.551719406051497,0.0,0.26701333632272556,0.0,0.0,0.0,0.0,0.0
2.36,50.0,27.865400717345207,50.0,37.52764516521774,50.0,29.902967984346258,50.0,17.085847199938613,50.0,50.0,50.0,50.0,50.0,0.0,12.708263215654355,0.0,12.107866247535329,0.0,9.657486376254226,0.0,0.3015390865128418,0.0,0.0,0.0,0.0,0.0
2.37,50.0,27.99975873005371,50.0,37.65565548571184,50.0,30.005071682959816,50.0,17.089035219554695,50.0,50.0,50.0,50.0,50.0,0.0,14.163339326045302,0.0,13.494197851282363,0.0,10.763253346457008,0.0,0.33606483670295956,0.0,0.0,0.0,0.0,0.0
2.38,50.0,28.14866750386611,50.0,37.79752912224339,50.0,30.118233051275396,50.0,17.092568496672673,50.0,50.0,50.0,50.0,50.0,0.0,15.618415436436184,0.0,14.880529455029334,0.0,11.86902031665974,0.0,0.3705905868930757,0.0,0.0,0.0,0.0,0.0
2.39,50.0,28.312127038782435,50.0,37.95326607481242,50.0,30.242452089293014,50.0,17.09644703129256,50.0,50.0,50.0,50.0,50.0,0.0,17.073491546827128,0.0,16.266861058776364,0.0,12.974787286862517,0.0,0.40511633708319345,0.0,0.0,0.0,0.0,0.0
2.4,50.0,28.490137334802654,50.0,38.12286634341892,50.0,30.377728797012647,50.0,17.100670823414337,50.0,50.0,50.0,50.0,50.0,0.0,18.52856765721801,0.0,17.653192662523335,0.0,14.080554257065248,0.0,0.43964208727330967,0.0,0.0,0.0,0.0,0.0
2.41,50.0,28.68269839192679,50.0,38.306329928062894,50.0,30.524063174434318,50.0,17.105239873038023,50.0,50.0,50.0,50.0,50.0,0.0,19.983643767608957,0.0,19.03952426627037,0.0,15.186321227268028,0.0,0.47416783746342744,0.0,0.0,0.0,0.0,0.0
2.42,50.0,28.889810210154835,50.0,38.503656828744326,50.0,30.68145522155801,50.0,17.110154180163608,50.0,50.0,50.0,50.0,50.0,0.0,21.438719877999837,0.0,20.42585587001734,0.0,16.292088197470758,0.0,0.5086935876535437,0.0,0.0,0.0,0.0,0.0
2.43,50.0,29.11147278948679,50.0,38.71484704546324,50.0,30.849904938383734,50.0,17.115413744791095,50.0,50.0,50.0,50.0,50.0,0.0,22.89379598839078,0.0,21.81218747376437,0.0,17.397855167673537,0.0,0.5432193378436614,0.0,0.0,0.0,0.0,0.0
2.44,50.0,29.34768612992265,50.0,38.939900578219614,50.0,31.029412324911476,50.0,17.12101856692048,50.0,50.0,50.0,50.0,50.0,0.0,24.348872098781662,0.0,23.198519077511342,0.0,18.503622137876267,0.0,0.5777450880337776,0.0,0.0,0.0,0.0,0.0
2.45,50.0,29.598450231462426,50.0,39.17881742701346,50.0,31.219977381141263,50.0,17.12696864655177,50.0,50.0,50.0,50.0,50.0,0.0,25.80394820917261,0.0,24.584850681258377,0.0,19.60938910807905,0.0,0.6122708382238954,0.0,0.0,0.0,0.0,0.0
2.46,50.0,29.8637650941061,50.0,39.431597591844785,50.0,31.42160010707306,50.0,17.13326398368496,50.0,50.0,50.0,50.0,50.0,0.0,27.259024319563494,0.0,25.971182285005348,0.0,20.71515607828178,0.0,0.6467965884140116,0.0,0.0,0.0,0.0,0.0
2.47,50.0,30.143630717853696,50.0,39.69824107271358,50.0,31.634280502706897,50.0,17.13990457832005,50.0,50.0,50.0,50.0,50.0,0.0,28.71410042995444,0.0,27.357513888752383,0.0,21.820923048484563,0.0,0.6813223386041294,0.0,0.0,0.0,0.0,0.0
2.48,50.0,30.438047102705188,50.0,39.97874786961982,50.0,31.858018568042752,50.0,17.14689043045704,50.0,50.0,50.0,50.0,50.0,0.0,30.169176540345322,0.0,28.743845492499354,0.0,22.926690018687292,0.0,0.7158480887942456,0.0,0.0,0.0,0.0,0.0
2.49,50.0,30.747014248660605,50.0,40.27311798256356,50.0,32.092814303080644,50.0,17.154221540095936,50.0,50.0,50.0,50.0,50.0,0.0,31.624252650736263,0.0,30.13017709624638,0.0,24.03245698889007,0.0,0.7503738389843633,0.0,0.0,0.0,0.0,0.0
2.5,50.0,31.070532155719917,50.0,40.58135141154475,50.0,32.33866770782055,50.0,17.161897907236728,50.0,50.0,50.0,50.0,50.0,0.0,33.079328761127144,0.0,31.516508699993352,0.0,25.138223959092798,0.0,0.7848995891744794,0.0,0.0,0.0,0.0,0.0
2.51,50.0,31.408600823883134,50.0,40.903448156563414,50.0,32.595578782262486,50.0,17.169919531879422,50.0,50.0,50.0,50.0,50.0,0.0,34.53440487151803,0.0,32.90284030374033,0.0,26.24399092929553,0.0,0.8194253393645957,0.0,0.0,0.0,0.0,0.0
2.52,50.0,31.761220253150274,50.0,41.23940821761956,50.0,32.863547526406464,50.0,17.178286414024022,50.0,50.0,50.0,50.0,50.0,0.0,35.989480981908976,0.0,34.28917190748736,0.0,27.34975789949831,0.0,0.8539510895547134,0.0,0.0,0.0,0.0,0.0
2.53,50.0,32.12839044352131,50.0,41.58923159471316,50.0,33.142573940252454,50.0,17.186998553670517,50.0,50.0,50.0,50.0,50.0,0.0,37.44455709229985,0.0,35.67550351123433,0.0,28.45552486970104,0.0,0.8884768397448296,0.0,0.0,0.0,0.0,0.0
2.54,50.0,32.51011139499627,50.0,41.952918287844255,50.0,33.432658023800485,50.0,17.19605595081892,50.0,50.0,50.0,50.0,50.0,0.0,38.8996332026908,0.0,37.06183511498136,0.0,29.561291839903824,0.0,0.9230025899349474,0.0,0.0,0.0,0.0,0.0
2.55,50.0,32.90638310757513,50.0,42.33046829701279,50.0,33.733799777050535,50.0,17.205458605469218,50.0,50.0,50.0,50.0,50.0,0.0,40.354709313081685,0.0,38.44816671872834,0.0,30.667058810106553,0.0,0.9575283401250636,0.0,0.0,0.0,0.0,0.0
2.56,50.0,33.31720558125791,50.0,42.72188162221882,50.0,34.04599920000262,50.0,17.215206517621418,50.0,50.0,50.0,50.0,50.0,0.0,41.80978542347263,0.0,39.83449832247537,0.0,31.772825780309333,0.0,0.9920540903151814,0.0,0.0,0.0,0.0,0.0
2.57,50.0,33.742578816044585,50.0,43.1271582634623,50.0,34.369256292656715,50.0,17.22529968727552,50.0,50.0,50.0,50.0,50.0,0.0,43.26486153386351,0.0,41.22082992622234,0.0,32.87859275051206,0.0,1.0265798405052977,0.0,0.0,0.0,0.0,0.0
2.58,50.0,34.18172311813453,50.0,43.545555363273905,50.0,34.70297853641849,50.0,17.2357196140155,50.0,50.0,50.0,50.0,50.0,0.0,44.24359452784785,0.0,42.153323059400016,0.0,33.62236870124551,0.0,1.0498030180503197,0.0,0.0,0.0,0.0,0.0
2.59,50.0,34.624159063413,50.0,43.9670885938679,50.0,35.03920222343094,50.0,17.246217644196005,50.0,50.0,50.0,50.0,50.0,0.0,44.24359452784785,0.0,42.153323059400016,0.0,33.62236870124551,0.0,1.0498030180503197,0.0,0.0,0.0,0.0,0.0
2.6,50.0,35.06659500869149,50.0,44.38862182446191,50.0,35.375425910443404,50.0,17.256715674376508,50.0,50.0,50.0,50.0,50.0,0.0,44.24359452784785,0.0,42.153323059400016,0.0,33.62236870124551,0.0,1.0498030180503197,0.0,0.0,0.0,0.0,0.0
2.61,50.0,35.50903095396996,50.0,44.81015505505591,50.0,35.71164959745585,50.0,17.26721370455701,50.0,50.0,50.0,50.0,50.0,0.0,44.24359452784785,0.0,42.153323059400016,0.0,33.62236870124551,0.0,1.0498030180503197,0.0,0.0,0.0,0.0,0.0
2.62,50.0,35.951466899248445,50.0,45.231688285649916,50.0,36.04787328446831,50.0,17.277711734737515,50.0,50.0,50.0,50.0,50.0,0.0,44.24359452784785,0.0,42.153323059400016,0.0,33.62236870124551,0.0,1.0498030180503197,0.0,0.0,0.0,0.0,0.0
2.63,50.0,36.39390284452692,50.0,45.6532215162439,50.0,36.38409697148076,50.0,17.28820976491802,50.0,50.0,50.0,50.0,50.0,0.0,44.24359452784785,0.0,42.153323059400016,0.0,33.62236870124551,0.0,1.0498030180503197,0.0,0.0,0.0,0.0,0.0
2.64,50.0,36.83633878980541,50.0,46.07475474683791,50.0,36.72032065849322,50.0,17.298707795098522,50.0,50.0,50.0,50.0,50.0,0.0,44.24359452784785,0.0,42.153323059400016,0.0,33.62236870124551,0.0,1.0498030180503197,0.0,0.0,0.0,0.0,0.0
2.65,50.0,37.27877473508387,50.0,46.496287977431905,50.0,37.05654434550567,50.0,17.309205825279022,50.0,50.0,50.0,50.0,50.0,0.0,44.24359452784785,0.0,42.153323059400016,0.0,33.62236870124551,0.0,1.0498030180503197,0.0,0.0,0.0,0.0,0.0
2.66,50.0,37.72121068036236,50.0,46.91782120802591,50.0,37.392768032518134,50.0,17.31970385545953,50.0,50.0,50.0,50.0,50.0,0.0,44.24359452784785,0.0,42.153323059400016,0.0,33.62236870124551,0.0,1.0498030180503197,0.0,0.0,0.0,0.0,0.0
2.67,50.0,38.16364662564084,50.0,47.33935443861991,50.0,37.72899171953058,50.0,17.330201885640033,50.0,50.0,50.0,50.0,50.0,0.0,44.24359452784785,0.0,42.153323059400016,0.0,33.62236870124551,0.0,1.0498030180503197,0.0,0.0,0.0,0.0,0.0
2.68,50.0,38.60608257091933,50.0,47.760887669213915,50.0,38.06521540654305,50.0,17.340699915820537,50.0,50.0,50.0,50.0,50.0,0.0,44.24359452784785,0.0,42.153323059400016,0.0,33.62236870124551,0.0,1.0498030180503197,0.0,0.0,0.0,0.0,0.0
2.69,50.0,39.04851851619779,50.0,48.18242089980791,50.0,38.401439093555496,50.0,17.351197946001037,50.0,50.0,50.0,50.0,50.0,0.0,44.24359452784785,0.0,42.153323059400016,0.0,33.62236870124551,0.0,1.0498030180503197,0.0,0.0,0.0,0.0,0.0
2.7,50.0,39.49095446147628,50.0,48.60395413040192,50.0,38.73766278056796,50.0,17.36169597618154,50.0,50.0,50.0,50.0,50.0,0.0,44.24359452784785,0.0,42.153323059400016,0.0,33.62236870124551,0.0,1.0498030180503197,0.0,0.0,0.0,0.0,0.0
2.71,50.0,39.933390406754754,50.0,49.02548736099591,50.0,39.0738864675804,50.0,17.372194006362044,50.0,50.0,50.0,50.0,50.0,0.0,44.24359452784785,0.0,42.153323059400016,0.0,33.62236870124551,0.0,1.0498030180503197,0.0,0.0,0.0,0.0,0.0
2.72,50.0,40.375826352033236,50.0,49.44702059158992,50.0,39.410110154592864,50.0,17.382692036542547,50.0,50.0,50.0,50.0,50.0,0.0,44.24359452784785,0.0,42.153323059400016,0.0,33.62236870124551,0.0,1.0498030180503197,0.0,0.0,0.0,0.0,0.0
2.73,50.0,40.818262297311705,50.0,49.86855382218391,50.0,39.74633384160531,50.0,17.39319006672305,50.0,50.0,50.0,50.0,50.0,0.0,44.24359452784785,0.0,42.153323059400016,0.0,33.62236870124551,0.0,1.0498030180503197,0.0,0.0,0.0,0.0,0.0
2.74,50.0,41.260698242590195,50.0,50.29008705277792,50.0,40.082557528617784,50.0,17.403688096903554,50.0,50.0,50.0,50.0,50.0,0.0,44.24359452784785,0.0,42.153323059400016,0.0,33.62236870124551,0.0,1.0498030180503197,0.0,0.0,0.0,0.0,0.0
2.75,50.0,41.70313418786866,50.0,50.711620283371914,50.0,40.418781215630226,50.0,17.414186127084058,50.0,50.0,50.0,50.0,50.0,0.0,44.24359452784785,0.0,42.153323059400016,0.0,33.62236870124551,0.0,1.0498030180503197,0.0,0.0,0.0,0.0,0.0
2.76,50.0,42.14557013314713,50.0,51.13315351396591,50.0,40.755004902642675,50.0,17.424684157264558,50.0,50.0,50.0,50.0,50.0,0.0,44.24359452784785,0.0,42.153323059400016,0.0,33.62236870124551,0.0,1.0498030180503197,0.0,0.0,0.0,0.0,0.0
2.77,50.0,42.58800607842562,50.0,51.554686744559916,50.0,41.09122858965514,50.0,17.435182187445065,50.0,50.0,50.0,50.0,50.0,0.0,44.24359452784785,0.0,42.153323059400016,0.0,33.62236870124551,0.0,1.0498030180503197,0.0,0.0,0.0,0.0,0.0
2.78,50.0,43.0304420237041,50.0,51.97621997515391,50.0,41.42745227666759,50.0,17.445680217625565,50.0,50.0,50.0,50.0,50.0,0.0,44.24359452784785,0.0,42.153323059400016,0.0,33.62236870124551,0.0,1.0498030180503197,0.0,0.0,0.0,0.0,0.0
2.79,50.0,43.47287796898258,50.0,52.39775320574791,50.0,41.76367596368005,50.0,17.45617824780607,50.0,50.0,50.0,50.0,50.0,0.0,44.24359452784785,0.0,42.153323059400016,0.0,33.62236870124551,0.0,1.0498030180503197,0.0,0.0,0.0,0.0,0.0
2.8,50.0,43.91531391426105,50.0,52.819286436341905,50.0,42.09989965069249,50.0,17.466676277986572,50.0,50.0,50.0,50.0,50.0,0.0,44.24359452784785,0.0,42.153323059400016,0.0,33.62236870124551,0.0,1.0498030180503197,0.0,0.0,0.0,0.0,0.0
2.81,50.0,44.35774985953954,50.0,53.24081966693592,50.0,42.436123337704956,50.0,17.477174308167076,50.0,50.0,50.0,50.0,50.0,0.0,44.24359452784785,0.0,42.153323059400016,0.0,33.62236870124551,0.0,1.0498030180503197,0.0,0.0,0.0,0.0,0.0
2.82,50.0,44.800185804818014,50.0,53.66235289752991,50.0,42.772347024717405,50.0,17.48767233834758,50.0,50.0,50.0,50.0,50.0,0.0,44.24359452784785,0.0,42.153323059400016,0.0,33.62236870124551,0.0,1.0498030180503197,0.0,0.0,0.0,0.0,0.0
2.83,50.0,45.242621750096504,50.0,54.08388612812392,50.0,43.108570711729875,50.0,17.498170368528083,50.0,50.0,50.0,50.0,50.0,0.0,44.24359452784785,0.0,42.153323059400016,0.0,33.62236870124551,0.0,1.0498030180503197,0.0,0.0,0.0,0.0,0.0
2.84,50.0,45.685057695374965,50.0,54.5054193587179,50.0,43.44479439874232,50.0,17.508668398708586,50.0,50.0,50.0,50.0,50.0,0.0,44.24359452784785,0.0,42.153323059400016,0.0,33.62236870124551,0.0,1.0498030180503197,0.0,0.0,0.0,0.0,0.0
2.85,50.0,46.127493640653455,50.0,54.92695258931192,50.0,43.78101808575478,50.0,17.51916642888909,50.0,50.0,50.0,50.0,50.0,0.0,44.24359452784785,0.0,42.153323059400016,0.0,33.62236870124551,0.0,1.0498030180503197,0.0,0.0,0.0,0.0,0.0
2.86,50.0,46.569929585931924,50.0,55.34848581990591,50.0,44.11724177276723,50.0,17.529664459069593,50.0,50.0,50.0,50.0,50.0,0.0,44.24359452784785,0.0,42.153323059400016,0.0,33.62236870124551,0.0,1.0498030180503197,0.0,0.0,0.0,0.0,0.0
2.87,50.0,47.01236553121041,50.0,55.77001905049992,50.0,44.45346545977969,50.0,17.540162489250093,50.0,50.0,50.0,50.0,50.0,0.0,44.24359452784785,0.0,42.153323059400016,0.0,33.62236870124551,0.0,1.0498030180503197,0.0,0.0,0.0,0.0,0.0
2.88,50.0,47.45480147648888,50.0,56.19155228109391,50.0,44.789689146792135,50.0,17.550660519430597,50.0,50.0,50.0,50.0,50.0,0.0,44.24359452784785,0.0,42.153323059400016,0.0,33.62236870124551,0.0,1.0498030180503197,0.0,0.0,0.0,0.0,0.0
2.89,50.0,47.8910663030628,50.0,56.60720594509376,50.0,45.12122316899327,50.0,17.561012122560815,50.0,50.0,50.0,50.0,50.0,0.0,42.90348651717081,0.0,40.876527932073664,0.0,32.60397030673632,0.0,1.0180052075619188,0.0,0.0,0.0,0.0,0.0
2.9,50.0,48.31282578768255,50.0,57.00903956639576,50.0,45.44173403720961,50.0,17.571019545885484,50.0,50.0,50.0,50.0,50.0,0.0,41.44841040677993,0.0,39.4901963283267,0.0,31.49820333653359,0.0,0.9834794573718025,0.0,0.0,0.0,0.0,0.0
2.91,50.0,48.720034511198406,50.0,57.397009871660295,50.0,45.75118723572394,50.0,17.58068171170825,50.0,50.0,50.0,50.0,50.0,0.0,39.99333429638899,0.0,38.103864724579665,0.0,30.392436366330813,0.0,0.9489537071816849,0.0,0.0,0.0,0.0,0.0
2.92,50.0,49.11269247361032,50.0,57.77111686088734,50.0,46.04958276453623,50.0,17.589998620029117,50.0,50.0,50.0,50.0,50.0,0.0,38.53825818599811,0.0,36.71753312083269,0.0,29.286669396128083,0.0,0.9144279569915688,0.0,0.0,0.0,0.0,0.0
2.93,50.0,49.49079967491836,50.0,58.13136053407695,50.0,46.3369206236465,50.0,17.59897027084808,50.0,50.0,50.0,50.0,50.0,0.0,37.08318207560716,0.0,35.33120151708566,0.0,28.180902425925304,0.0,0.8799022068014509,0.0,0.0,0.0,0.0,0.0
2.94,50.0,49.85435611512247,50.0,58.47774089122906,50.0,46.61320081305473,50.0,17.607596664165147,50.0,50.0,50.0,50.0,50.0,0.0,35.62810596521628,0.0,33.94486991333869,0.0,27.07513545572257,0.0,0.8453764566113348,0.0,0.0,0.0,0.0,0.0
2.95,50.0,50.20336179422269,50.0,58.810257932343724,50.0,46.87842333276095,50.0,17.61587779998031,50.0,50.0,50.0,50.0,50.0,0.0,34.17302985482533,0.0,32.558538309591654,0.0,25.96936848551979,0.0,0.8108507064212169,0.0,0.0,0.0,0.0,0.0
2.96,50.0,50.537816712218984,50.0,59.12891165742089,50.0,47.13258818276513,50.0,17.62381367829357,50.0,50.0,50.0,50.0,50.0,0.0,32.71795374443445,0.0,31.172206705844683,0.0,24.86360151531706,0.0,0.7763249562311008,0.0,0.0,0.0,0.0,0.0
2.97,50.0,50.857720869111375,50.0,59.43370206646061,50.0,47.375695363067294,50.0,17.631404299104933,50.0,50.0,50.0,50.0,50.0,0.0,31.2628776340435,0.0,29.785875102097652,0.0,23.757834545114278,0.0,0.7417992060409829,0.0,0.0,0.0,0.0,0.0
2.98,50.0,51.163074264899855,50.0,59.72462915946285,50.0,47.60774487366742,50.0,17.63864966241439,50.0,50.0,50.0,50.0,50.0,0.0,29.80780152365262,0.0,28.399543498350678,0.0,22.65206757491155,0.0,0.7072734558508668,0.0,0.0,0.0,0.0,0.0
2.99,50.0,51.45387689958443,50.0,60.001692936427624,50.0,47.82873671456553,50.0,17.645549768221947,50.0,50.0,50.0,50.0,50.0,0.0,28.35272541326168,0.0,27.01321189460365,0.0,21.546300604708772,0.0,0.6727477056607492,0.0,0.0,0.0,0.0,0.0
3.0,50.0,51.730128773165085,50.0,60.264893397354925,50.0,48.0386708857616,50.0,17.652104616527605,50.0,50.0,50.0,50.0,50.0,0.0,26.897649302870796,0.0,25.626880290856676,0.0,20.44053363450604,0.0,0.6382219554706328,0.0,0.0,0.0,0.0,0.0
3.01,50.0,51.99182988564183,50.0,60.514230542244746,50.0,48.23754738725564,50.0,17.658314207331358,50.0,50.0,50.0,50.0,50.0,0.0,25.442573192479916,0.0,24.240548687109705,0.0,19.33476666430331,0.0,0.6036962052805166,0.0,0.0,0.0,0.0,0.0
3.02,50.0,52.23898023701468,50.0,60.74970437109712,50.0,48.42536621904766,50.0,17.664178540633216,50.0,50.0,50.0,50.0,50.0,0.0,23.98749708208897,0.0,22.854217083362673,0.0,18.22899969410053,0.0,0.5691704550903989,0.0,0.0,0.0,0.0,0.0
3.03,50.0,52.47157982728361,50.0,60.97131488391201,50.0,48.60212738113765,50.0,17.66969761643317,50.0,50.0,50.0,50.0,50.0,0.0,22.532420971698087,0.0,21.467885479615703,0.0,17.1232327238978,0.0,0.5346447049002827,0.0,0.0,0.0,0.0,0.0
3.04,50.0,52.68962865644865,50.0,61.17906208068943,50.0,48.76783087352562,50.0,17.67487143473122,50.0,50.0,50.0,50.0,50.0,0.0,21.077344861307143,0.0,20.081553875868668,0.0,16.017465753695017,0.0,0.5001189547101649,0.0,0.0,0.0,0.0,0.0
3.05,50.0,52.89312672450976,50.0,61.37294596142938,50.0,48.92247669621155,50.0,17.679699995527372,50.0,50.0,50.0,50.0,50.0,0.0,19.62226875091626,0.0,18.695222272121697,0.0,14.911698783492287,0.0,0.46559320452004865,0.0,0.0,0.0,0.0,0.0
3.06,50.0,53.08207403146697,50.0,61.55296652613187,50.0,49.06606484919546,50.0,17.684183298821623,50.0,50.0,50.0,50.0,50.0,0.0,18.167192640525315,0.0,17.308890668374666,0.0,13.805931813289508,0.0,0.431067454329931,0.0,0.0,0.0,0.0,0.0
3.07,50.0,53.256470577320265,50.0,61.71912377479687,50.0,49.19859533247734,50.0,17.688321344613968,50.0,50.0,50.0,50.0,50.0,0.0,16.712116530134434,0.0,15.922559064627695,0.0,12.700164843086778,0.0,0.39654170413981477,0.0,0.0,0.0,0.0,0.0
3.08,50.0,53.41631636206966,50.0,61.87141770742441,50.0,49.320068146057196,50.0,17.69211413290442,50.0,50.0,50.0,50.0,50.0,0.0,15.257040419743488,0.0,14.536227460880662,0.0,11.594397872883997,0.0,0.362015953949697,0.0,0.0,0.0,0.0,0.0
3.09,50.0,53.56161138571514,50.0,62.009848324014484,50.0,49.43048328993502,50.0,17.695561663692963,50.0,50.0,50.0,50.0,50.0,0.0,13.801964309352606,0.0,13.149895857133691,0.0,10.488630902681265,0.0,0.32749020375958077,0.0,0.0,0.0,0.0,0.0
3.1,50.0,53.69235564825671,50.0,62.13441562456709,50.0,49.52984076411082,50.0,17.69866393697961,50.0,50.0,50.0,50.0,50.0,0.0,12.34688819896166,0.0,11.763564253386658,0.0,9.382863932478486,0.0,0.292964453569463,0.0,0.0,0.0,0.0,0.0
3.11,50.0,53.80854914969437,50.0,62.245119609082224,50.0,49.61814056858459,50.0,17.701420952764355,50.0,50.0,50.0,50.0,50.0,0.0,10.891812088570779,0.0,10.377232649639687,0.0,8.277096962275756,0.0,0.25843870337934677,0.0,0.0,0.0,0.0,0.0
3.12,50.0,53.91019189002812,50.0,62.341960277559885,50.0,49.69538270335634,50.0,17.7038327110472,50.0,50.0,50.0,50.0,50.0,0.0,9.436735978179833,0.0,8.990901045892654,0.0,7.171329992072976,0.0,0.22391295318922905,0.0,0.0,0.0,0.0,0.0
3.13,50.0,53.99728386925796,50.0,62.42493763000007,50.0,49.76156716842605,50.0,17.70589921182814,50.0,50.0,50.0,50.0,50.0,0.0,7.981659867788951,0.0,7.604569442145682,0.0,6.065563021870245,0.0,0.18938720299911282,0.0,0.0,0.0,0.0,0.0
3.14,50.0,54.069825087383904,50.0,62.4940516664028,50.0,49.816693963793746,50.0,17.70762045510718,50.0,50.0,50.0,50.0,50.0,0.0,6.526583757398005,0.0,6.21823783839865,0.0,4.959796051667466,0.0,0.15486145280899508,0.0,0.0,0.0,0.0,0.0
3.15,50.0,54.12781554440593,50.0,62.54930238676804,50.0,49.8607630894594,50.0,17.70899644088432,50.0,50.0,50.0,50.0,50.0,0.0,5.071507647007125,0.0,4.8319062346516795,0.0,3.8540290814647356,0.0,0.12033570261887888,0.0,0.0,0.0,0.0,0.0
3.16,50.0,54.171255240324044,50.0,62.59068979109583,50.0,49.893774545423035,50.0,17.710027169159556,50.0,50.0,50.0,50.0,50.0,0.0,3.616431536616178,0.0,3.4455746309046464,0.0,2.748262111261955,0.0,0.08580995242876112,0.0,0.0,0.0,0.0,0.0
3.17,50.0,54.200144175138256,50.0,62.61821387938614,50.0,49.91572833168465,50.0,17.710712639932893,50.0,50.0,50.0,50.0,50.0,0.0,2.161355426225297,0.0,2.0592430271576756,0.0,1.6424951410592246,0.0,0.05128420223864491,0.0,0.0,0.0,0.0,0.0
3.18,50.0,54.214482348848556,50.0,62.63187465163899,50.0,49.926624448244226,50.0,17.71105285320433,50.0,50.0,50.0,50.0,50.0,0.0,0.7062793158343513,0.0,0.6729114234106429,0.0,0.5367281708564449,0.0,0.016758452048527165,0.0,0.0,0.0,0.0,0.0
3.19,50.0,54.217897366728636,50.0,62.63222430666435,50.0,49.9261771402206,50.0,17.71091005170677,50.0,50.0,50.0,50.0,50.0,0.0,0.6610494574731051,0.0,-0.4988115435364695,0.0,-0.6800956585738679,0.0,-0.07130580414047948,0.0,0.0,0.0,0.0,0.0
3.2,50.0,54.23093068042031,50.0,62.622389691044525,50.0,49.912768309824735,50.0,17.7095041797211,50.0,50.0,50.0,50.0,50.0,0.0,1.9456132808608324,0.0,-1.4681115804269926,0.0,-2.001670420599273,0.0,-0.20986859299226124,0.0,0.0,0.0,0.0,0.0
3.21,50.0,54.256809632345856,50.0,62.6028620750558,50.0,49.88614373180862,50.0,17.70671267984692,50.0,50.0,50.0,50.0,50.0,0.0,3.230177104248503,0.0,-2.437411617317473,0.0,-3.32324518262462,0.0,-0.3484313818440369,0.0,0.0,0.0,0.0,0.0
3.22,50.0,54.29553422250528,50.0,62.57364145869818,50.0,49.84630340617225,50.0,17.70253555208422,50.0,50.0,50.0,50.0,50.0,0.0,4.514740927636231,0.0,-3.4067116542079963,0.0,-4.644819944650026,0.0,-0.48699417069581863,0.0,0.0,0.0,0.0,0.0
3.23,50.0,54.347104450898584,50.0,62.53472784197165,50.0,49.79324733291562,50.0,17.696972796433005,50.0,50.0,50.0,50.0,50.0,0.0,5.7993047510239,0.0,-4.376011691098476,0.0,-5.966394706675372,0.0,-0.6255569595475942,0.0,0.0,0.0,0.0,0.0
3.24,50.0,54.41152031752575,50.0,62.4861212248762,50.0,49.726975512038734,50.0,17.69002441289327,50.0,50.0,50.0,50.0,50.0,0.0,7.083868574411627,0.0,-5.3453117279889995,0.0,-7.287969468700777,0.0,-0.764119748399376,0.0,0.0,0.0,0.0,0.0
3.25,50.0,54.48878182238681,50.0,62.42782160741186,50.0,49.6474879435416,50.0,17.68169040146502,50.0,50.0,50.0,50.0,50.0,0.0,8.368432397799298,0.0,-6.31461176487948,0.0,-8.609544230726124,0.0,-0.9026825372511517,0.0,0.0,0.0,0.0,0.0
3.26,50.0,54.57888896548174,50.0,62.359828989578624,50.0,49.55478462742422,50.0,17.67197076214825,50.0,50.0,50.0,50.0,50.0,0.0,9.652996221186967,0.0,-7.28391180176996,0.0,-9.93111899275147,0.0,-1.0412453261029273,0.0,0.0,0.0,0.0,0.0
3.27,50.0,54.68184174681055,50.0,62.28214337137646,50.0,49.44886556368657,50.0,17.660865494942957,50.0,50.0,50.0,50.0,50.0,0.0,10.937560044574697,0.0,-8.253211838660484,0.0,-11.252693754776876,0.0,-1.179808114954709,0.0,0.0,0.0,0.0,0.0
3.28,50.0,54.79764016637323,50.0,62.19476475280541,50.0,49.32973075232868,50.0,17.648374599849152,50.0,50.0,50.0,50.0,50.0,0.0,12.222123867962365,0.0,-9.222511875550962,0.0,-12.574268516802222,0.0,-1.3183709038064846,0.0,0.0,0.0,0.0,0.0
3.29,50.0,54.9262842241698,50.0,62.09769313386544,50.0,49.197380193350526,50.0,17.63449807686683,50.0,50.0,50.0,50.0,50.0,0.0,13.506687691350093,0.0,-10.191811912441487,0.0,-13.895843278827629,0.0,-1.4569336926582663,0.0,0.0,0.0,0.0,0.0
3.3,50.0,55.06777392020024,50.0,61.99092851455658,50.0,49.05181388675213,50.0,17.61923592599599,50.0,50.0,50.0,50.0,50.0,0.0,14.791251514737764,0.0,-11.161111949331968,0.0,-15.217418040852975,0.0,-1.595496481510042,0.0,0.0,0.0,0.0,0.0
3.31,50.0,55.222109254464556,50.0,61.87447089487881,50.0,48.89303183253347,50.0,17.60258814723663,50.0,50.0,50.0,50.0,50.0,0.0,16.07581533812549,0.0,-12.130411986222489,0.0,-16.53899280287838,0.0,-1.7340592703618238,0.0,0.0,0.0,0.0,0.0
3.32,50.0,55.38929022696274,50.0,61.74832027483213,50.0,48.72103403069456,50.0,17.58455474058875,50.0,50.0,50.0,50.0,50.0,0.0,17.360379161513162,0.0,-13.09971202311297,0.0,-17.860567564903725,0.0,-1.8726220592135994,0.0,0.0,0.0,0.0,0.0
3.33,50.0,55.56931683769482,50.0,61.61247665441655,50.0,48.53582048123539,50.0,17.565135706052356,50.0,50.0,50.0,50.0,50.0,0.0,18.64494298490089,0.0,-14.069012060003494,0.0,-19.18214232692913,0.0,-2.011184848065381,0.0,0.0,0.0,0.0,0.0
3.34,50.0,55.76218908666076,50.0,61.466940033632056,50.0,48.337391184155976,50.0,17.544331043627444,50.0,50.0,50.0,50.0,50.0,0.0,19.929506808288558,0.0,-15.038312096893973,0.0,-20.503717088954478,0.0,-2.149747636917157,0.0,0.0,0.0,0.0,0.0
3.35,50.0,55.96790697386059,50.0,61.31171041247866,50.0,48.125746139456304,50.0,17.522140753314012,50.0,50.0,50.0,50.0,50.0,0.0,21.214070631676286,0.0,-16.007612133784498,0.0,-21.825291850979884,0.0,-2.288310425768939,0.0,0.0,0.0,0.0,0.0
3.36,50.0,56.18647049929429,50.0,61.14678779095637,50.0,47.90088534713638,50.0,17.498564835112067,50.0,50.0,50.0,50.0,50.0,0.0,22.498634455063957,0.0,-16.976912170674975,0.0,-23.14686661300523,0.0,-2.426873214620714,0.0,0.0,0.0,0.0,0.0
3.37,50.0,56.417879662961866,50.0,60.97217216906516,50.0,47.66280880719619,50.0,17.473603289021597,50.0,50.0,50.0,50.0,50.0,0.0,23.783198278451685,0.0,-17.9462122075655,0.0,-24.468441375030636,0.0,-2.565436003472496,0.0,0.0,0.0,0.0,0.0
3.38,50.0,56.66213446486332,50.0,60.78786354680506,50.0,47.41151651963577,50.0,17.447256115042617,50.0,50.0,50.0,50.0,50.0,0.0,25.067762101839353,0.0,-18.91551224445598,0.0,-25.790016137055982,0.0,-2.7039987923242714,0.0,0.0,0.0,0.0,0.0
3.39,50.0,56.91923490499866,50.0,60.593861924176046,50.0,47.14700848445508,50.0,17.419523313175112,50.0,50.0,50.0,50.0,50.0,0.0,26.35232592522708,0.0,-19.884812281346502,0.0,-27.11159089908139,0.0,-2.8425615811760534,0.0,0.0,0.0,0.0,0.0
3.4,50.0,57.18918098336786,50.0,60.390167301178124,50.0,46.869284701654145,50.0,17.390404883419095,50.0,50.0,50.0,50.0,50.0,0.0,27.636889748614752,0.0,-20.854112318236986,0.0,-28.433165661106734,0.0,-2.981124370027829,0.0,0.0,0.0,0.0,0.0
3.41,50.0,57.471972699970955,50.0,60.176779677811304,50.0,46.57834517123294,50.0,17.35990082577456,50.0,50.0,50.0,50.0,50.0,0.0,28.921453572002477,0.0,-21.823412355127505,0.0,-29.754740423132137,0.0,-3.1196871588796107,0.0,0.0,0.0,0.0,0.0
3.42,50.0,57.76761005480792,50.0,59.95369905407558,50.0,46.2741898931915,50.0,17.3280111402415,50.0,50.0,50.0,50.0,50.0,0.0,30.206017395390152,0.0,-22.79271239201799,0.0,-31.076315185157487,0.0,-3.2582499477313864,0.0,0.0,0.0,0.0,0.0
3.43,50.0,58.07609304787876,50.0,59.72092542997094,50.0,45.95681886752979,50.0,17.294735826819927,50.0,50.0,50.0,50.0,50.0,0.0,31.490581218777876,0.0,-23.76201242890851,0.0,-32.39788994718289,0.0,-3.396812736583168,0.0,0.0,0.0,0.0,0.0
3.44,50.0,58.39742167918347,50.0,59.47845880549741,50.0,45.62623209424784,50.0,17.260074885509837,50.0,50.0,50.0,50.0,50.0,0.0,32.77514504216555,0.0,-24.731312465798993,0.0,-33.71946470920824,0.0,-3.5353755254349437,0.0,0.0,0.0,0.0,0.0
3.45,50.0,58.731595948722074,50.0,59.22629918065496,50.0,45.28242957334562,50.0,17.22402831631123,50.0,50.0,50.0,50.0,50.0,0.0,34.059708865553276,0.0,-25.700612502689516,0.0,-35.041039471233645,0.0,-3.6739383142867257,0.0,0.0,0.0,0.0,0.0
3.46,50.0,59.07861585649454,50.0,58.964446555443615,50.0,44.925411304823164,50.0,17.186596119224106,50.0,50.0,50.0,50.0,50.0,0.0,35.34427268894095,0.0,-26.669912539579993,0.0,-36.36261423325899,0.0,-3.812501103138501,0.0,0.0,0.0,0.0,0.0
3.47,50.0,59.4384814025009,50.0,58.69290092986336,50.0,44.55517728868045,50.0,17.14777829424846,50.0,50.0,50.0,50.0,50.0,0.0,36.62883651232867,0.0,-27.639212576470516,0.0,-37.684188995284394,0.0,-3.9510638919902825,0.0,0.0,0.0,0.0,0.0
3.48,50.0,59.811192586741114,50.0,58.41166230391421,50.0,44.17172752491748,50.0,17.1075748413843,50.0,50.0,50.0,50.0,50.0,0.0,37.91340033571635,0.0,-28.608512613361,0.0,-39.005763757309744,0.0,-4.089626680842059,0.0,0.0,0.0,0.0,0.0
3.49,50.0,60.196749409215215,50.0,58.120730677596136,50.0,43.77506201353424,50.0,17.06598576063162,50.0,50.0,50.0,50.0,50.0,0.0,39.19796415910407,0.0,-29.57781265025152,0.0,-40.32733851933515,0.0,-4.228189469693841,0.0,0.0,0.0,0.0,0.0
3.5,50.0,60.59515186992319,50.0,57.82010605090918,50.0,43.365180754530776,50.0,17.023011051990423,50.0,50.0,50.0,50.0,50.0,0.0,40.48252798249174,0.0,-30.547112687142,0.0,-41.64891328136049,0.0,-4.366752258545616,0.0,0.0,0.0,0.0,0.0
3.51,50.0,61.00639996886504,50.0,57.509788423853315,50.0,42.942083747907056,50.0,16.97865071546071,50.0,50.0,50.0,50.0,50.0,0.0,41.76709180587941,0.0,-31.51641272403248,0.0,-42.970488043385835,0.0,-4.505315047397391,0.0,0.0,0.0,0.0,0.0
3.52,50.0,61.43049370604078,50.0,57.18977779642853,50.0,42.505770993663056,50.0,16.932904751042475,50.0,50.0,50.0,50.0,50.0,0.0,43.05165562926714,0.0,-32.48571276092301,0.0,-44.29206280541125,0.0,-4.643877836249174,0.0,0.0,0.0,0.0,0.0
3.53,50.0,61.867433081450386,50.0,56.86007416863485,50.0,42.05624249179883,50.0,16.885773158735724,50.0,50.0,50.0,50.0,50.0,0.0,44.33621945265481,0.0,-33.45501279781349,0.0,-45.61363756743659,0.0,-4.782440625100949,0.0,0.0,0.0,0.0,0.0
3.54,50.0,62.31721809509388,50.0,56.520677540472256,50.0,41.593498242314325,50.0,16.837255938540455,50.0,50.0,50.0,50.0,50.0,0.0,45.62078327604253,0.0,-34.424312834704004,0.0,-46.935212329462,0.0,-4.9210034139527306,0.0,0.0,0.0,0.0,0.0
3.55,50.0,62.779848746971226,50.0,56.171587911940776,50.0,41.11753824520959,50.0,16.78735309045667,50.0,50.0,50.0,50.0,50.0,0.0,46.9053470994302,0.0,-35.393612871594485,0.0,-48.25678709148734,0.0,-5.059566202804506,0.0,0.0,0.0,0.0,0.0
3.56,50.0,63.25504215660624,50.0,55.813018737639574,50.0,40.62865353133199,50.0,16.736095128116297,50.0,50.0,50.0,50.0,50.0,0.0,47.92032678896177,0.0,-36.1594913998497,0.0,-49.301010443594336,0.0,-5.169049603978385,0.0,0.0,0.0,0.0,0.0
3.57,50.0,63.73424542449584,50.0,55.45142382364107,50.0,40.13564342689606,50.0,16.684404632076514,50.0,50.0,50.0,50.0,50.0,0.0,47.92032678896177,0.0,-36.1594913998497,0.0,-49.301010443594336,0.0,-5.169049603978385,0.0,0.0,0.0,0.0,0.0
3.58,50.0,64.21344869238547,50.0,55.08982890964257,50.0,39.642633322460114,50.0,16.632714136036732,50.0,50.0,50.0,50.0,50.0,0.0,47.92032678896177,0.0,-36.1594913998497,0.0,-49.301010443594336,0.0,-5.169049603978385,0.0,0.0,0.0,0.0,0.0
3.59,50.0,64.69265196027507,50.0,54.728233995644075,50.0,39.14962321802417,50.0,16.581023639996946,50.0,50.0,50.0,50.0,50.0,0.0,47.92032678896177,0.0,-36.1594913998497,0.0,-49.301010443594336,0.0,-5.169049603978385,0.0,0.0,0.0,0.0,0.0
3.6,50.0,65.1718552281647,50.0,54.36663908164557,50.0,38.65661311358822,50.0,16.529333143957164,50.0,50.0,50.0,50.0,50.0,0.0,47.92032678896177,0.0,-36.1594913998497,0.0,-49.301010443594336,0.0,-5.169049603978385,0.0,0.0,0.0,0.0,0.0
3.61,50.0,65.6510584960543,50.0,54.005044167647085,50.0,38.16360300915228,50.0,16.477642647917378,50.0,50.0,50.0,50.0,50.0,0.0,47.92032678896177,0.0,-36.1594913998497,0.0,-49.301010443594336,0.0,-5.169049603978385,0.0,0.0,0.0,0.0,0.0
3.62,50.0,66.13026176394393,50.0,53.64344925364858,50.0,37.67059290471633,50.0,16.425952151877595,50.0,50.0,50.0,50.0,50.0,0.0,47.92032678896177,0.0,-36.1594913998497,0.0,-49.301010443594336,0.0,-5.169049603978385,0.0,0.0,0.0,0.0,0.0
3.63,50.0,66.60946503183354,50.0,53.281854339650096,50.0,37.177582800280405,50.0,16.374261655837813,50.0,50.0,50.0,50.0,50.0,0.0,47.92032678896177,0.0,-36.1594913998497,0.0,-49.301010443594336,0.0,-5.169049603978385,0.0,0.0,0.0,0.0,0.0
3.64,50.0,67.08866829972317,50.0,52.92025942565159,50.0,36.684572695844444,50.0,16.322571159798027,50.0,50.0,50.0,50.0,50.0,0.0,47.92032678896177,0.0,-36.1594913998497,0.0,-49.301010443594336,0.0,-5.169049603978385,0.0,0.0,0.0,0.0,0.0
3.65,50.0,67.5678715676128,50.0,52.5586645116531,50.0,36.19156259140851,50.0,16.270880663758245,50.0,50.0,50.0,50.0,50.0,0.0,47.92032678896177,0.0,-36.1594913998497,0.0,-49.301010443594336,0.0,-5.169049603978385,0.0,0.0,0.0,0.0,0.0
3.66,50.0,68.04707483550241,50.0,52.19706959765458,50.0,35.69855248697256,50.0,16.21919016771846,50.0,50.0,50.0,50.0,50.0,0.0,47.92032678896177,0.0,-36.1594913998497,0.0,-49.301010443594336,0.0,-5.169049603978385,0.0,0.0,0.0,0.0,0.0
3.67,50.0,68.52627810339203,50.0,51.8354746836561,50.0,35.20554238253663,50.0,16.167499671678677,50.0,50.0,50.0,50.0,50.0,0.0,47.92032678896177,0.0,-36.1594913998497,0.0,-49.301010443594336,0.0,-5.169049603978385,0.0,0.0,0.0,0.0,0.0
3.68,50.0,69.00548137128165,50.0,51.47387976965759,50.0,34.71253227810067,50.0,16.11580917563889,50.0,50.0,50.0,50.0,50.0,0.0,47.92032678896177,0.0,-36.1594913998497,0.0,-49.301010443594336,0.0,-5.169049603978385,0.0,0.0,0.0,0.0,0.0
3.69,50.0,69.48468463917126,50.0,51.11228485565911,50.0,34.21952217366474,50.0,16.06411867959911,50.0,50.0,50.0,50.0,50.0,0.0,47.92032678896177,0.0,-36.1594913998497,0.0,-49.301010443594336,0.0,-5.169049603978385,0.0,0.0,0.0,0.0,0.0
3.7,50.0,69.9638879070609,50.0,50.7506899416606,50.0,33.72651206922878,50.0,16.012428183559322,50.0,50.0,50.0,50.0,50.0,0.0,47.92032678896177,0.0,-36.1594913998497,0.0,-49.301010443594336,0.0,-5.169049603978385,0.0,0.0,0.0,0.0,0.0
3.71,50.0,70.4430911749505,50.0,50.389095027662115,50.0,33.23350196479285,50.0,15.96073768751954,50.0,50.0,50.0,50.0,50.0,0.0,47.92032678896177,0.0,-36.1594913998497,0.0,-49.301010443594336,0.0,-5.169049603978385,0.0,0.0,0.0,0.0,0.0
3.72,50.0,70.92229444284013,50.0,50.027500113663606,50.0,32.7404918603569,50.0,15.909047191479756,50.0,50.0,50.0,50.0,50.0,0.0,47.92032678896177,0.0,-36.1594913998497,0.0,-49.301010443594336,0.0,-5.169049603978385,0.0,0.0,0.0,0.0,0.0
3.73,50.0,71.40149771072973,50.0,49.66590519966512,50.0,32.247481755920965,50.0,15.857356695439972,50.0,50.0,50.0,50.0,50.0,0.0,47.92032678896177,0.0,-36.1594913998497,0.0,-49.301010443594336,0.0,-5.169049603978385,0.0,0.0,0.0,0.0,0.0
3.74,50.0,71.88070097861936,50.0,49.30431028566662,50.0,31.754471651485012,50.0,15.80566619940019,50.0,50.0,50.0,50.0,50.0,0.0,47.92032678896177,0.0,-36.1594913998497,0.0,-49.301010443594336,0.0,-5.169049603978385,0.0,0.0,0.0,0.0,0.0
3.75,50.0,72.35990424650896,50.0,48.94271537166813,50.0,31.261461547049073,50.0,15.753975703360403,50.0,50.0,50.0,50.0,50.0,0.0,47.92032678896177,0.0,-36.1594913998497,0.0,-49.301010443594336,0.0,-5.169049603978385,0.0,0.0,0.0,0.0,0.0
3.76,50.0,72.83910751439858,50.0,48.581120457669634,50.0,30.76845144261314,50.0,15.702285207320621,50.0,50.0,50.0,50.0,50.0,0.0,47.92032678896177,0.0,-36.1594913998497,0.0,-49.301010443594336,0.0,-5.169049603978385,0.0,0.0,0.0,0.0,0.0
3.77,50.0,73.31831078228821,50.0,48.219525543671125,50.0,30.275441338177185,50.0,15.650594711280835,50.0,50.0,50.0,50.0,50.0,0.0,47.92032678896177,0.0,-36.1594913998497,0.0,-49.301010443594336,0.0,-5.169049603978385,0.0,0.0,0.0,0.0,0.0
3.78,50.0,73.79751405017781,50.0,47.85793062967264,50.0,29.782431233741253,50.0,15.598904215241053,50.0,50.0,50.0,50.0,50.0,0.0,47.92032678896177,0.0,-36.1594913998497,0.0,-49.301010443594336,0.0,-5.169049603978385,0.0,0.0,0.0,0.0,0.0
3.79,50.0,74.27671731806744,50.0,47.496335715674135,50.0,29.2894211293053,50.0,15.54721371920127,50.0,50.0,50.0,50.0,50.0,0.0,47.92032678896177,0.0,-36.1594913998497,0.0,-49.301010443594336,0.0,-5.169049603978385,0.0,0.0,0.0,0.0,0.0
3.8,50.0,74.75592058595706,50.0,47.13474080167565,50.0,28.796411024869364,50.0,15.495523223161486,50.0,50.0,50.0,50.0,50.0,0.0,47.92032678896177,0.0,-36.1594913998497,0.0,-49.301010443594336,0.0,-5.169049603978385,0.0,0.0,0.0,0.0,0.0
3.81,50.0,75.23512385384667,50.0,46.77314588767714,50.0,28.30340092043341,50.0,15.4438327271217,50.0,50.0,50.0,50.0,50.0,0.0,47.92032678896177,0.0,-36.1594913998497,0.0,-49.301010443594336,0.0,-5.169049603978385,0.0,0.0,0.0,0.0,0.0
3.82,50.0,75.71432712173629,50.0,46.41155097367865,50.0,27.81039081599748,50.0,15.392142231081918,50.0,50.0,50.0,50.0,50.0,0.0,47.92032678896177,0.0,-36.1594913998497,0.0,-49.301010443594336,0.0,-5.169049603978385,0.0,0.0,0.0,0.0,0.0
3.83,50.0,76.19353038962592,50.0,46.04995605968014,50.0,27.317380711561523,50.0,15.340451735042134,50.0,50.0,50.0,50.0,50.0,0.0,47.92032678896177,0.0,-36.1594913998497,0.0,-49.301010443594336,0.0,-5.169049603978385,0.0,0.0,0.0,0.0,0.0
3.84,50.0,76.67273365751552,50.0,45.688361145681654,50.0,26.82437060712559,50.0,15.288761239002351,50.0,50.0,50.0,50.0,50.0,0.0,47.92032678896177,0.0,-36.1594913998497,0.0,-49.301010443594336,0.0,-5.169049603978385,0.0,0.0,0.0,0.0,0.0
3.85,50.0,77.15193692540515,50.0,45.32676623168315,50.0,26.331360502689634,50.0,15.237070742962565,50.0,50.0,50.0,50.0,50.0,0.0,47.92032678896177,0.0,-36.1594913998497,0.0,-49.301010443594336,0.0,-5.169049603978385,0.0,0.0,0.0,0.0,0.0
3.86,50.0,77.63114019329475,50.0,44.965171317684664,50.0,25.838350398253702,50.0,15.185380246922783,50.0,50.0,50.0,50.0,50.0,0.0,47.92032678896177,0.0,-36.1594913998497,0.0,-49.301010443594336,0.0,-5.169049603978385,0.0,0.0,0.0,0.0,0.0
3.87,50.0,78.11034346118439,50.0,44.603576403686155,50.0,25.345340293817745,50.0,15.133689750882997,50.0,50.0,50.0,50.0,50.0,0.0,47.92032678896177,0.0,-36.1594913998497,0.0,-49.301010443594336,0.0,-5.169049603978385,0.0,0.0,0.0,0.0,0.0
3.88,50.0,78.58954672907399,50.0,44.24198148968767,50.0,24.852330189381814,50.0,15.081999254843215,50.0,50.0,50.0,50.0,50.0,0.0,47.92032678896177,0.0,-36.1594913998497,0.0,-49.301010443594336,0.0,-5.169049603978385,0.0,0.0,0.0,0.0,0.0
3.89,50.0,79.06874999696362,50.0,43.88038657568916,50.0,24.359320084945864,50.0,15.03030875880343,50.0,50.0,50.0,50.0,50.0,0.0,47.92032678896177,0.0,-36.1594913998497,0.0,-49.301010443594336,0.0,-5.169049603978385,0.0,0.0,0.0,0.0,0.0
3.9,50.0,79.54795326485323,50.0,43.51879166169067,50.0,23.866309980509925,50.0,14.978618262763646,50.0,50.0,50.0,50.0,50.0,0.0,47.92032678896177,0.0,-36.1594913998497,0.0,-49.301010443594336,0.0,-5.169049603978385,0.0,0.0,0.0,0.0,0.0
3.91,50.0,80.02715653274285,50.0,43.15719674769217,50.0,23.373299876073975,50.0,14.926927766723862,50.0,50.0,50.0,50.0,50.0,0.0,47.92032678896177,0.0,-36.1594913998497,0.0,-49.301010443594336,0.0,-5.169049603978385,0.0,0.0,0.0,0.0,0.0
3.92,50.0,80.50635980063247,50.0,42.79560183369368,50.0,22.88028977163804,50.0,14.875237270684078,50.0,50.0,50.0,50.0,50.0,0.0,47.92032678896177,0.0,-36.1594913998497,0.0,-49.301010443594336,0.0,-5.169049603978385,0.0,0.0,0.0,0.0,0.0
3.93,50.0,80.9855630685221,50.0,42.43400691969517,50.0,22.387279667202087,50.0,14.823546774644294,50.0,50.0,50.0,50.0,50.0,0.0,47.92032678896177,0.0,-36.1594913998497,0.0,-49.301010443594336,0.0,-5.169049603978385,0.0,0.0,0.0,0.0,0.0
3.94,50.0,81.45950450791426,50.0,42.076382451122456,50.0,21.89968299541755,50.0,14.77242385930217,50.0,50.0,50.0,50.0,50.0,0.0,46.757644155334916,0.0,-35.282159889225085,0.0,-48.10482852030604,0.0,-5.043633843911285,0.0,0.0,0.0,0.0,0.0
3.95,50.0,81.92065813035069,50.0,41.72840735241465,50.0,21.425242584024602,50.0,14.722680334807315,50.0,50.0,50.0,50.0,50.0,0.0,45.473080331947195,0.0,-34.31285985233457,0.0,-46.783253758280644,0.0,-4.905071055059503,0.0,0.0,0.0,0.0,0.0
3.96,50.0,82.3689661145532,50.0,41.39012525407576,50.0,20.964017920251933,50.0,14.67432243820098,50.0,50.0,50.0,50.0,50.0,0.0,44.18851650855952,0.0,-33.34355981544409,0.0,-45.4616789962553,0.0,-4.766508266207728,0.0,0.0,0.0,0.0,0.0
3.97,50.0,82.80442846052186,50.0,41.06153615610577,50.0,20.516009004099494,50.0,14.627350169483162,50.0,50.0,50.0,50.0,50.0,0.0,42.90395268517179,0.0,-32.37425977855356,0.0,-44.14010423422989,0.0,-4.627945477355945,0.0,0.0,0.0,0.0,0.0
3.98,50.0,83.22704516825664,50.0,40.74264005850469,50.0,20.081215835567335,50.0,14.58176352865386,50.0,50.0,50.0,50.0,50.0,0.0,41.619388861784124,0.0,-31.40495974166308,0.0,-42.818529472204546,0.0,-4.48938268850417,0.0,0.0,0.0,0.0,0.0
3.99,50.0,83.63681623775756,50.0,40.433436961272506,50.0,19.65963841465541,50.0,14.537562515713077,50.0,50.0,50.0,50.0,50.0,0.0,40.334825038396396,0.0,-30.435659704772558,0.0,-41.49695471017914,0.0,-4.350819899652389,0.0,0.0,0.0,0.0,0.0
4.0,50.0,84.03374166902456,50.0,40.13392686440924,50.0,19.251276741363753,50.0,14.494747130660814,50.0,50.0,50.0,50.0,50.0,0.0,39.05026121500873,0.0,-29.46635966788208,0.0,-40.1753799481538,0.0,-4.212257110800613,0.0,0.0,0.0,0.0,0.0
4.01,50.0,84.4178214620577,50.0,39.84410976791488,50.0,18.856130815692353,50.0,14.453317373497068,50.0,50.0,50.0,50.0,50.0,0.0,37.76569739162105,0.0,-28.497059630991597,0.0,-38.85380518612844,0.0,-4.073694321948837,0.0,0.0,0.0,0.0,0.0
4.02,50.0,84.78905561685698,50.0,39.56398567178942,50.0,18.474200637641196,50.0,14.41327324422184,50.0,50.0,50.0,50.0,50.0,0.0,36.48113356823338,0.0,-27.527759594101116,0.0,-37.5322304241031,0.0,-3.9351315330970613,0.0,0.0,0.0,0.0,0.0
4.03,50.0,85.14744413342238,50.0,39.29355457603284,50.0,18.10548620721027,50.0,14.374614742835124,50.0,50.0,50.0,50.0,50.0,0.0,35.1965697448456,0.0,-26.55845955721055,0.0,-36.210655662077635,0.0,-3.7965687442452736,0.0,0.0,0.0,0.0,0.0
4.04,50.0,85.49298701175391,50.0,39.032816480645195,50.0,17.74998752439963,50.0,14.337341869336932,50.0,50.0,50.0,50.0,50.0,0.0,33.91200592145793,0.0,-25.58915952032007,0.0,-34.88908090005229,0.0,-3.6580059553934983,0.0,0.0,0.0,0.0,0.0
4.05,50.0,85.82568425185154,50.0,38.78177138562645,50.0,17.40770458920924,50.0,14.301454623727256,50.0,50.0,50.0,50.0,50.0,0.0,32.62744209807026,0.0,-24.619859483429593,0.0,-33.56750613802694,0.0,-3.5194431665417225,0.0,0.0,0.0,0.0,0.0
4.06,50.0,86.1455358537153,50.0,38.540419290976615,50.0,17.078637401639103,50.0,14.266953006006098,50.0,50.0,50.0,50.0,50.0,0.0,31.34287827468259,0.0,-23.65055944653911,0.0,-32.24593137600159,0.0,-3.3808803776899468,0.0,0.0,0.0,0.0,0.0
4.07,50.0,86.4525418173452,50.0,38.30876019669566,50.0,16.762785961689193,50.0,14.233837016173457,50.0,50.0,50.0,50.0,50.0,0.0,30.058314451294805,0.0,-22.681259409648543,0.0,-30.92435661397613,0.0,-3.242317588838159,0.0,0.0,0.0,0.0,0.0
4.08,50.0,86.74670214274121,50.0,38.08679410278363,50.0,16.460150269359566,50.0,14.202106654229334,50.0,50.0,50.0,50.0,50.0,0.0,28.773750627907138,0.0,-21.711959372758066,0.0,-29.602781851950787,0.0,-3.1037547999863833,0.0,0.0,0.0,0.0,0.0
4.09,50.0,87.02801682990334,50.0,37.87452100924051,50.0,16.17073032465019,50.0,14.17176192017373,50.0,50.0,50.0,50.0,50.0,0.0,27.489186804519463,0.0,-20.742659335867582,0.0,-28.281207089925438,0.0,-2.9651920111346075,0.0,0.0,0.0,0.0,0.0
4.1,50.0,87.29648587883159,50.0,37.67194091606629,50.0,15.894526127561068,50.0,14.142802814006641,50.0,50.0,50.0,50.0,50.0,0.0,26.204622981131795,0.0,-19.773359298977105,0.0,-26.959632327900092,0.0,-2.826629222282832,0.0,0.0,0.0,0.0,0.0
4.11,50.0,87.55210928952599,50.0,37.47905382326096,50.0,15.63153767809218,50.0,14.115229335728072,50.0,50.0,50.0,50.0,50.0,0.0,24.92005915774401,0.0,-18.80405926208654,0.0,-25.63805756587463,0.0,-2.688066433431044,0.0,0.0,0.0,0.0,0.0
4.12,50.0,87.79488706198647,50.0,37.29585973082455,50.0,15.381764976243566,50.0,14.08904148533802,50.0,50.0,50.0,50.0,50.0,0.0,23.63549533435634,0.0,-17.834759225196056,0.0,-24.31648280384928,0.0,-2.5495036445792683,0.0,0.0,0.0,0.0,0.0
4.13,50.0,88.02481919621309,50.0,37.12235863875705,50.0,15.145208022015204,50.0,14.064239262836486,50.0,50.0,50.0,50.0,50.0,0.0,22.350931510968667,0.0,-16.86545918830558,0.0,-22.994908041823933,0.0,-2.410940855727493,0.0,0.0,0.0,0.0,0.0
4.14,50.0,88.24190569220585,50.0,36.95855054705845,50.0,14.921866815407096,50.0,14.040822668223472,50.0,50.0,50.0,50.0,50.0,0.0,21.066367687581,0.0,-15.896159151415098,0.0,-21.67333327979859,0.0,-2.272378066875717,0.0,0.0,0.0,0.0,0.0
4.15,50.0,88.44614654996472,50.0,36.804435455728736,50.0,14.711741356419221,50.0,14.018791701498973,50.0,50.0,50.0,50.0,50.0,0.0,19.781803864193215,0.0,-14.926859114524532,0.0,-20.351758517773124,0.0,-2.1338152780239295,0.0,0.0,0.0,0.0,0.0
4.16,50.0,88.63754176948972,50.0,36.66001336476795,50.0,14.51483164505162,50.0,13.998146362662991,50.0,50.0,50.0,50.0,50.0,0.0,18.497240040805544,0.0,-13.95755907763405,0.0,-19.030183755747778,0.0,-1.9952524891721537,0.0,0.0,0.0,0.0,0.0
4.17,50.0,88.81609135078084,50.0,36.525284274176066,50.0,14.331137681304273,50.0,13.978886651715529,50.0,50.0,50.0,50.0,50.0,0.0,17.212676217417876,0.0,-12.988259040743571,0.0,-17.708608993722432,0.0,-1.8566897003203782,0.0,0.0,0.0,0.0,0.0
4.18,50.0,88.98179529383806,50.0,36.40024818395308,50.0,14.16065946517718,50.0,13.961012568656585,50.0,50.0,50.0,50.0,50.0,0.0,15.928112394030205,0.0,-12.018959003853091,0.0,-16.387034231697083,0.0,-1.7181269114686024,0.0,0.0,0.0,0.0,0.0
4.19,50.0,89.13465359866144,50.0,36.284905094099,50.0,14.003396996670327,50.0,13.944524113486157,50.0,50.0,50.0,50.0,50.0,0.0,14.64354857064242,0.0,-11.049658966962525,0.0,-15.065459469671621,0.0,-1.5795641226168147,0.0,0.0,0.0,0.0,0.0
4.2,50.0,89.27466626525091,50.0,36.17925500461382,50.0,13.859350275783742,50.0,13.929421286204247,50.0,50.0,50.0,50.0,50.0,0.0,13.35898474725475,0.0,-10.080358930072045,0.0,-13.743884707646274,0.0,-1.441001333765039,0.0,0.0,0.0,0.0,0.0
4.21,50.0,89.40183329360653,50.0,36.08329791549756,50.0,13.728519302517407,50.0,13.915704086810857,50.0,50.0,50.0,50.0,50.0,0.0,12.074420923867079,0.0,-9.111058893181564,0.0,-12.422309945620926,0.0,-1.3024385449132634,0.0,0.0,0.0,0.0,0.0
4.22,50.0,89.51615468372826,50.0,35.9970338267502,50.0,13.610904076871327,50.0,13.903372515305982,50.0,50.0,50.0,50.0,50.0,0.0,10.789857100479407,0.0,-8.141758856291084,0.0,-11.10073518359558,0.0,-1.1638757560614876,0.0,0.0,0.0,0.0,0.0
4.23,50.0,89.61763043561612,50.0,35.92046273837173,50.0,13.506504598845492,50.0,13.892426571689628,50.0,50.0,50.0,50.0,50.0,0.0,9.505293277091624,0.0,-7.172458819400517,0.0,-9.779160421570117,0.0,-1.0253129672096997,0.0,0.0,0.0,0.0,0.0
