milky766/affetto/tests/data/rand_traj_trapez_async_1-3-5-7.csv
t,q0,q1,q2,q3,q4,q5,q6,q7,q8,q9,q10,q11,q12,dq0,dq1,dq2,dq3,dq4,dq5,dq6,dq7,dq8,dq9,dq10,dq11,dq12
0.0,50.0,50.0,50.0,50.0,50.0,50.0,50.0,50.0,50.0,50.0,50.0,50.0,50.0,0.0,-0.0,0.0,-0.0,0.0,-0.0,0.0,0.0,0.0,0.0,0.0,0.0,0.0
0.01,50.0,49.99517548303057,50.0,49.99594985879269,50.0,49.99370773206063,50.0,50.00371992137562,50.0,50.0,50.0,50.0,50.0,0.0,-0.9649033938857166,0.0,-0.8100282414620574,0.0,-1.2584535878737675,0.0,0.74398427512389,0.0,0.0,0.0,0.0,0.0
0.02,50.0,49.98070193212228,50.0,49.98379943517076,50.0,49.974830928242525,50.0,50.01487968550248,50.0,50.0,50.0,50.0,50.0,0.0,-1.929806787771433,0.0,-1.6200564829241149,0.0,-2.516907175747535,0.0,1.48796855024778,0.0,0.0,0.0,0.0,0.0
0.03,50.0,49.956579347275145,50.0,49.9635487291342,50.0,49.94336958854568,50.0,50.03347929238058,50.0,50.0,50.0,50.0,50.0,0.0,-2.8947101816571497,0.0,-2.4300847243861723,0.0,-3.7753607636213022,0.0,2.23195282537167,0.0,0.0,0.0,0.0,0.0
0.04,50.0,49.92280772848915,50.0,49.93519774068304,50.0,49.8993237129701,50.0,50.059518742009914,50.0,50.0,50.0,50.0,50.0,0.0,-3.859613575542866,0.0,-3.2401129658482297,0.0,-5.03381435149507,0.0,2.97593710049556,0.0,0.0,0.0,0.0,0.0
0.05,50.0,49.87938707576429,50.0,49.89874646981725,50.0,49.84269330151577,50.0,50.09299803439049,50.0,50.0,50.0,50.0,50.0,0.0,-4.824516969428584,0.0,-4.050141207310287,0.0,-6.292267939368837,0.0,3.71992137561945,0.0,0.0,0.0,0.0,0.0
0.06,50.0,49.826317389100566,50.0,49.85419491653683,50.0,49.77347835418272,50.0,50.1339171695223,50.0,50.0,50.0,50.0,50.0,0.0,-5.789420363314299,0.0,-4.860169448772345,0.0,-7.5507215272426045,0.0,4.46390565074334,0.0,0.0,0.0,0.0,0.0
0.07,50.0,49.763598668498,50.0,49.8015430808418,50.0,49.69167887097093,50.0,50.182276147405354,50.0,50.0,50.0,50.0,50.0,0.0,-6.754323757200018,0.0,-5.670197690234403,0.0,-8.809175115116373,0.0,5.20788992586723,0.0,0.0,0.0,0.0,0.0
0.08,50.0,49.691230913956566,50.0,49.74079096273214,50.0,49.59729485188039,50.0,50.23807496803965,50.0,50.0,50.0,50.0,50.0,0.0,-7.719227151085732,0.0,-6.480225931696459,0.0,-10.06762870299014,0.0,5.95187420099112,0.0,0.0,0.0,0.0,0.0
0.09,50.0,49.609214125476285,50.0,49.67193856220786,50.0,49.49032629691113,50.0,50.30131363142518,50.0,50.0,50.0,50.0,50.0,0.0,-8.684130544971449,0.0,-7.290254173158517,0.0,-11.326082290863907,0.0,6.69585847611501,0.0,0.0,0.0,0.0,0.0
0.1,50.0,49.51754830305714,50.0,49.59498587926897,50.0,49.37077320606312,50.0,50.371992137561946,50.0,50.0,50.0,50.0,50.0,0.0,-9.649033938857167,0.0,-8.100282414620574,0.0,-12.584535878737674,0.0,7.4398427512389,0.0,0.0,0.0,0.0,0.0
0.11,50.0,49.416233446699145,50.0,49.509932913915456,50.0,49.23863557933637,50.0,50.45011048644996,50.0,50.0,50.0,50.0,50.0,0.0,-10.613937332742882,0.0,-8.910310656082633,0.0,-13.84298946661144,0.0,8.18382702636279,0.0,0.0,0.0,0.0,0.0
0.12,50.0,49.30526955640229,50.0,49.41677966614732,50.0,49.093913416730885,50.0,50.5356686780892,50.0,50.0,50.0,50.0,50.0,0.0,-11.578840726628599,0.0,-9.72033889754469,0.0,-15.101443054485209,0.0,8.92781130148668,0.0,0.0,0.0,0.0,0.0
0.13,50.0,49.18465663216657,50.0,49.31552613596456,50.0,48.936606718246665,50.0,50.62866671247969,50.0,50.0,50.0,50.0,50.0,0.0,-12.543744120514317,0.0,-10.530367139006747,0.0,-16.359896642358976,0.0,9.67179557661057,0.0,0.0,0.0,0.0,0.0
0.14,50.0,49.05439467399199,50.0,49.20617232336718,50.0,48.76671548388371,50.0,50.729104589621414,50.0,50.0,50.0,50.0,50.0,0.0,-13.508647514400035,0.0,-11.340395380468806,0.0,-17.618350230232746,0.0,10.41577985173446,0.0,0.0,0.0,0.0,0.0
0.15,50.0,48.914483681878565,50.0,49.088718228355184,50.0,48.584239713642006,50.0,50.83698230951438,50.0,50.0,50.0,50.0,50.0,0.0,-14.473550908285748,0.0,-12.15042362193086,0.0,-18.87680381810651,0.0,11.15976412685835,0.0,0.0,0.0,0.0,0.0
0.16,50.0,48.76492365582629,50.0,48.96316385092857,50.0,48.389179407521574,50.0,50.95229987215858,50.0,50.0,50.0,50.0,50.0,0.0,-15.438454302171465,0.0,-12.960451863392919,0.0,-20.13525740598028,0.0,11.90374840198224,0.0,0.0,0.0,0.0,0.0
0.17,50.0,48.60571459583514,50.0,48.82950919108733,50.0,48.181534565522405,50.0,51.07505727755402,50.0,50.0,50.0,50.0,50.0,0.0,-16.40335769605718,0.0,-13.770480104854979,0.0,-21.393710993854047,0.0,12.64773267710613,0.0,0.0,0.0,0.0,0.0
0.18,50.0,48.43685650190513,50.0,48.68775424883147,50.0,47.9613051876445,50.0,51.2052545257007,50.0,50.0,50.0,50.0,50.0,0.0,-17.368261089942898,0.0,-14.580508346317034,0.0,-22.652164581727813,0.0,13.39171695223002,0.0,0.0,0.0,0.0,0.0
0.19,50.0,48.258349374036285,50.0,48.537899024160986,50.0,47.72849127388785,50.0,51.34289161659862,50.0,50.0,50.0,50.0,50.0,0.0,-18.333164483828615,0.0,-15.390536587779092,0.0,-23.91061816960158,0.0,14.13570122735391,0.0,0.0,0.0,0.0,0.0
0.2,50.0,48.07019321222857,50.0,48.37994351707589,50.0,47.483092824252466,50.0,51.48796855024778,50.0,50.0,50.0,50.0,50.0,0.0,-19.298067877714335,0.0,-16.20056482924115,0.0,-25.169071757475347,0.0,14.8796855024778,0.0,0.0,0.0,0.0,0.0
0.21,50.0,47.872388016482,50.0,48.213887727576164,50.0,47.22510983873835,50.0,51.640485326648175,50.0,50.0,50.0,50.0,50.0,0.0,-20.262971271600048,0.0,-17.010593070703205,0.0,-26.427525345349114,0.0,15.62366977760169,0.0,0.0,0.0,0.0,0.0
0.22,50.0,47.66493378679656,50.0,48.03973165566182,50.0,46.954542317345485,50.0,51.80044194579981,50.0,50.0,50.0,50.0,50.0,0.0,-21.227874665485764,0.0,-17.820621312165265,0.0,-27.68597893322288,0.0,16.36765405272558,0.0,0.0,0.0,0.0,0.0
0.23,50.0,47.44783052317228,50.0,47.85747530133286,50.0,46.671390260073885,50.0,51.967838407702686,50.0,50.0,50.0,50.0,50.0,0.0,-22.192778059371484,0.0,-18.630649553627322,0.0,-28.94443252109665,0.0,17.11163832784947,0.0,0.0,0.0,0.0,0.0
0.24,50.0,47.22107822560913,50.0,47.667118664589275,50.0,46.37565366692355,50.0,52.14267471235681,50.0,50.0,50.0,50.0,50.0,0.0,-23.157681453257197,0.0,-19.44067779508938,0.0,-30.202886108970418,0.0,17.85562260297336,0.0,0.0,0.0,0.0,0.0
0.25,50.0,46.98467689410714,50.0,47.46866174543107,50.0,46.06733253789447,50.0,52.324950859762154,50.0,50.0,50.0,50.0,50.0,0.0,-24.122584847142917,0.0,-20.250706036551435,0.0,-31.461339696844185,0.0,18.59960687809725,0.0,0.0,0.0,0.0,0.0
0.26,50.0,46.73862652866628,50.0,47.26210454385824,50.0,45.74642687298666,50.0,52.51466684991875,50.0,50.0,50.0,50.0,50.0,0.0,-25.087488241028634,0.0,-21.060734278013495,0.0,-32.71979328471795,0.0,19.34359115322114,0.0,0.0,0.0,0.0,0.0
0.27,50.0,46.482927129286566,50.0,47.0474470598708,50.0,45.41293667220012,50.0,52.71182268282658,50.0,50.0,50.0,50.0,50.0,0.0,-26.05239163491435,0.0,-21.870762519475555,0.0,-33.97824687259172,0.0,20.08757542834503,0.0,0.0,0.0,0.0,0.0
0.28,50.0,46.217578695967994,50.0,46.82468929346874,50.0,45.06686193553483,50.0,52.91641835848565,50.0,50.0,50.0,50.0,50.0,0.0,-27.01729502880007,0.0,-22.68079076093761,0.0,-35.23670046046549,0.0,20.83155970346892,0.0,0.0,0.0,0.0,0.0
0.29,50.0,45.942581228710566,50.0,46.593831244652044,50.0,44.708202662990814,50.0,53.128453876895954,50.0,50.0,50.0,50.0,50.0,0.0,-27.982198422685777,0.0,-23.490819002399665,0.0,-36.49515404833925,0.0,21.575543978592812,0.0,0.0,0.0,0.0,0.0
0.3,50.0,45.657934727514274,50.0,46.35487291342074,50.0,44.33695885456805,50.0,53.3479292380575,50.0,50.0,50.0,50.0,50.0,0.0,-28.947101816571497,0.0,-24.30084724386172,0.0,-37.75360763621302,0.0,22.3195282537167,0.0,0.0,0.0,0.0,0.0
0.31,50.0,45.36363919237913,50.0,46.107814299774816,50.0,43.95313051026655,50.0,53.57484444197029,50.0,50.0,50.0,50.0,50.0,0.0,-29.912005210457213,0.0,-25.11087548532378,0.0,-39.012061224086786,0.0,23.06351252884059,0.0,0.0,0.0,0.0,0.0
0.32,50.0,45.05969462330513,50.0,45.852655403714266,50.0,43.55678183637288,50.0,53.80919948863432,50.0,50.0,50.0,50.0,50.0,0.0,-30.87690860434293,0.0,-25.920903726785838,0.0,-40.14339232639538,0.0,23.80749680396448,0.0,0.0,0.0,0.0,0.0
0.33,50.0,44.74610102029227,50.0,45.5893962252391,50.0,43.15534791310891,50.0,54.05099437804958,50.0,50.0,50.0,50.0,50.0,0.0,-31.84181199822865,0.0,-26.730931968247898,0.0,-40.14339232639538,0.0,24.55148107908837,0.0,0.0,0.0,0.0,0.0
0.34,50.0,44.422858383340554,50.0,45.31803676434931,50.0,42.75391398984496,50.0,54.30022911021609,50.0,50.0,50.0,50.0,50.0,0.0,-32.80671539211436,0.0,-27.540960209709958,0.0,-40.14339232639538,0.0,25.29546535421226,0.0,0.0,0.0,0.0,0.0
0.35,50.0,44.089966712449986,50.0,45.038577021044894,50.0,42.35248006658101,50.0,54.556903685133825,50.0,50.0,50.0,50.0,50.0,0.0,-33.771618786000076,0.0,-28.35098845117201,0.0,-40.14339232639538,0.0,26.03944962933615,0.0,0.0,0.0,0.0,0.0
0.36,50.0,43.747426007620554,50.0,44.75101699532587,50.0,41.95104614331706,50.0,54.82101810280281,50.0,50.0,50.0,50.0,50.0,0.0,-34.736522179885796,0.0,-29.161016692634067,0.0,-40.14339232639538,0.0,26.78343390446004,0.0,0.0,0.0,0.0,0.0
0.37,50.0,43.39523626885227,50.0,44.455356687192214,50.0,41.5496122200531,50.0,55.09257236322303,50.0,50.0,50.0,50.0,50.0,0.0,-35.701425573771516,0.0,-29.971044934096124,0.0,-40.14339232639538,0.0,27.52741817958393,0.0,0.0,0.0,0.0,0.0
0.38,50.0,43.03346264824513,50.0,44.15159609664395,50.0,41.14817829678914,50.0,55.37156646639448,50.0,50.0,50.0,50.0,50.0,0.0,-36.55419914788882,0.0,-30.781073175558184,0.0,-40.14339232639538,0.0,28.27140245470782,0.0,0.0,0.0,0.0,0.0
0.39,50.0,42.66792065676624,50.0,43.83973522368105,50.0,40.74674437352519,50.0,55.658000412317186,50.0,50.0,50.0,50.0,50.0,0.0,-36.55419914788882,0.0,-31.59110141702024,0.0,-40.14339232639538,0.0,29.01538672983171,0.0,0.0,0.0,0.0,0.0
0.4,50.0,42.30237866528735,50.0,43.51977406830353,50.0,40.34531045026124,50.0,55.95187420099113,50.0,50.0,50.0,50.0,50.0,0.0,-36.55419914788882,0.0,-32.4011296584823,0.0,-40.14339232639538,0.0,29.7593710049556,0.0,0.0,0.0,0.0,0.0
0.41,50.0,41.93683667380846,50.0,43.19171263051141,50.0,39.943876526997286,50.0,56.253187832416295,50.0,50.0,50.0,50.0,50.0,0.0,-36.55419914788882,0.0,-33.211157899944354,0.0,-40.14339232639538,0.0,30.50335528007949,0.0,0.0,0.0,0.0,0.0
0.42,50.0,41.57129468232957,50.0,42.85555091030465,50.0,39.54244260373333,50.0,56.56194130659271,50.0,50.0,50.0,50.0,50.0,0.0,-36.55419914788882,0.0,-34.02118614140641,0.0,-40.14339232639538,0.0,31.24733955520338,0.0,0.0,0.0,0.0,0.0
0.43,50.0,41.20575269085068,50.0,42.51128890768329,50.0,39.141008680469376,50.0,56.87813462352036,50.0,50.0,50.0,50.0,50.0,0.0,-36.55419914788882,0.0,-34.83121438286847,0.0,-40.14339232639538,0.0,31.99132383032727,0.0,0.0,0.0,0.0,0.0
0.44,50.0,40.84021069937179,50.0,42.158926622647286,50.0,38.739574757205425,50.0,57.20176778319926,50.0,50.0,50.0,50.0,50.0,0.0,-36.55419914788882,0.0,-35.64124262433053,0.0,-40.14339232639538,0.0,32.73530810545116,0.0,0.0,0.0,0.0,0.0
0.45,50.0,40.4746687078929,50.0,41.79846405519667,50.0,38.338140833941466,50.0,57.53284078562939,50.0,50.0,50.0,50.0,50.0,0.0,-36.55419914788882,0.0,-36.45127086579259,0.0,-40.14339232639538,0.0,33.47929238057505,0.0,0.0,0.0,0.0,0.0
0.46,50.0,40.10912671641402,50.0,41.42990120533143,50.0,37.936706910677515,50.0,57.87135363081076,50.0,50.0,50.0,50.0,50.0,0.0,-36.55419914788882,0.0,-37.261299107254644,0.0,-40.14339232639538,0.0,34.22327665569894,0.0,0.0,0.0,0.0,0.0
0.47,50.0,39.74358472493513,50.0,41.053238073051574,50.0,37.53527298741356,50.0,58.21730631874337,50.0,50.0,50.0,50.0,50.0,0.0,-36.55419914788882,0.0,-38.0713273487167,0.0,-40.14339232639538,0.0,34.96726093082283,0.0,0.0,0.0,0.0,0.0
0.48,50.0,39.37804273345624,50.0,40.6684746583571,50.0,37.133839064149605,50.0,58.57069884942722,50.0,50.0,50.0,50.0,50.0,0.0,-36.55419914788882,0.0,-38.88135559017876,0.0,-40.14339232639538,0.0,35.71124520594672,0.0,0.0,0.0,0.0,0.0
0.49,50.0,39.012500741977355,50.0,40.276589662970004,50.0,36.73240514088565,50.0,58.931531222862304,50.0,50.0,50.0,50.0,50.0,0.0,-36.55419914788882,0.0,-39.29319391846044,0.0,-40.14339232639538,0.0,36.45522948107061,0.0,0.0,0.0,0.0,0.0
0.5,50.0,38.64695875049846,50.0,39.883657723785404,50.0,36.3309712176217,50.0,59.29826555121632,50.0,50.0,50.0,50.0,50.0,0.0,-36.55419914788882,0.0,-39.29319391846044,0.0,-40.14339232639538,0.0,36.7208489656555,0.0,0.0,0.0,0.0,0.0
0.51,50.0,38.28141675901958,50.0,39.490725784600805,50.0,35.92953729435774,50.0,59.66547404087288,50.0,50.0,50.0,50.0,50.0,0.0,-36.55419914788882,0.0,-39.29319391846044,0.0,-40.14339232639538,0.0,36.7208489656555,0.0,0.0,0.0,0.0,0.0
0.52,50.0,37.915874767540686,50.0,39.0977938454162,50.0,35.52810337109379,50.0,60.03268253052944,50.0,50.0,50.0,50.0,50.0,0.0,-36.55419914788882,0.0,-39.29319391846044,0.0,-40.14339232639538,0.0,36.7208489656555,0.0,0.0,0.0,0.0,0.0
0.53,50.0,37.5503327760618,50.0,38.704861906231585,50.0,35.12666944782983,50.0,60.39989102018599,50.0,50.0,50.0,50.0,50.0,0.0,-36.55419914788882,0.0,-39.29319391846044,0.0,-40.14339232639538,0.0,36.7208489656555,0.0,0.0,0.0,0.0,0.0
0.54,50.0,37.18479078458291,50.0,38.311929967046986,50.0,34.72523552456588,50.0,60.76709950984254,50.0,50.0,50.0,50.0,50.0,0.0,-36.55419914788882,0.0,-39.29319391846044,0.0,-40.14339232639538,0.0,36.7208489656555,0.0,0.0,0.0,0.0,0.0
0.55,50.0,36.81924879310402,50.0,37.918998027862386,50.0,34.32380160130193,50.0,61.1343079994991,50.0,50.0,50.0,50.0,50.0,0.0,-36.55419914788882,0.0,-39.29319391846044,0.0,-40.14339232639538,0.0,36.7208489656555,0.0,0.0,0.0,0.0,0.0
0.56,50.0,36.45370680162513,50.0,37.52606608867777,50.0,33.92236767803798,50.0,61.501516489155655,50.0,50.0,50.0,50.0,50.0,0.0,-36.55419914788882,0.0,-39.29319391846044,0.0,-40.14339232639538,0.0,36.7208489656555,0.0,0.0,0.0,0.0,0.0
0.57,50.0,36.08816481014625,50.0,37.13313414949317,50.0,33.52093375477403,50.0,61.8687249788122,50.0,50.0,50.0,50.0,50.0,0.0,-36.55419914788882,0.0,-39.29319391846044,0.0,-40.14339232639538,0.0,36.7208489656555,0.0,0.0,0.0,0.0,0.0
0.58,50.0,35.72262281866736,50.0,36.740202210308574,50.0,33.11949983151007,50.0,62.235933468468765,50.0,50.0,50.0,50.0,50.0,0.0,-36.55419914788882,0.0,-39.29319391846044,0.0,-40.14339232639538,0.0,36.7208489656555,0.0,0.0,0.0,0.0,0.0
0.59,50.0,35.35708082718847,50.0,36.34727027112396,50.0,32.71806590824612,50.0,62.60314195812532,50.0,50.0,50.0,50.0,50.0,0.0,-36.55419914788882,0.0,-39.29319391846044,0.0,-40.14339232639538,0.0,36.7208489656555,0.0,0.0,0.0,0.0,0.0
0.6,50.0,34.991538835709584,50.0,35.954338331939354,50.0,32.316631984982166,50.0,62.97035044778187,50.0,50.0,50.0,50.0,50.0,0.0,-36.55419914788882,0.0,-39.29319391846044,0.0,-40.14339232639538,0.0,36.7208489656555,0.0,0.0,0.0,0.0,0.0
0.61,50.0,34.62599684423069,50.0,35.561406392754755,50.0,31.915198061718208,50.0,63.33755893743842,50.0,50.0,50.0,50.0,50.0,0.0,-36.55419914788882,0.0,-39.29319391846044,0.0,-40.14339232639538,0.0,36.7208489656555,0.0,0.0,0.0,0.0,0.0
0.62,50.0,34.260454852751806,50.0,35.168474453570155,50.0,31.513764138454253,50.0,63.70476742709498,50.0,50.0,50.0,50.0,50.0,0.0,-36.55419914788882,0.0,-39.29319391846044,0.0,-40.14339232639538,0.0,36.7208489656555,0.0,0.0,0.0,0.0,0.0
0.63,50.0,33.894912861272914,50.0,34.77554251438555,50.0,31.112330215190305,50.0,64.07197591675154,50.0,50.0,50.0,50.0,50.0,0.0,-36.55419914788882,0.0,-39.29319391846044,0.0,-40.14339232639538,0.0,36.7208489656555,0.0,0.0,0.0,0.0,0.0
0.64,50.0,33.52937086979403,50.0,34.38261057520094,50.0,30.711153117072577,50.0,64.43918440640809,50.0,50.0,50.0,50.0,50.0,0.0,-36.55419914788882,0.0,-39.29319391846044,0.0,-39.889147355265045,0.0,36.7208489656555,0.0,0.0,0.0,0.0,0.0
0.65,50.0,33.163828878315144,50.0,33.989678636016336,50.0,30.318553911459293,50.0,64.80639289606465,50.0,50.0,50.0,50.0,50.0,0.0,-36.55419914788882,0.0,-39.29319391846044,0.0,-38.63069376739128,0.0,36.7208489656555,0.0,0.0,0.0,0.0,0.0
0.66,50.0,32.79828688683625,50.0,33.59674669683173,50.0,29.938539241724747,50.0,65.1736013857212,50.0,50.0,50.0,50.0,50.0,0.0,-36.55419914788882,0.0,-39.29319391846044,0.0,-37.372240179517505,0.0,36.7208489656555,0.0,0.0,0.0,0.0,0.0
0.67,50.0,32.43274489535736,50.0,33.20381475764713,50.0,29.571109107868942,50.0,65.54080987537776,50.0,50.0,50.0,50.0,50.0,0.0,-36.55419914788882,0.0,-39.29319391846044,0.0,-36.11378659164374,0.0,36.7208489656555,0.0,0.0,0.0,0.0,0.0
0.68,50.0,32.067202903878474,50.0,32.810882818462524,50.0,29.216263509891874,50.0,65.90801836503431,50.0,50.0,50.0,50.0,50.0,0.0,-36.55419914788882,0.0,-39.29319391846044,0.0,-34.85533300376997,0.0,36.7208489656555,0.0,0.0,0.0,0.0,0.0
0.69,50.0,31.70166091239959,50.0,32.417950879277925,50.0,28.874002447793547,50.0,66.27522685469087,50.0,50.0,50.0,50.0,50.0,0.0,-36.55419914788882,0.0,-39.29319391846044,0.0,-33.59687941589622,0.0,36.7208489656555,0.0,0.0,0.0,0.0,0.0
0.7,50.0,31.336118920920704,50.0,32.02501894009332,50.0,28.54432592157395,50.0,66.64243534434742,50.0,50.0,50.0,50.0,50.0,0.0,-36.55419914788882,0.0,-39.29319391846044,0.0,-32.338425828022444,0.0,36.7208489656555,0.0,0.0,0.0,0.0,0.0
0.71,50.0,30.970576929441812,50.0,31.632087000908715,50.0,28.227233931233094,50.0,67.00964383400398,50.0,50.0,50.0,50.0,50.0,0.0,-36.55419914788882,0.0,-39.29319391846044,0.0,-31.079972240148678,0.0,36.7208489656555,0.0,0.0,0.0,0.0,0.0
0.72,50.0,30.605034937962927,50.0,31.239155061724105,50.0,27.922726476770976,50.0,67.37685232366053,50.0,50.0,50.0,50.0,50.0,0.0,-36.55419914788882,0.0,-39.29319391846044,0.0,-29.82151865227491,0.0,36.7208489656555,0.0,0.0,0.0,0.0,0.0
0.73,50.0,30.239492946484035,50.0,30.846223122539502,50.0,27.630803558187594,50.0,67.74406081331709,50.0,50.0,50.0,50.0,50.0,0.0,-36.55419914788882,0.0,-39.29319391846044,0.0,-28.563065064401144,0.0,36.7208489656555,0.0,0.0,0.0,0.0,0.0
0.74,50.0,29.87395095500515,50.0,30.4532911833549,50.0,27.351465175482957,50.0,68.11126930297364,50.0,50.0,50.0,50.0,50.0,0.0,-36.55419914788882,0.0,-39.29319391846044,0.0,-27.304611476527374,0.0,36.7208489656555,0.0,0.0,0.0,0.0,0.0
0.75,50.0,29.50840896352626,50.0,30.060359244170293,50.0,27.08471132865705,50.0,68.4784777926302,50.0,50.0,50.0,50.0,50.0,0.0,-36.55419914788882,0.0,-39.29319391846044,0.0,-26.046157888653607,0.0,36.7208489656555,0.0,0.0,0.0,0.0,0.0
0.76,50.0,29.143127580447363,50.0,29.667427304985694,50.0,26.83054201770988,50.0,68.84568628228675,50.0,50.0,50.0,50.0,50.0,0.0,-36.32993950835201,0.0,-39.29319391846044,0.0,-24.787704300779836,0.0,36.7208489656555,0.0,0.0,0.0,0.0,0.0
0.77,50.0,28.78465270233327,50.0,29.274495365801087,50.0,26.58895724264145,50.0,69.21289477194331,50.0,50.0,50.0,50.0,50.0,0.0,-35.36503611446629,0.0,-39.29319391846044,0.0,-23.52925071290607,0.0,36.7208489656555,0.0,0.0,0.0,0.0,0.0
0.78,50.0,28.435826858158038,50.0,28.88156342661648,50.0,26.35995700345176,50.0,69.58010326159986,50.0,50.0,50.0,50.0,50.0,0.0,-34.40013272058057,0.0,-39.29319391846044,0.0,-22.2707971250323,0.0,36.7208489656555,0.0,0.0,0.0,0.0,0.0
0.79,50.0,28.096650047921656,50.0,28.488631487431878,50.0,26.143541300140807,50.0,69.94731175125642,50.0,50.0,50.0,50.0,50.0,0.0,-33.43522932669486,0.0,-39.29319391846044,0.0,-21.012343537158532,0.0,36.7208489656555,0.0,0.0,0.0,0.0,0.0
0.8,50.0,27.767122271624135,50.0,28.095699548247268,50.0,25.939710132708587,50.0,70.31452024091297,50.0,50.0,50.0,50.0,50.0,0.0,-32.47032593280914,0.0,-39.29319391846044,0.0,-19.753889949284765,0.0,36.7208489656555,0.0,0.0,0.0,0.0,0.0
0.81,50.0,27.447243529265478,50.0,27.70276760906267,50.0,25.74846350115511,50.0,70.68172873056953,50.0,50.0,50.0,50.0,50.0,0.0,-31.505422538923423,0.0,-39.29319391846044,0.0,-18.495436361410995,0.0,36.7208489656555,0.0,0.0,0.0,0.0,0.0
0.82,50.0,27.13701382084567,50.0,27.309835669878062,50.0,25.56980140548037,50.0,71.04893722022608,50.0,50.0,50.0,50.0,50.0,0.0,-30.540519145037717,0.0,-39.29319391846044,0.0,-17.23698277353724,0.0,36.7208489656555,0.0,0.0,0.0,0.0,0.0
0.83,50.0,26.836433146364726,50.0,26.91690373069346,50.0,25.403723845684368,50.0,71.41614570988263,50.0,50.0,50.0,50.0,50.0,0.0,-29.575615751152,0.0,-39.29319391846044,0.0,-15.978529185663472,0.0,36.7208489656555,0.0,0.0,0.0,0.0,0.0
0.84,50.0,26.545501505822628,50.0,26.523971791508853,50.0,25.2502308217671,50.0,71.78335419953919,50.0,50.0,50.0,50.0,50.0,0.0,-28.61071235726628,0.0,-39.29319391846044,0.0,-14.720075597789704,0.0,36.7208489656555,0.0,0.0,0.0,0.0,0.0
0.85,50.0,26.2642188992194,50.0,26.13103985232425,50.0,25.109322333728574,50.0,72.15056268919574,50.0,50.0,50.0,50.0,50.0,0.0,-27.645808963380563,0.0,-39.29319391846044,0.0,-13.461622009915933,0.0,36.7208489656555,0.0,0.0,0.0,0.0,0.0
0.86,50.0,25.992585326555016,50.0,25.738107913139643,50.0,24.98099838156878,50.0,72.5177711788523,50.0,50.0,50.0,50.0,50.0,0.0,-26.680905569494847,0.0,-39.29319391846044,0.0,-12.203168422042166,0.0,36.7208489656555,0.0,0.0,0.0,0.0,0.0
0.87,50.0,25.730600787829502,50.0,25.34517597395504,50.0,24.865258965287726,50.0,72.88497966850886,50.0,50.0,50.0,50.0,50.0,0.0,-25.71600217560913,0.0,-39.29319391846044,0.0,-10.944714834168398,0.0,36.7208489656555,0.0,0.0,0.0,0.0,0.0
0.88,50.0,25.478265283042838,50.0,24.952244034770438,50.0,24.762104084885415,50.0,73.25218815816541,50.0,50.0,50.0,50.0,50.0,0.0,-24.751098781723414,0.0,-39.29319391846044,0.0,-9.68626124629463,0.0,36.7208489656555,0.0,0.0,0.0,0.0,0.0
0.89,50.0,25.235578812195033,50.0,24.559312095585828,50.0,24.671533740361838,50.0,73.61939664782196,50.0,50.0,50.0,50.0,50.0,0.0,-23.786195387837694,0.0,-39.29319391846044,0.0,-8.42780765842086,0.0,36.7208489656555,0.0,0.0,0.0,0.0,0.0
0.9,50.0,25.00254137528608,50.0,24.16638015640123,50.0,24.593547931716994,50.0,73.98660513747852,50.0,50.0,50.0,50.0,50.0,0.0,-22.821291993951977,0.0,-39.29319391846044,0.0,-7.169354070547091,0.0,36.7208489656555,0.0,0.0,0.0,0.0,0.0
0.91,50.0,24.77915297231599,50.0,23.773448217216618,50.0,24.528146658950895,50.0,74.35381362713507,50.0,50.0,50.0,50.0,50.0,0.0,-21.85638860006626,0.0,-39.29319391846044,0.0,-5.910900482673323,0.0,36.7208489656555,0.0,0.0,0.0,0.0,0.0
0.92,50.0,24.56541360328476,50.0,23.380516278032015,50.0,24.47532992206353,50.0,74.72102211679163,50.0,50.0,50.0,50.0,50.0,0.0,-20.89148520618054,0.0,-39.29319391846044,0.0,-4.652446894799555,0.0,36.7208489656555,0.0,0.0,0.0,0.0,0.0
0.93,50.0,24.36132326819238,50.0,22.987584338847412,50.0,24.435097721054905,50.0,75.08823060644819,50.0,50.0,50.0,50.0,50.0,0.0,-19.926581812294824,0.0,-39.29319391846044,0.0,-3.3939933069257866,0.0,36.7208489656555,0.0,0.0,0.0,0.0,0.0
0.94,50.0,24.16688196703886,50.0,22.594652399662813,50.0,24.40745005592501,50.0,75.45543909610474,50.0,50.0,50.0,50.0,50.0,0.0,-18.961678418409118,0.0,-39.29319391846044,0.0,-2.1355397190520318,0.0,36.7208489656555,0.0,0.0,0.0,0.0,0.0
0.95,50.0,23.9820896998242,50.0,22.201720460478214,50.0,24.392386926673865,50.0,75.8226475857613,50.0,50.0,50.0,50.0,50.0,0.0,-17.9967750245234,0.0,-39.29319391846044,0.0,-0.8770861311782632,0.0,36.7208489656555,0.0,0.0,0.0,0.0,0.0
0.96,50.0,23.806946466548396,50.0,21.808788521293607,50.0,24.389094046806637,50.0,76.18985607541785,50.0,50.0,50.0,50.0,50.0,0.0,-17.031871630637685,0.0,-39.29319391846044,0.0,-0.15603642659790165,0.0,36.7208489656555,0.0,0.0,0.0,0.0,0.0
0.97,50.0,23.641452267211445,50.0,21.415856582109,50.0,24.384959202240314,50.0,76.5570645650744,50.0,50.0,50.0,50.0,50.0,0.0,-16.066968236751965,0.0,-39.29319391846044,0.0,-0.6709324866671127,0.0,36.7208489656555,0.0,0.0,0.0,0.0,0.0
0.98,50.0,23.485607101813354,50.0,21.02683944981242,50.0,24.375675397073294,50.0,76.92427305473096,50.0,50.0,50.0,50.0,50.0,0.0,-15.102064842866248,0.0,-38.496814092099676,0.0,-1.1858285467363239,0.0,36.7208489656555,0.0,0.0,0.0,0.0,0.0
0.99,50.0,23.33941097035412,50.0,20.64592145009874,50.0,24.36124263130559,50.0,77.29117736749348,50.0,50.0,50.0,50.0,50.0,0.0,-14.13716144898053,0.0,-37.68678585063762,0.0,-1.700724606805535,0.0,36.508103659701405,0.0,0.0,0.0,0.0,0.0
1.0,50.0,23.202863872833746,50.0,20.27310373279967,50.0,24.341660904937186,50.0,77.65253848271486,50.0,50.0,50.0,50.0,50.0,0.0,-13.172258055094813,0.0,-36.87675760917556,0.0,-2.215620666874746,0.0,35.76411938457752,0.0,0.0,0.0,0.0,0.0
1.01,50.0,23.075965809252224,50.0,19.90838629791522,50.0,24.316930217968093,50.0,78.00645975518502,50.0,50.0,50.0,50.0,50.0,0.0,-12.207354661209097,0.0,-36.0667293677135,0.0,-2.7305167269439576,0.0,35.020135109453626,0.0,0.0,0.0,0.0,0.0
1.02,50.0,22.958716779609563,50.0,19.551769145445398,50.0,24.28705057039831,50.0,78.35294118490394,50.0,50.0,50.0,50.0,50.0,0.0,-11.242451267323379,0.0,-35.25670112625144,0.0,-3.2454127870131684,0.0,34.27615083432974,0.0,0.0,0.0,0.0,0.0
1.03,50.0,22.851116783905752,50.0,19.20325227539019,50.0,24.25202196222783,50.0,78.69198277187161,50.0,50.0,50.0,50.0,50.0,0.0,-10.27754787343766,0.0,-34.446672884789386,0.0,-3.76030884708238,0.0,33.53216655920585,0.0,0.0,0.0,0.0,0.0
1.04,50.0,22.753165822140808,50.0,18.86283568774961,50.0,24.211844393456662,50.0,79.02358451608805,50.0,50.0,50.0,50.0,50.0,0.0,-9.312644479551944,0.0,-33.63664464332733,0.0,-4.275204907151591,0.0,32.788182284081955,0.0,0.0,0.0,0.0,0.0
1.05,50.0,22.664863894314713,50.0,18.530519382523643,50.0,24.1665178640848,50.0,79.34774641755325,50.0,50.0,50.0,50.0,50.0,0.0,-8.347741085666225,0.0,-32.826616401865266,0.0,-4.790100967220802,0.0,32.04419800895806,0.0,0.0,0.0,0.0,0.0
1.06,50.0,22.586211000427483,50.0,18.2063033597123,50.0,24.116042374112244,50.0,79.66446847626722,50.0,50.0,50.0,50.0,50.0,0.0,-7.382837691780508,0.0,-32.01658816040321,0.0,-5.304997027290013,0.0,31.300213733834173,0.0,0.0,0.0,0.0,0.0
1.07,50.0,22.517207140479105,50.0,17.890187619315583,50.0,24.060417923539,50.0,79.97375069222994,50.0,50.0,50.0,50.0,50.0,0.0,-6.41793429789479,0.0,-31.206559918941156,0.0,-5.819893087359224,0.0,30.556229458710284,0.0,0.0,0.0,0.0,0.0
1.08,50.0,22.457852314469587,50.0,17.582172161333478,50.0,23.99964451236506,50.0,80.27559306544143,50.0,50.0,50.0,50.0,50.0,0.0,-5.453030904009073,0.0,-30.396531677479093,0.0,-6.334789147428435,0.0,29.812245183586395,0.0,0.0,0.0,0.0,0.0
1.09,50.0,22.408146522398926,50.0,17.282256985765997,50.0,23.93372214059043,50.0,80.56999559590166,50.0,50.0,50.0,50.0,50.0,0.0,-4.4881275101233555,0.0,-29.586503436017036,0.0,-6.849685207497647,0.0,29.068260908462506,0.0,0.0,0.0,0.0,0.0
1.1,50.0,22.36808976426712,50.0,16.99044209261314,50.0,23.862650808215104,50.0,80.85695828361068,50.0,50.0,50.0,50.0,50.0,0.0,-3.523224116237638,0.0,-28.77647519455498,0.0,-7.364581267566858,0.0,28.324276633338613,0.0,0.0,0.0,0.0,0.0
1.11,50.0,22.33768204007417,50.0,16.7067274818749,50.0,23.78643051523909,50.0,81.13648112856845,50.0,50.0,50.0,50.0,50.0,0.0,-2.5583207223519207,0.0,-27.96644695309292,0.0,-7.879477327636069,0.0,27.580292358214724,0.0,0.0,0.0,0.0,0.0
1.12,50.0,22.31692334982008,50.0,16.43111315355128,50.0,23.705061261662383,50.0,81.40856413077498,50.0,50.0,50.0,50.0,50.0,0.0,-1.5934173284662032,0.0,-27.156418711630863,0.0,-8.39437338770528,0.0,26.83630808309083,0.0,0.0,0.0,0.0,0.0
1.13,50.0,22.30581369350485,50.0,16.163599107642288,50.0,23.61854304748499,50.0,81.67320729023025,50.0,50.0,50.0,50.0,50.0,0.0,-0.6285139345805072,0.0,-26.34639047016882,0.0,-8.909269447774479,0.0,26.092323807966956,0.0,0.0,0.0,0.0,0.0
1.14,50.0,22.303615579787596,50.0,15.904185344147908,50.0,23.526875872706896,50.0,81.9304106069343,50.0,50.0,50.0,50.0,50.0,0.0,-0.08669626950545657,0.0,-25.536362228706764,0.0,-9.424165507843691,0.0,25.348339532843067,0.0,0.0,0.0,0.0,0.0
1.15,50.0,22.301505214209826,50.0,15.65287186306815,50.0,23.430059737328115,50.0,82.18017408088711,50.0,50.0,50.0,50.0,50.0,0.0,-0.33537684604856993,0.0,-24.726333987244704,0.0,-9.939061567912901,0.0,24.604355257719178,0.0,0.0,0.0,0.0,0.0
1.16,50.0,22.296908042866626,50.0,15.409658664403015,50.0,23.32809464134864,50.0,82.42249771208868,50.0,50.0,50.0,50.0,50.0,0.0,-0.5840574225916833,0.0,-23.916305745782648,0.0,-10.453957627982112,0.0,23.860370982595285,0.0,0.0,0.0,0.0,0.0
1.17,50.0,22.289824065757994,50.0,15.174545748152498,50.0,23.220980584768473,50.0,82.65738150053902,50.0,50.0,50.0,50.0,50.0,0.0,-0.8327379991347966,0.0,-23.10627750432059,0.0,-10.968853688051324,0.0,23.116386707471396,0.0,0.0,0.0,0.0,0.0
1.18,50.0,22.28025328288393,50.0,14.947533114316599,50.0,23.108717567587615,50.0,82.8848254462381,50.0,50.0,50.0,50.0,50.0,0.0,-1.08141857567791,0.0,-22.296249262858534,0.0,-11.483749748120536,0.0,22.372402432347503,0.0,0.0,0.0,0.0,0.0
1.19,50.0,22.268195694244433,50.0,14.728620762895329,50.0,22.99130558980606,50.0,83.10482954918596,50.0,50.0,50.0,50.0,50.0,0.0,-1.3300991522210233,0.0,-21.48622102139647,0.0,-11.998645808189748,0.0,21.628418157223614,0.0,0.0,0.0,0.0,0.0
1.2,50.0,22.25365129983951,50.0,14.517808693888675,50.0,22.868744651423818,50.0,83.31739380938258,50.0,50.0,50.0,50.0,50.0,0.0,-1.5787797287641367,0.0,-20.676192779934414,0.0,-12.513541868258958,0.0,20.88443388209972,0.0,0.0,0.0,0.0,0.0
1.21,50.0,22.236620099669153,50.0,14.315096907296637,50.0,22.741034752440882,50.0,83.52251822682796,50.0,50.0,50.0,50.0,50.0,0.0,-1.82746030530725,0.0,-19.866164538472358,0.0,-13.028437928328168,0.0,20.14044960697583,0.0,0.0,0.0,0.0,0.0
1.22,50.0,22.217102093733363,50.0,14.120485403119224,50.0,22.60817589285725,50.0,83.72020280152209,50.0,50.0,50.0,50.0,50.0,0.0,-2.0761408818503635,0.0,-19.056136297010298,0.0,-13.54333398839738,0.0,19.396465331851942,0.0,0.0,0.0,0.0,0.0
1.23,50.0,22.195097282032144,50.0,13.933974181356433,50.0,22.470720207065913,50.0,83.910447533465,50.0,50.0,50.0,50.0,50.0,0.0,-2.324821458393477,0.0,-18.24610805554824,0.0,-13.819780127697527,0.0,18.652481056728053,0.0,0.0,0.0,0.0,0.0
1.24,50.0,22.170605664565493,50.0,13.755563242008257,50.0,22.33252240578894,50.0,84.09325242265666,50.0,50.0,50.0,50.0,50.0,0.0,-2.57350203493659,0.0,-17.436079814086185,0.0,-13.819780127697527,0.0,17.90849678160416,0.0,0.0,0.0,0.0,0.0
1.25,50.0,22.143627241333416,50.0,13.585252585074706,50.0,22.194324604511962,50.0,84.2686174690971,50.0,50.0,50.0,50.0,50.0,0.0,-2.8221826114797035,0.0,-16.626051572624124,0.0,-13.819780127697527,0.0,17.16451250648027,0.0,0.0,0.0,0.0,0.0
1.26,50.0,22.114162012335896,50.0,13.423042210555776,50.0,22.05612680323499,50.0,84.43654267278626,50.0,50.0,50.0,50.0,50.0,0.0,-3.070863188022817,0.0,-15.816023331162066,0.0,-13.819780127697527,0.0,16.42052823135638,0.0,0.0,0.0,0.0,0.0
1.27,50.0,22.082209977572955,50.0,13.268932118451463,50.0,21.917929001958008,50.0,84.59702803372421,50.0,50.0,50.0,50.0,50.0,0.0,-3.3195437645659305,0.0,-15.005995089700008,0.0,-13.819780127697527,0.0,15.676543956232488,0.0,0.0,0.0,0.0,0.0
1.28,50.0,22.04777113704458,50.0,13.122922308761774,50.0,21.779731200681034,50.0,84.75007355191092,50.0,50.0,50.0,50.0,50.0,0.0,-3.568224341109044,0.0,-14.19596684823795,0.0,-13.819780127697527,0.0,14.932559681108598,0.0,0.0,0.0,0.0,0.0
1.29,50.0,22.010845490750775,50.0,12.985012781486708,50.0,21.64153339940406,50.0,84.89567922734638,50.0,50.0,50.0,50.0,50.0,0.0,-3.8169049176521566,0.0,-13.385938606775891,0.0,-13.819780127697527,0.0,14.188575405984706,0.0,0.0,0.0,0.0,0.0
1.3,50.0,21.97143303869154,50.0,12.855203536626258,50.0,21.503335598127084,50.0,85.03384506003061,50.0,50.0,50.0,50.0,50.0,0.0,-4.06558549419527,0.0,-12.575910365313833,0.0,-13.819780127697527,0.0,13.444591130860816,0.0,0.0,0.0,0.0,0.0
1.31,50.0,21.92953378086687,50.0,12.73349457418043,50.0,21.36513779685011,50.0,85.1645710499636,50.0,50.0,50.0,50.0,50.0,0.0,-4.314266070738384,0.0,-11.765882123851776,0.0,-13.819780127697527,0.0,12.700606855736925,0.0,0.0,0.0,0.0,0.0
1.32,50.0,21.88514771727677,50.0,12.619885894149224,50.0,21.226939995573133,50.0,85.28785719714534,50.0,50.0,50.0,50.0,50.0,0.0,-4.562946647281497,0.0,-10.955853882389716,0.0,-13.819780127697527,0.0,11.956622580613034,0.0,0.0,0.0,0.0,0.0
1.33,50.0,21.83827484792124,50.0,12.514377496532637,50.0,21.08874219429616,50.0,85.40370350157586,50.0,50.0,50.0,50.0,50.0,0.0,-4.811627223824611,0.0,-10.14582564092766,0.0,-13.819780127697527,0.0,11.212638305489143,0.0,0.0,0.0,0.0,0.0
1.34,50.0,21.78891517280028,50.0,12.416969381330667,50.0,20.950544393019186,50.0,85.51210996325513,50.0,50.0,50.0,50.0,50.0,0.0,-5.060307800367724,0.0,-9.335797399465601,0.0,-13.819780127697527,0.0,10.468654030365254,0.0,0.0,0.0,0.0,0.0
1.35,50.0,21.737068691913887,50.0,12.327661548543324,50.0,20.812346591742205,50.0,85.61307658218317,50.0,50.0,50.0,50.0,50.0,0.0,-5.308988376910837,0.0,-8.525769158003543,0.0,-13.819780127697527,0.0,9.724669755241361,0.0,0.0,0.0,0.0,0.0
1.36,50.0,21.68273540526206,50.0,12.246453998170598,50.0,20.67414879046523,50.0,85.70660335835997,50.0,50.0,50.0,50.0,50.0,0.0,-5.55766895345395,0.0,-7.715740916541485,0.0,-13.819780127697527,0.0,8.980685480117472,0.0,0.0,0.0,0.0,0.0
1.37,50.0,21.625915312844807,50.0,12.173346730212495,50.0,20.535950989188258,50.0,85.79269029178552,50.0,50.0,50.0,50.0,50.0,0.0,-5.806349529997064,0.0,-6.9057126750794255,0.0,-13.819780127697527,0.0,8.236701204993581,0.0,0.0,0.0,0.0,0.0
1.38,50.0,21.566608414662124,50.0,12.10833974466901,50.0,20.397753187911285,50.0,85.87133738245983,50.0,50.0,50.0,50.0,50.0,0.0,-6.055030106540172,0.0,-6.095684433617386,0.0,-13.819780127697527,0.0,7.492716929869707,0.0,0.0,0.0,0.0,0.0
1.39,50.0,21.504814710714005,50.0,12.051433041540147,50.0,20.25955538663431,50.0,85.94254463038291,50.0,50.0,50.0,50.0,50.0,0.0,-6.303710683083285,0.0,-5.285656192155328,0.0,-13.819780127697527,0.0,6.748732654745816,0.0,0.0,0.0,0.0,0.0
1.4,50.0,21.440534201000457,50.0,12.002626620825906,50.0,20.121357585357337,50.0,86.00631203555474,50.0,50.0,50.0,50.0,50.0,0.0,-6.552391259626398,0.0,-4.475627950693269,0.0,-13.819780127697527,0.0,6.004748379621926,0.0,0.0,0.0,0.0,0.0
1.41,50.0,21.373766885521476,50.0,11.961920482526283,50.0,19.983159784080357,50.0,86.06263959797533,50.0,50.0,50.0,50.0,50.0,0.0,-6.801071836169512,0.0,-3.665599709231211,0.0,-13.819780127697527,0.0,5.260764104498035,0.0,0.0,0.0,0.0,0.0
1.42,50.0,21.304512764277067,50.0,11.92931462664128,50.0,19.844961982803383,50.0,86.1115273176447,50.0,50.0,50.0,50.0,50.0,0.0,-7.049752412712625,0.0,-2.855571467769153,0.0,-13.819780127697527,0.0,4.516779829374144,0.0,0.0,0.0,0.0,0.0
1.43,50.0,21.232771837267222,50.0,11.904809053170899,50.0,19.70676418152641,50.0,86.15297519456284,50.0,50.0,50.0,50.0,50.0,0.0,-7.298432989255739,0.0,-2.045543226307095,0.0,-13.819780127697527,0.0,3.772795554250254,0.0,0.0,0.0,0.0,0.0
1.44,50.0,21.158544104491952,50.0,11.888403762115137,50.0,19.568566380249433,50.0,86.18698322872972,50.0,50.0,50.0,50.0,50.0,0.0,-7.547113565798852,0.0,-1.2355149848450369,0.0,-13.819780127697527,0.0,3.028811279126363,0.0,0.0,0.0,0.0,0.0
1.45,50.0,21.081829565951246,50.0,11.880098753474,50.0,19.43036857897246,50.0,86.21355142014535,50.0,50.0,50.0,50.0,50.0,0.0,-7.795794142341966,0.0,-0.42548674338297865,0.0,-13.819780127697527,0.0,2.2848270040024725,0.0,0.0,0.0,0.0,0.0
1.46,50.0,21.00262822164511,50.0,11.881437386386109,50.0,19.292170777695482,50.0,86.23267976880976,50.0,50.0,50.0,50.0,50.0,0.0,-8.044474718885079,0.0,1.034751941038363,0.0,-13.819780127697527,0.0,1.5408427288785818,0.0,0.0,0.0,0.0,0.0
1.47,50.0,20.920940071573547,50.0,11.902683317272706,50.0,19.15397297641851,50.0,86.24436827472293,50.0,50.0,50.0,50.0,50.0,0.0,-8.293155295428193,0.0,3.2144342362802365,0.0,-13.819780127697527,0.0,0.7968584537546912,0.0,0.0,0.0,0.0,0.0
1.48,50.0,20.836765115736547,50.0,11.945726071111716,50.0,19.01577517514153,50.0,86.24861693788486,50.0,50.0,50.0,50.0,50.0,0.0,-8.541835871971307,0.0,5.39411653152211,0.0,-13.819780127697527,0.0,0.052874178630800524,0.0,0.0,0.0,0.0,0.0
1.49,50.0,20.75010335413412,50.0,12.010565647903148,50.0,18.877577373864554,50.0,86.23082666747725,50.0,50.0,50.0,50.0,50.0,0.0,-8.790516448514419,0.0,7.5737988267639835,0.0,-13.819780127697527,0.0,-3.834312331574754,0.0,0.0,0.0,0.0,0.0
1.5,50.0,20.661371063018116,50.0,12.097202047646995,50.0,18.740379321265337,50.0,86.17184523996741,50.0,50.0,50.0,50.0,50.0,0.0,-8.895308305337702,0.0,9.753481122005857,0.0,-13.498916712757293,0.0,-7.961973170391279,0.0,0.0,0.0,0.0,0.0
1.51,50.0,20.57241797996474,50.0,12.205635270343263,50.0,18.607964634438108,50.0,86.07158720406943,50.0,50.0,50.0,50.0,50.0,0.0,-8.895308305337702,0.0,11.933163417247732,0.0,-12.98402065268808,0.0,-12.089634009207806,0.0,0.0,0.0,0.0,0.0
1.52,50.0,20.48346489691136,50.0,12.335865315991951,50.0,18.480698908211572,50.0,85.93005255978326,50.0,50.0,50.0,50.0,50.0,0.0,-8.895308305337702,0.0,14.112845712489605,0.0,-12.469124592618869,0.0,-16.21729484802433,0.0,0.0,0.0,0.0,0.0
1.53,50.0,20.394511813857985,50.0,12.487892184593058,50.0,18.35858214258573,50.0,85.74724130710894,50.0,50.0,50.0,50.0,50.0,0.0,-8.895308305337702,0.0,16.292528007731477,0.0,-11.954228532549656,0.0,-20.344955686840855,0.0,0.0,0.0,0.0,0.0
1.54,50.0,20.305558730804606,50.0,12.66171587614658,50.0,18.241614337560577,50.0,85.52315344604644,50.0,50.0,50.0,50.0,50.0,0.0,-8.895308305337702,0.0,18.47221030297335,0.0,-11.439332472480446,0.0,-24.472616525657383,0.0,0.0,0.0,0.0,0.0
1.55,50.0,20.21660564775123,50.0,12.857336390652524,50.0,18.129795493136122,50.0,85.25778897659578,50.0,50.0,50.0,50.0,50.0,0.0,-8.895308305337702,0.0,20.651892598215223,0.0,-10.924436412411236,0.0,-28.600277364473907,0.0,0.0,0.0,0.0,0.0
1.56,50.0,20.127652564697854,50.0,13.074753728110885,50.0,18.023125609312356,50.0,84.95114789875696,50.0,50.0,50.0,50.0,50.0,0.0,-8.895308305337702,0.0,22.8315748934571,0.0,-10.409540352342024,0.0,-32.727938203290435,0.0,0.0,0.0,0.0,0.0
1.57,50.0,20.038699481644475,50.0,13.313967888521667,50.0,17.92160468608928,50.0,84.60323021252998,50.0,50.0,50.0,50.0,50.0,0.0,-8.895308305337702,0.0,25.01125718869897,0.0,-9.894644292272814,0.0,-36.85559904210696,0.0,0.0,0.0,0.0,0.0
1.58,50.0,19.9497463985911,50.0,13.574978871884865,50.0,17.825232723466897,50.0,84.21403591791481,50.0,50.0,50.0,50.0,50.0,0.0,-8.895308305337702,0.0,27.190939483940845,0.0,-9.379748232203601,0.0,-40.983259880923484,0.0,0.0,0.0,0.0,0.0
1.59,50.0,19.860793315537723,50.0,13.857786678200483,50.0,17.734009721445208,50.0,83.78356501491152,50.0,50.0,50.0,50.0,50.0,0.0,-8.895308305337702,0.0,29.370621779182716,0.0,-8.864852172134391,0.0,-45.11092071974001,0.0,0.0,0.0,0.0,0.0
1.6,50.0,19.771840232484344,50.0,14.16239130746852,50.0,17.64793568002421,50.0,83.31181750352002,50.0,50.0,50.0,50.0,50.0,0.0,-8.895308305337702,0.0,31.55030407442459,0.0,-8.34995611206518,0.0,-49.23858155855653,0.0,0.0,0.0,0.0,0.0
1.61,50.0,19.682887149430968,50.0,14.488792759688975,50.0,17.567010599203904,50.0,82.79879338374037,50.0,50.0,50.0,50.0,50.0,0.0,-8.895308305337702,0.0,33.72998636966646,0.0,-7.835060051995969,0.0,-53.366242397373064,0.0,0.0,0.0,0.0,0.0
1.62,50.0,19.593934066377592,50.0,14.836991034861851,50.0,17.49123447898429,50.0,82.24449265557256,50.0,50.0,50.0,50.0,50.0,0.0,-8.895308305337702,0.0,35.90966866490834,0.0,-7.320163991926758,0.0,-57.49390323618958,0.0,0.0,0.0,0.0,0.0
1.63,50.0,19.504980983324213,50.0,15.206986132987135,50.0,17.42060731936537,50.0,81.6489153190166,50.0,50.0,50.0,50.0,50.0,0.0,-8.895308305337702,0.0,38.08935096015016,0.0,-6.805267931857558,0.0,-61.62156407500602,0.0,0.0,0.0,0.0,0.0
1.64,50.0,19.416027900270837,50.0,15.598778054064846,50.0,17.35512912034714,50.0,81.01206137407245,50.0,50.0,50.0,50.0,50.0,0.0,-8.895308305337702,0.0,40.26903325539204,0.0,-6.290371871788347,0.0,-65.74922491382254,0.0,0.0,0.0,0.0,0.0
1.65,50.0,19.327074817217458,50.0,16.012366798094973,50.0,17.294799881929606,50.0,80.33393082074015,50.0,50.0,50.0,50.0,50.0,0.0,-8.895308305337702,0.0,42.448715550633906,0.0,-5.775475811719136,0.0,-69.87688575263907,0.0,0.0,0.0,0.0,0.0
1.66,50.0,19.238121734164082,50.0,16.447752365077527,50.0,17.23961960411276,50.0,79.62005676031151,50.0,50.0,50.0,50.0,50.0,0.0,-8.895308305337702,0.0,44.62839784587579,0.0,-5.260579751649924,0.0,-71.86731635025066,0.0,0.0,0.0,0.0,0.0
1.67,50.0,19.149168651110706,50.0,16.90493475501249,50.0,17.189588286896605,50.0,78.90138359680901,50.0,50.0,50.0,50.0,50.0,0.0,-8.895308305337702,0.0,46.80808014111766,0.0,-4.745683691580714,0.0,-71.86731635025066,0.0,0.0,0.0,0.0,0.0
1.68,50.0,19.06021556805733,50.0,17.38391396789988,50.0,17.144705930281145,50.0,78.18271043330651,50.0,50.0,50.0,50.0,50.0,0.0,-8.895308305337702,0.0,48.98776243635953,0.0,-4.230787631511502,0.0,-71.86731635025066,0.0,0.0,0.0,0.0,0.0
1.69,50.0,18.971262485003955,50.0,17.884690003739685,50.0,17.104972534266377,50.0,77.464037269804,50.0,50.0,50.0,50.0,50.0,0.0,-8.895308305337702,0.0,51.16744473160141,0.0,-3.715891571442291,0.0,-71.86731635025066,0.0,0.0,0.0,0.0,0.0
1.7,50.0,18.882309401950575,50.0,18.40726286253191,50.0,17.0703880988523,50.0,76.74536410630151,50.0,50.0,50.0,50.0,50.0,0.0,-8.895308305337702,0.0,53.34712702684328,0.0,-3.20099551137308,0.0,-71.86731635025066,0.0,0.0,0.0,0.0,0.0
1.71,50.0,18.7933563188972,50.0,18.95163254427655,50.0,17.040952624038916,50.0,76.02669094279898,50.0,50.0,50.0,50.0,50.0,0.0,-8.895308305337702,0.0,55.52680932208515,0.0,-2.686099451303869,0.0,-71.86731635025066,0.0,0.0,0.0,0.0,0.0
1.72,50.0,18.70440323584382,50.0,19.51779904897361,50.0,17.01666610982622,50.0,75.30801777929648,50.0,50.0,50.0,50.0,50.0,0.0,-8.895308305337702,0.0,57.70649161732703,0.0,-2.1712033912346578,0.0,-71.86731635025066,0.0,0.0,0.0,0.0,0.0
1.73,50.0,18.615450152790444,50.0,20.10576237662309,50.0,16.99752855621422,50.0,74.58934461579396,50.0,50.0,50.0,50.0,50.0,0.0,-8.895308305337702,0.0,59.8861739125689,0.0,-1.6563073311654466,0.0,-71.86731635025066,0.0,0.0,0.0,0.0,0.0
1.74,50.0,18.52649706973707,50.0,20.714551603264663,50.0,16.98353996320291,50.0,73.87067145229148,50.0,50.0,50.0,50.0,50.0,0.0,-8.895308305337702,0.0,61.41527096876063,0.0,-1.1414112710962356,0.0,-71.86731635025066,0.0,0.0,0.0,0.0,0.0
1.75,50.0,18.437543986683693,50.0,21.32870431295227,50.0,16.974700330792295,50.0,73.15199828878895,50.0,50.0,50.0,50.0,50.0,0.0,-8.895308305337702,0.0,61.41527096876063,0.0,-0.6265152110270243,0.0,-71.86731635025066,0.0,0.0,0.0,0.0,0.0
1.76,50.0,18.348590903630313,50.0,21.942857022639878,50.0,16.97100965898237,50.0,72.43332512528644,50.0,50.0,50.0,50.0,50.0,0.0,-8.895308305337702,0.0,61.41527096876063,0.0,-0.11161915095781322,0.0,-71.86731635025066,0.0,0.0,0.0,0.0,0.0
1.77,50.0,18.259637820576934,50.0,22.557009732327487,50.0,16.973020919610377,50.0,71.71465196178394,50.0,50.0,50.0,50.0,50.0,0.0,-8.895308305337702,0.0,61.41527096876063,0.0,0.5444816316681547,0.0,-71.86731635025066,0.0,0.0,0.0,0.0,0.0
1.78,50.0,18.17068473752356,50.0,23.171162442015092,50.0,16.98194165334995,50.0,70.99597879828144,50.0,50.0,50.0,50.0,50.0,0.0,-8.895308305337702,0.0,61.41527096876063,0.0,1.2396651162463461,0.0,-71.86731635025066,0.0,0.0,0.0,0.0,0.0
1.79,50.0,18.081731654470182,50.0,23.785315151702697,50.0,16.997814221935304,50.0,70.27730563477893,50.0,50.0,50.0,50.0,50.0,0.0,-8.895308305337702,0.0,61.41527096876063,0.0,1.9348486008245378,0.0,-71.86731635025066,0.0,0.0,0.0,0.0,0.0
1.8,50.0,17.992778571416803,50.0,24.399467861390306,50.0,17.02063862536644,50.0,69.55863247127641,50.0,50.0,50.0,50.0,50.0,0.0,-8.895308305337702,0.0,61.41527096876063,0.0,2.6300320854027293,0.0,-71.86731635025066,0.0,0.0,0.0,0.0,0.0
1.81,50.0,17.903825488363427,50.0,25.013620571077908,50.0,17.050414863643358,50.0,68.83995930777391,50.0,50.0,50.0,50.0,50.0,0.0,-8.895308305337702,0.0,61.41527096876063,0.0,3.325215569980921,0.0,-71.86731635025066,0.0,0.0,0.0,0.0,0.0
1.82,50.0,17.814872405310048,50.0,25.627773280765517,50.0,17.08714293676606,50.0,68.12128614427141,50.0,50.0,50.0,50.0,50.0,0.0,-8.895308305337702,0.0,61.41527096876063,0.0,4.020399054559112,0.0,-71.86731635025066,0.0,0.0,0.0,0.0,0.0
1.83,50.0,17.725919322256672,50.0,26.241925990453126,50.0,17.130822844734542,50.0,67.40284765411326,50.0,50.0,50.0,50.0,50.0,0.0,-8.895308305337702,0.0,61.41527096876063,0.0,4.715582539137304,0.0,-71.42716819941542,0.0,0.0,0.0,0.0,0.0
1.84,50.0,17.636966239203296,50.0,26.85607870014073,50.0,17.181454587548807,50.0,66.70921427631318,50.0,50.0,50.0,50.0,50.0,0.0,-8.895308305337702,0.0,61.41527096876063,0.0,5.410766023715496,0.0,-67.29950736059891,0.0,0.0,0.0,0.0,0.0
1.85,50.0,17.54801315614992,50.0,27.47023140982834,50.0,17.239038165208854,50.0,66.05685750690128,50.0,50.0,50.0,50.0,50.0,0.0,-8.895308305337702,0.0,61.41527096876063,0.0,6.105949508293687,0.0,-63.17184652178238,0.0,0.0,0.0,0.0,0.0
1.86,50.0,17.459873036406023,50.0,28.084384119515946,50.0,17.30357357771468,50.0,65.44577734587753,50.0,50.0,50.0,50.0,50.0,0.0,-8.694227135403496,0.0,61.41527096876063,0.0,6.80113299287188,0.0,-59.044185682965846,0.0,0.0,0.0,0.0,0.0
1.87,50.0,17.374174167934704,50.0,28.698536829203555,50.0,17.37506082506629,50.0,64.87597379324195,50.0,50.0,50.0,50.0,50.0,0.0,-8.445546558860382,0.0,61.41527096876063,0.0,7.496316477450071,0.0,-54.91652484414933,0.0,0.0,0.0,0.0,0.0
1.88,50.0,17.290962105228818,50.0,29.312689538891146,50.0,17.45349990726368,50.0,64.34744684899455,50.0,50.0,50.0,50.0,50.0,0.0,-8.196865982317274,0.0,61.41527096876063,0.0,8.191499962028248,0.0,-50.78886400533289,0.0,0.0,0.0,0.0,0.0
1.89,50.0,17.21023684828836,50.0,29.926842248578755,50.0,17.538890824306854,50.0,63.860196513135314,50.0,50.0,50.0,50.0,50.0,0.0,-7.9481854057741606,0.0,61.41527096876063,0.0,8.886683446606439,0.0,-46.661203166516366,0.0,0.0,0.0,0.0,0.0
1.9,50.0,17.131998397113335,50.0,30.54099495826636,50.0,17.631233576195807,50.0,63.41422278566423,50.0,50.0,50.0,50.0,50.0,0.0,-7.6995048292310475,0.0,61.41527096876063,0.0,9.58186693118463,0.0,-42.533542327699834,0.0,0.0,0.0,0.0,0.0
1.91,50.0,17.05624675170374,50.0,31.155147667953965,50.0,17.730528162930547,50.0,63.00952566658131,50.0,50.0,50.0,50.0,50.0,0.0,-7.450824252687934,0.0,61.41527096876063,0.0,10.27705041576282,0.0,-38.40588148888331,0.0,0.0,0.0,0.0,0.0
1.92,50.0,16.982981912059575,50.0,31.76930037764157,50.0,17.836774584511065,50.0,62.64610515588656,50.0,50.0,50.0,50.0,50.0,0.0,-7.2021436761448205,0.0,61.41527096876063,0.0,10.972233900341013,0.0,-34.278220650066785,0.0,0.0,0.0,0.0,0.0
1.93,50.0,16.912203878180843,50.0,32.38345308732918,50.0,17.949972840937367,50.0,62.323961253579974,50.0,50.0,50.0,50.0,50.0,0.0,-6.953463099601707,0.0,61.41527096876063,0.0,11.667417384919206,0.0,-30.150559811250258,0.0,0.0,0.0,0.0,0.0
1.94,50.0,16.84391265006754,50.0,32.99760579701679,50.0,18.07012293220945,50.0,62.043093959661554,50.0,50.0,50.0,50.0,50.0,0.0,-6.704782523058594,0.0,61.41527096876063,0.0,12.362600869497397,0.0,-26.022898972433737,0.0,0.0,0.0,0.0,0.0
1.95,50.0,16.77810822771967,50.0,33.6117585067044,50.0,18.197224858327314,50.0,61.8035032741313,50.0,50.0,50.0,50.0,50.0,0.0,-6.45610194651548,0.0,61.41527096876063,0.0,13.057784354075588,0.0,-21.89523813361721,0.0,0.0,0.0,0.0,0.0
1.96,50.0,16.714790611137232,50.0,34.225911216392,50.0,18.33127861929096,50.0,61.60518919698921,50.0,50.0,50.0,50.0,50.0,0.0,-6.207421369972367,0.0,61.41527096876063,0.0,13.75296783865378,0.0,-17.767577294800684,0.0,0.0,0.0,0.0,0.0
1.97,50.0,16.653959800320223,50.0,34.84006392607961,50.0,18.472284215100387,50.0,61.44815172823529,50.0,50.0,50.0,50.0,50.0,0.0,-5.958740793429254,0.0,61.41527096876063,0.0,14.448151323231972,0.0,-13.63991645598416,0.0,0.0,0.0,0.0,0.0
1.98,50.0,16.595615795268646,50.0,35.45421663576722,50.0,18.620241645755602,50.0,61.33239086786953,50.0,50.0,50.0,50.0,50.0,0.0,-5.71006021688614,0.0,61.41527096876063,0.0,15.143334807810163,0.0,-9.512255617167634,0.0,0.0,0.0,0.0,0.0
1.99,50.0,16.5397585959825,50.0,36.06836934545482,50.0,18.775150911256596,50.0,61.25790661589193,50.0,50.0,50.0,50.0,50.0,0.0,-5.4613796403430275,0.0,61.41527096876063,0.0,15.838518292388354,0.0,-5.384594778351107,0.0,0.0,0.0,0.0,0.0
2.0,50.0,16.486388202461786,50.0,36.682522055142435,50.0,18.937012011603368,50.0,61.224698972302505,50.0,50.0,50.0,50.0,50.0,0.0,-5.2126990637999135,0.0,61.41527096876063,0.0,16.533701776966545,0.0,-1.2569339395345815,0.0,0.0,0.0,0.0,0.0
2.01,50.0,16.435504614706506,50.0,37.29667476483002,50.0,19.105753271503225,50.0,61.22752094742004,50.0,50.0,50.0,50.0,50.0,0.0,-4.964018487256806,0.0,61.41527096876063,0.0,17.129057930883818,0.0,1.3618551334456168,0.0,0.0,0.0,0.0,0.0
2.02,50.0,16.38710783271665,50.0,37.91066465529154,50.0,19.27704385081207,50.0,61.25093018296043,50.0,50.0,50.0,50.0,50.0,0.0,-4.715337910713687,0.0,61.14885243169866,0.0,17.129057930883818,0.0,3.319991974630775,0.0,0.0,0.0,0.0,0.0
2.03,50.0,16.34119785649223,50.0,38.51125476813231,50.0,19.4483344301209,50.0,61.29392078691266,50.0,50.0,50.0,50.0,50.0,0.0,-4.466657334170579,0.0,58.96917013645683,0.0,17.129057930883818,0.0,5.278128815815847,0.0,0.0,0.0,0.0,0.0
2.04,50.0,16.29777468603324,50.0,39.090048058020685,50.0,19.619625009429743,50.0,61.35649275927674,50.0,50.0,50.0,50.0,50.0,0.0,-4.21797675762746,0.0,56.78948784121491,0.0,17.129057930883818,0.0,7.236265657001004,0.0,0.0,0.0,0.0,0.0
2.05,50.0,16.256838321339682,50.0,39.647044524956605,50.0,19.790915588738578,50.0,61.43864610005267,50.0,50.0,50.0,50.0,50.0,0.0,-3.969296181084352,0.0,54.60980554597309,0.0,17.129057930883818,0.0,9.194402498186076,0.0,0.0,0.0,0.0,0.0
2.06,50.0,16.21838876241155,50.0,40.18224416894014,50.0,19.96220616804742,50.0,61.54038080924046,50.0,50.0,50.0,50.0,50.0,0.0,-3.7206156045412335,0.0,52.430123250731164,0.0,17.129057930883818,0.0,11.152539339371234,0.0,0.0,0.0,0.0,0.0
2.07,50.0,16.182426009248854,50.0,40.69564698997123,50.0,20.133496747356254,50.0,61.6616968868401,50.0,50.0,50.0,50.0,50.0,0.0,-3.471935027998126,0.0,50.25044095548934,0.0,17.129057930883818,0.0,13.110676180556306,0.0,0.0,0.0,0.0,0.0
2.08,50.0,16.14895006185159,50.0,41.187252988049934,50.0,20.3047873266651,50.0,61.8025943328516,50.0,50.0,50.0,50.0,50.0,0.0,-3.2232544514550066,0.0,48.070758660247414,0.0,17.129057930883818,0.0,15.068813021741462,0.0,0.0,0.0,0.0,0.0
2.09,50.0,16.117960920219755,50.0,41.657062163176185,50.0,20.476077905973934,50.0,61.963073147274926,50.0,50.0,50.0,50.0,50.0,0.0,-2.974573874911899,0.0,45.89107636500559,0.0,17.129057930883818,0.0,17.026949862926532,0.0,0.0,0.0,0.0,0.0
2.1,50.0,16.089458584353352,50.0,42.10507451535004,50.0,20.647368485282776,50.0,62.14313333011012,50.0,50.0,50.0,50.0,50.0,0.0,-2.72589329836878,0.0,43.71139406976367,0.0,17.129057930883818,0.0,18.98508670411169,0.0,0.0,0.0,0.0,0.0
2.11,50.0,16.06344305425238,50.0,42.53129004457146,50.0,20.818659064591607,50.0,62.34277488135716,50.0,50.0,50.0,50.0,50.0,0.0,-2.4772127218256723,0.0,41.531711774521845,0.0,17.129057930883818,0.0,20.943223545296764,0.0,0.0,0.0,0.0,0.0
2.12,50.0,16.039914329916837,50.0,42.935708750840476,50.0,20.989949643900452,50.0,62.56199780101606,50.0,50.0,50.0,50.0,50.0,0.0,-2.228532145282553,0.0,39.35202947927992,0.0,17.129057930883818,0.0,22.901360386481922,0.0,0.0,0.0,0.0,0.0
2.13,50.0,16.018872411346727,50.0,43.318330634157064,50.0,21.161240223209283,50.0,62.8008020890868,50.0,50.0,50.0,50.0,50.0,0.0,-1.9798515687394453,0.0,37.172347184038095,0.0,17.129057930883818,0.0,24.859497227666992,0.0,0.0,0.0,0.0,0.0
2.14,50.0,16.000317298542047,50.0,43.67915569452124,50.0,21.33253080251813,50.0,63.059187745569396,50.0,50.0,50.0,50.0,50.0,0.0,-1.7311709921963265,0.0,34.99266488879617,0.0,17.129057930883818,0.0,26.81763406885215,0.0,0.0,0.0,0.0,0.0
2.15,50.0,15.9842489915028,50.0,44.01818393193299,50.0,21.50382138182696,50.0,63.33715477046385,50.0,50.0,50.0,50.0,50.0,0.0,-1.4824904156532186,0.0,32.81298259355435,0.0,17.129057930883818,0.0,28.775770910037224,0.0,0.0,0.0,0.0,0.0
2.16,50.0,15.970667490228983,50.0,44.33541534639233,50.0,21.675111961135805,50.0,63.63470316377015,50.0,50.0,50.0,50.0,50.0,0.0,-1.2338098391100998,0.0,30.63330029831243,0.0,17.129057930883818,0.0,30.73390775122238,0.0,0.0,0.0,0.0,0.0
2.17,50.0,15.959572794720598,50.0,44.63084993789924,50.0,21.84640254044464,50.0,63.95183292548829,50.0,50.0,50.0,50.0,50.0,0.0,-0.9851292625669918,0.0,28.453618003070602,0.0,17.129057930883818,0.0,32.69204459240745,0.0,0.0,0.0,0.0,0.0
2.18,50.0,15.950964904977646,50.0,44.904487706453736,50.0,22.01769311975348,50.0,64.2885440556183,50.0,50.0,50.0,50.0,50.0,0.0,-0.7364486860238731,0.0,26.27393570782868,0.0,17.129057930883818,0.0,34.650181433592614,0.0,0.0,0.0,0.0,0.0
2.19,50.0,15.944843821000122,50.0,45.15632865205581,50.0,22.188983699062316,50.0,64.64483655416014,50.0,50.0,50.0,50.0,50.0,0.0,-0.48776810948076527,0.0,24.094253412586855,0.0,17.129057930883818,0.0,36.60831827477768,0.0,0.0,0.0,0.0,0.0
2.2,50.0,15.94120954278803,50.0,45.38637277470548,50.0,22.360274278371158,50.0,65.02071042111385,50.0,50.0,50.0,50.0,50.0,0.0,-0.23908753293764637,0.0,21.914571117344934,0.0,17.129057930883818,0.0,38.56645511596284,0.0,0.0,0.0,0.0,0.0
2.21,50.0,15.940064065529477,50.0,45.594620074402705,50.0,22.531564857679992,50.0,65.4161656564794,50.0,50.0,50.0,50.0,50.0,0.0,0.019937300327594047,0.0,19.73488882210311,0.0,17.129057930883818,0.0,40.52459195714791,0.0,0.0,0.0,0.0,0.0
2.22,50.0,15.94284761282826,50.0,45.781070551147536,50.0,22.702855436988834,50.0,65.83120226025682,50.0,50.0,50.0,50.0,50.0,0.0,0.5367721594289916,0.0,17.555206526861188,0.0,17.129057930883818,0.0,42.48272879833307,0.0,0.0,0.0,0.0,0.0
2.23,50.0,15.950799508718056,50.0,45.945724204939935,50.0,22.874146016297665,50.0,66.26582023244606,50.0,50.0,50.0,50.0,50.0,0.0,1.053607018530366,0.0,15.375524231619362,0.0,17.129057930883818,0.0,44.440865639518144,0.0,0.0,0.0,0.0,0.0
2.24,50.0,15.963919753198867,50.0,46.088581035779924,50.0,23.04543659560651,50.0,66.72001957304718,50.0,50.0,50.0,50.0,50.0,0.0,1.5704418776317637,0.0,13.19584193637744,0.0,17.129057930883818,0.0,46.399002480703295,0.0,0.0,0.0,0.0,0.0
2.25,50.0,15.98220834627069,50.0,46.20964104366749,50.0,23.21672717491535,50.0,67.19380028206012,50.0,50.0,50.0,50.0,50.0,0.0,2.087276736733138,0.0,11.016159641135616,0.0,17.129057930883818,0.0,48.35713932188837,0.0,0.0,0.0,0.0,0.0
2.26,50.0,16.005665287933528,50.0,46.308904228602636,50.0,23.387134896030712,50.0,67.68716235948492,50.0,50.0,50.0,50.0,50.0,0.0,2.6041115958345133,0.0,8.83647734589379,0.0,16.778701416651963,0.0,50.31527616307344,0.0,0.0,0.0,0.0,0.0
2.27,50.0,16.03429057818738,50.0,46.386370590585365,50.0,23.551445992774344,50.0,68.1981322735279,50.0,50.0,50.0,50.0,50.0,0.0,3.1209464549359103,0.0,6.656795050651867,0.0,16.083517932073754,0.0,51.39427191063521,0.0,0.0,0.0,0.0,0.0
2.28,50.0,16.068084217032247,50.0,46.44204012961567,50.0,23.70880525467219,50.0,68.71207499263424,50.0,50.0,50.0,50.0,50.0,0.0,3.6377813140372854,0.0,4.477112755410042,0.0,15.388334447495577,0.0,51.39427191063521,0.0,0.0,0.0,0.0,0.0
2.29,50.0,16.10704620446813,50.0,46.475912845693564,50.0,23.859212681724255,50.0,69.2260177117406,50.0,50.0,50.0,50.0,50.0,0.0,4.154616173138683,0.0,2.2974304601681204,0.0,14.693150962917372,0.0,51.39427191063521,0.0,0.0,0.0,0.0,0.0
2.3,50.0,16.151176540495022,50.0,46.487988738819034,50.0,24.00266827393054,50.0,69.73996043084695,50.0,50.0,50.0,50.0,50.0,0.0,4.671451032240057,0.0,0.11774816492629506,0.0,13.997967478339195,0.0,51.39427191063521,0.0,0.0,0.0,0.0,0.0
2.31,50.0,16.20047522511293,50.0,46.483191915167794,50.0,24.13917203129104,50.0,70.2539031499533,50.0,50.0,50.0,50.0,50.0,0.0,5.1882858913414545,0.0,-1.020874002032113,0.0,13.302783993760988,0.0,51.39427191063521,0.0,0.0,0.0,0.0,0.0
2.32,50.0,16.25494225832185,50.0,46.467587316581515,50.0,24.268723953805758,50.0,70.76784586905964,50.0,50.0,50.0,50.0,50.0,0.0,5.70512075044283,0.0,-2.100045715224242,0.0,12.607600509182811,0.0,51.39427191063521,0.0,0.0,0.0,0.0,0.0
2.33,50.0,16.314577640121787,50.0,46.44119100086332,50.0,24.391324041474697,50.0,71.28178858816602,50.0,50.0,50.0,50.0,50.0,0.0,6.221955609544227,0.0,-3.179217428416419,0.0,11.912417024604606,0.0,51.39427191063521,0.0,0.0,0.0,0.0,0.0
2.34,50.0,16.379381370512732,50.0,46.40400296801319,50.0,24.506972294297846,50.0,71.79573130727235,50.0,50.0,50.0,50.0,50.0,0.0,6.738790468645601,0.0,-4.258389141608547,0.0,11.21723354002643,0.0,51.39427191063521,0.0,0.0,0.0,0.0,0.0
2.35,50.0,16.449353449494698,50.0,46.35602321803114,50.0,24.615668712275227,50.0,72.30967402637873,50.0,50.0,50.0,50.0,50.0,0.0,7.255625327746999,0.0,-5.337560854800725,0.0,10.52205005544822,0.0,51.39427191063521,0.0,0.0,0.0,0.0,0.0
2.36,50.0,16.524493877067673,50.0,46.29725175091718,50.0,24.717413295406814,50.0,72.82361674548505,50.0,50.0,50.0,50.0,50.0,0.0,7.772460186848374,0.0,-6.416732567992854,0.0,9.826866570870045,0.0,51.39427191063521,0.0,0.0,0.0,0.0,0.0
2.37,50.0,16.604802653231665,50.0,46.22768856667128,50.0,24.812206043692623,50.0,73.33755946459144,50.0,50.0,50.0,50.0,50.0,0.0,8.289295045949771,0.0,-7.495904281185031,0.0,9.131683086291838,0.0,51.39427191063521,0.0,0.0,0.0,0.0,0.0
2.38,50.0,16.69027977798667,50.0,46.14733366529348,50.0,24.90004695713265,50.0,73.85150218369776,50.0,50.0,50.0,50.0,50.0,0.0,8.806129905051145,0.0,-8.57507599437716,0.0,8.436499601713662,0.0,51.39427191063521,0.0,0.0,0.0,0.0,0.0
2.39,50.0,16.78092525133269,50.0,46.05618704678374,50.0,24.9809360357269,50.0,74.36544490280413,50.0,50.0,50.0,50.0,50.0,0.0,9.322964764152543,0.0,-9.654247707569336,0.0,7.741316117135455,0.0,51.39427191063521,0.0,0.0,0.0,0.0,0.0
2.4,50.0,16.87673907326972,50.0,45.95424871114209,50.0,25.05487327947536,50.0,74.87938762191047,50.0,50.0,50.0,50.0,50.0,0.0,9.839799623253919,0.0,-10.733419420761466,0.0,7.046132632557279,0.0,51.39427191063521,0.0,0.0,0.0,0.0,0.0
2.41,50.0,16.977721243797767,50.0,45.841518658368514,50.0,25.121858688378044,50.0,75.39333034101683,50.0,50.0,50.0,50.0,50.0,0.0,10.356634482355316,0.0,-11.812591133953642,0.0,6.350949147979072,0.0,51.39427191063521,0.0,0.0,0.0,0.0,0.0
2.42,50.0,17.083871762916825,50.0,45.71799688846302,50.0,25.18189226243494,50.0,75.90727306012317,50.0,50.0,50.0,50.0,50.0,0.0,10.87346934145669,0.0,-12.891762847145772,0.0,5.655765663400896,0.0,51.39427191063521,0.0,0.0,0.0,0.0,0.0
2.43,50.0,17.195190630626904,50.0,45.583683401425596,50.0,25.234974001646062,50.0,76.42121577922954,50.0,50.0,50.0,50.0,50.0,0.0,11.390304200558088,0.0,-13.970934560337948,0.0,4.960582178822689,0.0,51.39427191063521,0.0,0.0,0.0,0.0,0.0
2.44,50.0,17.31167784692799,50.0,45.43857819725626,50.0,25.281103906011396,50.0,76.93515849833588,50.0,50.0,50.0,50.0,50.0,0.0,11.907139059659464,0.0,-15.050106273530078,0.0,4.265398694244513,0.0,51.39427191063521,0.0,0.0,0.0,0.0,0.0
2.45,50.0,17.433333411820094,50.0,45.28268127595499,50.0,25.32028197553095,50.0,77.44910121744225,50.0,50.0,50.0,50.0,50.0,0.0,12.42397391876086,0.0,-16.129277986722254,0.0,3.5702152096663053,0.0,51.39427191063521,0.0,0.0,0.0,0.0,0.0
2.46,50.0,17.560157325303205,50.0,45.11599263752181,50.0,25.352508210204725,50.0,77.96304393654859,50.0,50.0,50.0,50.0,50.0,0.0,12.940808777862234,0.0,-17.208449699914382,0.0,2.875031725088129,0.0,51.39427191063521,0.0,0.0,0.0,0.0,0.0
2.47,50.0,17.692149587377337,50.0,44.938512281956704,50.0,25.377782610032714,50.0,78.47698665565495,50.0,50.0,50.0,50.0,50.0,0.0,13.457643636963631,0.0,-18.28762141310656,0.0,2.179848240509922,0.0,51.39427191063521,0.0,0.0,0.0,0.0,0.0
2.48,50.0,17.829310198042478,50.0,44.75024020925969,50.0,25.39610517501492,50.0,78.9909293747613,50.0,50.0,50.0,50.0,50.0,0.0,13.974478496065007,0.0,-19.36679312629869,0.0,1.484664755931746,0.0,51.39427191063521,0.0,0.0,0.0,0.0,0.0
2.49,50.0,17.971639157298636,50.0,44.55117641943073,50.0,25.407475905151347,50.0,79.50487209386766,50.0,50.0,50.0,50.0,50.0,0.0,14.491313355166405,0.0,-20.445964839490866,0.0,0.789481271353539,0.0,51.39427191063521,0.0,0.0,0.0,0.0,0.0
2.5,50.0,18.119136465145807,50.0,44.34132091246986,50.0,25.411894800441992,50.0,80.018814812974,50.0,50.0,50.0,50.0,50.0,0.0,15.008148214267779,0.0,-21.525136552682994,0.0,0.09429778677536278,0.0,51.39427191063521,0.0,0.0,0.0,0.0,0.0
2.51,50.0,18.27180212158399,50.0,44.12067368837708,50.0,25.415773439954393,50.0,80.53275753208034,50.0,50.0,50.0,50.0,50.0,0.0,15.524983073369155,0.0,-22.604308265875122,0.0,0.8826656312165418,0.0,51.39427191063521,0.0,0.0,0.0,0.0,0.0
2.52,50.0,18.42963612661319,50.0,43.88923474715236,50.0,25.429706013843482,50.0,81.0467002511867,50.0,50.0,50.0,50.0,50.0,0.0,16.04181793247055,0.0,-23.6834799790673,0.0,1.9038491466010168,0.0,51.39427191063521,0.0,0.0,0.0,0.0,0.0
2.53,50.0,18.592638480233397,50.0,43.64700408879573,50.0,25.453850422886415,50.0,81.56024168472995,50.0,50.0,50.0,50.0,50.0,0.0,16.558652791571923,0.0,-24.762651692259432,0.0,2.9250326619854463,0.0,50.99784485683412,0.0,0.0,0.0,0.0,0.0
2.54,50.0,18.76080918244463,50.0,43.39398171330717,50.0,25.488206667083194,50.0,82.06042944909238,50.0,50.0,50.0,50.0,50.0,0.0,17.075487650673324,0.0,-25.841823405451606,0.0,3.9462161773699207,0.0,49.03970801564897,0.0,0.0,0.0,0.0,0.0
2.55,50.0,18.934148233246866,50.0,43.130167620686706,50.0,25.532774746433816,50.0,82.54103584504293,50.0,50.0,50.0,50.0,50.0,0.0,17.592322509774696,0.0,-26.920995118643738,0.0,4.967399692754351,0.0,47.081571174463896,0.0,0.0,0.0,0.0,0.0
2.56,50.0,19.112655632640124,50.0,42.85556181093429,50.0,25.58755466093828,50.0,83.00206087258165,50.0,50.0,50.0,50.0,50.0,0.0,18.109157368876094,0.0,-28.000166831835912,0.0,5.9885832081388255,0.0,45.12343433327874,0.0,0.0,0.0,0.0,0.0
2.57,50.0,19.296331380624387,50.0,42.57016428404999,50.0,25.652546410596585,50.0,83.44350453170851,50.0,50.0,50.0,50.0,50.0,0.0,18.62599222797747,0.0,-29.079338545028044,0.0,7.009766723523255,0.0,43.165297492093664,0.0,0.0,0.0,0.0,0.0
2.58,50.0,19.485175477199675,50.0,42.27397504003373,50.0,25.727749995408747,50.0,83.86536682242354,50.0,50.0,50.0,50.0,50.0,0.0,19.142827087078867,0.0,-30.15851025822022,0.0,8.03095023890773,0.0,41.207160650908506,0.0,0.0,0.0,0.0,0.0
2.59,50.0,19.679187922365966,50.0,41.96699407888558,50.0,25.813165415374744,50.0,84.26764774472669,50.0,50.0,50.0,50.0,50.0,0.0,19.659661946180243,0.0,-31.237681971412346,0.0,9.052133754292159,0.0,39.24902380972344,0.0,0.0,0.0,0.0,0.0
2.6,50.0,19.878368716123276,50.0,41.649221400605484,50.0,25.908792670494588,50.0,84.650347298618,50.0,50.0,50.0,50.0,50.0,0.0,20.17649680528164,0.0,-32.316853684604524,0.0,10.073317269676634,0.0,37.290886968538274,0.0,0.0,0.0,0.0,0.0
2.61,50.0,20.082717858471597,50.0,41.32065700519349,50.0,26.014631760768275,50.0,85.01346548409745,50.0,50.0,50.0,50.0,50.0,0.0,20.693331664383013,0.0,-33.396025397796656,0.0,11.094500785061063,0.0,35.3327501273532,0.0,0.0,0.0,0.0,0.0
2.62,50.0,20.292235349410937,50.0,40.98130089264956,50.0,26.130682686195808,50.0,85.35700230116507,50.0,50.0,50.0,50.0,50.0,0.0,21.21016652348441,0.0,-34.47519711098883,0.0,12.115684300445539,0.0,33.37461328616805,0.0,0.0,0.0,0.0,0.0
2.63,50.0,20.506921188941284,50.0,40.631153062973716,50.0,26.256945446777188,50.0,85.6809577498208,50.0,50.0,50.0,50.0,50.0,0.0,21.727001382585787,0.0,-35.55436882418096,0.0,13.136867815829968,0.0,31.416476444982976,0.0,0.0,0.0,0.0,0.0
2.64,50.0,20.726775377062655,50.0,40.27021351616593,50.0,26.39342004251241,50.0,85.98533183006472,50.0,50.0,50.0,50.0,50.0,0.0,22.243836241687184,0.0,-36.633540537373136,0.0,14.158051331214445,0.0,29.45833960379782,0.0,0.0,0.0,0.0,0.0
2.65,50.0,20.95179791377503,50.0,39.898482252226245,50.0,26.540106473401476,50.0,86.27012454189676,50.0,50.0,50.0,50.0,50.0,0.0,22.76067110078856,0.0,-37.71271225056526,0.0,15.179234846598874,0.0,27.50020276261275,0.0,0.0,0.0,0.0,0.0
2.66,50.0,21.18157563332811,50.0,39.51595927115462,50.0,26.697004739444388,50.0,86.53533588531698,50.0,50.0,50.0,50.0,50.0,0.0,23.070847564293757,0.0,-38.79188396375744,0.0,16.20041836198335,0.0,25.54206592142759,0.0,0.0,0.0,0.0,0.0
2.67,50.0,21.412284108971043,50.0,39.125965904796914,50.0,26.86411484064114,50.0,86.78096586032532,50.0,50.0,50.0,50.0,50.0,0.0,23.070847564293757,0.0,-39.02438131473782,0.0,17.221601877367778,0.0,23.583929080242516,0.0,0.0,0.0,0.0,0.0
2.68,50.0,21.642992584613985,50.0,38.73572209164953,50.0,27.041436776991745,50.0,87.00701446692183,50.0,50.0,50.0,50.0,50.0,0.0,23.070847564293757,0.0,-39.02438131473782,0.0,18.242785392752253,0.0,21.625792239057358,0.0,0.0,0.0,0.0,0.0
2.69,50.0,21.873701060256916,50.0,38.34547827850216,50.0,27.228970548496186,50.0,87.21348170510647,50.0,50.0,50.0,50.0,50.0,0.0,23.070847564293757,0.0,-39.02438131473782,0.0,19.263968908136683,0.0,19.66765539787229,0.0,0.0,0.0,0.0,0.0
2.7,50.0,22.104409535899862,50.0,37.95523446535478,50.0,27.426716155154477,50.0,87.40036757487927,50.0,50.0,50.0,50.0,50.0,0.0,23.070847564293757,0.0,-39.02438131473782,0.0,20.285152423521158,0.0,17.709518556687133,0.0,0.0,0.0,0.0,0.0
2.71,50.0,22.33511801154279,50.0,37.564990652207406,50.0,27.63467359696661,50.0,87.56767207624021,50.0,50.0,50.0,50.0,50.0,0.0,23.070847564293757,0.0,-39.02438131473782,0.0,21.306335938905587,0.0,15.75138171550206,0.0,0.0,0.0,0.0,0.0
2.72,50.0,22.56582648718573,50.0,37.17474683906002,50.0,27.85284287393259,50.0,87.71539520918931,50.0,50.0,50.0,50.0,50.0,0.0,23.070847564293757,0.0,-39.02438131473782,0.0,22.327519454290062,0.0,13.793244874316903,0.0,0.0,0.0,0.0,0.0
2.73,50.0,22.796534962828666,50.0,36.78450302591265,50.0,28.081223986052414,50.0,87.84353697372654,50.0,50.0,50.0,50.0,50.0,0.0,23.070847564293757,0.0,-39.02438131473782,0.0,23.34870296967449,0.0,11.83510803313183,0.0,0.0,0.0,0.0,0.0
2.74,50.0,23.027243438471608,50.0,36.39425921276526,50.0,28.319816933326084,50.0,87.95209736985194,50.0,50.0,50.0,50.0,50.0,0.0,23.070847564293757,0.0,-39.02438131473782,0.0,24.369886485058966,0.0,9.876971191946673,0.0,0.0,0.0,0.0,0.0
2.75,50.0,23.257951914114543,50.0,36.00401539961789,50.0,28.56862171575359,50.0,88.04107639756549,50.0,50.0,50.0,50.0,50.0,0.0,23.070847564293757,0.0,-39.02438131473782,0.0,25.391070000443396,0.0,7.918834350761601,0.0,0.0,0.0,0.0,0.0
2.76,50.0,23.488660389757477,50.0,35.61377158647053,50.0,28.82763833333494,50.0,88.11047405686718,50.0,50.0,50.0,50.0,50.0,0.0,23.070847564293757,0.0,-39.02438131473782,0.0,26.412253515827825,0.0,5.96069750957653,0.0,0.0,0.0,0.0,0.0
2.77,50.0,23.71936886540042,50.0,35.223527773323134,50.0,29.096866786070148,50.0,88.16029034775701,50.0,50.0,50.0,50.0,50.0,0.0,23.070847564293757,0.0,-39.02438131473782,0.0,27.4334370312123,0.0,4.0025606683913715,0.0,0.0,0.0,0.0,0.0
2.78,50.0,23.95007734104335,50.0,34.83328396017576,50.0,29.376307073959186,50.0,88.19052527023501,50.0,50.0,50.0,50.0,50.0,0.0,23.070847564293757,0.0,-39.02438131473782,0.0,28.454620546596733,0.0,2.0444238272063,0.0,0.0,0.0,0.0,0.0
2.79,50.0,24.180785816686292,50.0,34.44304014702838,50.0,29.66595919700208,50.0,88.20117882430114,50.0,50.0,50.0,50.0,50.0,0.0,23.070847564293757,0.0,-39.02438131473782,0.0,29.475804061981208,0.0,0.08628698602114193,0.0,0.0,0.0,0.0,0.0
2.8,50.0,24.411494292329227,50.0,34.052796333881005,50.0,29.965823155198812,50.0,88.1981047443705,50.0,50.0,50.0,50.0,50.0,0.0,23.070847564293757,0.0,-39.02438131473782,0.0,30.496987577365633,0.0,-0.6471348509078632,0.0,0.0,0.0,0.0,0.0
2.81,50.0,24.642202767972172,50.0,33.66255252073362,50.0,30.275898948549397,50.0,88.188248566172,50.0,50.0,50.0,50.0,50.0,0.0,23.070847564293757,0.0,-39.02438131473782,0.0,31.51817109275011,0.0,-1.3241007887910627,0.0,0.0,0.0,0.0,0.0
2.82,50.0,24.8729112436151,50.0,33.27230870758625,50.0,30.596186577053814,50.0,88.17162272859468,50.0,50.0,50.0,50.0,50.0,0.0,23.070847564293757,0.0,-39.02438131473782,0.0,32.53935460813454,0.0,-2.0010667266742326,0.0,0.0,0.0,0.0,0.0
2.83,50.0,25.10361971925805,50.0,32.88206489443886,50.0,30.92668604071209,50.0,88.14822723163851,50.0,50.0,50.0,50.0,50.0,0.0,23.070847564293757,0.0,-39.02438131473782,0.0,33.56053812351902,0.0,-2.6780326645574317,0.0,0.0,0.0,0.0,0.0
2.84,50.0,25.334328194900976,50.0,32.49182108129149,50.0,31.267397339524194,50.0,88.11806207530353,50.0,50.0,50.0,50.0,50.0,0.0,23.070847564293757,0.0,-39.02438131473782,0.0,34.58172163890344,0.0,-3.3549986024406016,0.0,0.0,0.0,0.0,0.0
2.85,50.0,25.56503667054392,50.0,32.101577268144105,50.0,31.618320473490158,50.0,88.08112725958972,50.0,50.0,50.0,50.0,50.0,0.0,23.070847564293757,0.0,-39.02438131473782,0.0,35.60290515428792,0.0,-4.031964540323801,0.0,0.0,0.0,0.0,0.0
2.86,50.0,25.795745146186853,50.0,31.711333454996737,50.0,31.979455442609954,50.0,88.03742278449707,50.0,50.0,50.0,50.0,50.0,0.0,23.070847564293757,0.0,-39.02438131473782,0.0,36.624088669672346,0.0,-4.7089304782069705,0.0,0.0,0.0,0.0,0.0
2.87,50.0,26.0264536218298,50.0,31.32108964184935,50.0,32.3507878840244,50.0,87.98694865002557,50.0,50.0,50.0,50.0,50.0,0.0,23.070847564293757,0.0,-39.02438131473782,0.0,37.59111110113739,0.0,-5.38589641609017,0.0,0.0,0.0,0.0,0.0
2.88,50.0,26.25716209747273,50.0,30.93084582870198,50.0,32.72669899503576,50.0,87.92970485617525,50.0,50.0,50.0,50.0,50.0,0.0,23.070847564293757,0.0,-39.02438131473782,0.0,37.59111110113739,0.0,-6.06286235397334,0.0,0.0,0.0,0.0,0.0
2.89,50.0,26.48787057311567,50.0,30.54060201555459,50.0,33.102610106047145,50.0,87.8656914029461,50.0,50.0,50.0,50.0,50.0,0.0,23.070847564293757,0.0,-39.02438131473782,0.0,37.59111110113739,0.0,-6.739828291856539,0.0,0.0,0.0,0.0,0.0
2.9,50.0,26.718579048758606,50.0,30.15035820240722,50.0,33.478521217058514,50.0,87.79490829033813,50.0,50.0,50.0,50.0,50.0,0.0,23.070847564293757,0.0,-39.02438131473782,0.0,37.59111110113739,0.0,-7.4167942297397085,0.0,0.0,0.0,0.0,0.0
2.91,50.0,26.949287524401548,50.0,29.760114389259833,50.0,33.8544323280699,50.0,87.71735551835131,50.0,50.0,50.0,50.0,50.0,0.0,23.070847564293757,0.0,-39.02438131473782,0.0,37.59111110113739,0.0,-8.093760167622909,0.0,0.0,0.0,0.0,0.0
2.92,50.0,27.17999600004448,50.0,29.36987057611246,50.0,34.23034343908126,50.0,87.63303308698566,50.0,50.0,50.0,50.0,50.0,0.0,23.070847564293757,0.0,-39.02438131473782,0.0,37.59111110113739,0.0,-8.770726105506078,0.0,0.0,0.0,0.0,0.0
2.93,50.0,27.410704475687425,50.0,28.979626762965076,50.0,34.60625455009264,50.0,87.5419409962412,50.0,50.0,50.0,50.0,50.0,0.0,23.070847564293757,0.0,-39.02438131473782,0.0,37.59111110113739,0.0,-9.447692043389278,0.0,0.0,0.0,0.0,0.0
2.94,50.0,27.64141295133036,50.0,28.589382949817704,50.0,34.982165661104005,50.0,87.44407924611788,50.0,50.0,50.0,50.0,50.0,0.0,23.070847564293757,0.0,-39.02438131473782,0.0,37.59111110113739,0.0,-10.124657981272447,0.0,0.0,0.0,0.0,0.0
2.95,50.0,27.8721214269733,50.0,28.19913913667032,50.0,35.358076772115396,50.0,87.33944783661575,50.0,50.0,50.0,50.0,50.0,0.0,23.070847564293757,0.0,-39.02438131473782,0.0,37.59111110113739,0.0,-10.801623919155647,0.0,0.0,0.0,0.0,0.0
2.96,50.0,28.102829902616232,50.0,27.80889532352295,50.0,35.73398788312676,50.0,87.22804676773477,50.0,50.0,50.0,50.0,50.0,0.0,23.070847564293757,0.0,-39.02438131473782,0.0,37.59111110113739,0.0,-11.478589857038816,0.0,0.0,0.0,0.0,0.0
2.97,50.0,28.333538378259174,50.0,27.418651510375565,50.0,36.10989899413814,50.0,87.10987603947495,50.0,50.0,50.0,50.0,50.0,0.0,23.070847564293757,0.0,-39.02438131473782,0.0,37.59111110113739,0.0,-12.155555794922018,0.0,0.0,0.0,0.0,0.0
2.98,50.0,28.564246853902105,50.0,27.028407697228193,50.0,36.48581010514951,50.0,86.98493565183632,50.0,50.0,50.0,50.0,50.0,0.0,23.070847564293757,0.0,-39.02438131473782,0.0,37.59111110113739,0.0,-12.832521732805185,0.0,0.0,0.0,0.0,0.0
2.99,50.0,28.794955329545047,50.0,26.638163884080807,50.0,36.86172121616089,50.0,86.85322560481885,50.0,50.0,50.0,50.0,50.0,0.0,23.070847564293757,0.0,-39.02438131473782,0.0,37.59111110113739,0.0,-13.509487670688387,0.0,0.0,0.0,0.0,0.0
3.0,50.0,29.025663805187982,50.0,26.247920070933436,50.0,37.23763232717225,50.0,86.71474589842256,50.0,50.0,50.0,50.0,50.0,0.0,23.070847564293757,0.0,-39.02438131473782,0.0,37.59111110113739,0.0,-14.186453608571554,0.0,0.0,0.0,0.0,0.0
3.01,50.0,29.256372280830917,50.0,25.857676257786068,50.0,37.61354343818362,50.0,86.56949653264742,50.0,50.0,50.0,50.0,50.0,0.0,23.070847564293757,0.0,-39.02438131473782,0.0,37.59111110113739,0.0,-14.863419546454725,0.0,0.0,0.0,0.0,0.0
3.02,50.0,29.48708075647386,50.0,25.467432444638675,50.0,37.98945454919501,50.0,86.41747750749346,50.0,50.0,50.0,50.0,50.0,0.0,23.070847564293757,0.0,-39.02438131473782,0.0,37.59111110113739,0.0,-15.540385484337923,0.0,0.0,0.0,0.0,0.0
3.03,50.0,29.71778923211679,50.0,25.07928385992774,50.0,38.365365660206365,50.0,86.25868882296068,50.0,50.0,50.0,50.0,50.0,0.0,23.070847564293757,0.0,-38.35190659234645,0.0,37.59111110113739,0.0,-16.217351422221093,0.0,0.0,0.0,0.0,0.0
3.04,50.0,29.94849770775973,50.0,24.70116065257023,50.0,38.741276771217755,50.0,86.09313047904905,50.0,50.0,50.0,50.0,50.0,0.0,23.070847564293757,0.0,-37.27273487915428,0.0,37.59111110113739,0.0,-16.894317360104292,0.0,0.0,0.0,0.0,0.0
3.05,50.0,30.179206183402666,50.0,24.333829162344657,50.0,39.11718788222912,50.0,85.92080247575859,50.0,50.0,50.0,50.0,50.0,0.0,23.070847564293757,0.0,-36.193563165962146,0.0,37.59111110113739,0.0,-17.571283297987463,0.0,0.0,0.0,0.0,0.0
3.06,50.0,30.40991465904561,50.0,23.977289389250988,50.0,39.4930989932405,50.0,85.74170481308929,50.0,50.0,50.0,50.0,50.0,0.0,23.070847564293757,0.0,-35.114391452769965,0.0,37.59111110113739,0.0,-18.248249235870663,0.0,0.0,0.0,0.0,0.0
3.07,50.0,30.64062313468854,50.0,23.63154133328926,50.0,39.86901010425187,50.0,85.55583749104117,50.0,50.0,50.0,50.0,50.0,0.0,23.070847564293757,0.0,-34.03521973957784,0.0,37.59111110113739,0.0,-18.92521517375383,0.0,0.0,0.0,0.0,0.0
3.08,50.0,30.871331610331485,50.0,23.296584994459433,50.0,40.24492121526325,50.0,85.36320050961422,50.0,50.0,50.0,50.0,50.0,0.0,23.070847564293757,0.0,-32.956048026385666,0.0,37.59111110113739,0.0,-19.602181111637034,0.0,0.0,0.0,0.0,0.0
3.09,50.0,31.102040085974416,50.0,22.972420372761544,50.0,40.620832326274616,50.0,85.16379386880843,50.0,50.0,50.0,50.0,50.0,0.0,23.070847564293757,0.0,-31.876876313193534,0.0,37.59111110113739,0.0,-20.2791470495202,0.0,0.0,0.0,0.0,0.0
3.1,50.0,31.332748561617358,50.0,22.65904746819556,50.0,40.996743437286,50.0,84.9576175686238,50.0,50.0,50.0,50.0,50.0,0.0,23.070847564293757,0.0,-30.797704600001357,0.0,37.59111110113739,0.0,-20.9561129874034,0.0,0.0,0.0,0.0,0.0
3.11,50.0,31.561959968892054,50.0,22.356466280761513,50.0,41.37265454829736,50.0,84.74467160906036,50.0,50.0,50.0,50.0,50.0,0.0,22.677468073428965,0.0,-29.718532886809225,0.0,37.59111110113739,0.0,-21.63307892528657,0.0,0.0,0.0,0.0,0.0
3.12,50.0,31.786150475330842,50.0,22.06467681045938,50.0,41.748565659308746,50.0,84.52495599011807,50.0,50.0,50.0,50.0,50.0,0.0,22.160633214327568,0.0,-28.63936117361705,0.0,37.59111110113739,0.0,-22.31004486316977,0.0,0.0,0.0,0.0,0.0
3.13,50.0,32.0051726331786,50.0,21.783679057289174,50.0,42.124476770320115,50.0,84.29847071179697,50.0,50.0,50.0,50.0,50.0,0.0,21.643798355226192,0.0,-27.560189460424922,0.0,37.59111110113739,0.0,-22.98701080105294,0.0,0.0,0.0,0.0,0.0
3.14,50.0,32.219026442435364,50.0,21.513473021250878,50.0,42.5003878813315,50.0,84.06521577409703,50.0,50.0,50.0,50.0,50.0,0.0,21.126963496124795,0.0,-26.481017747232745,0.0,37.59111110113739,0.0,-23.66397673893614,0.0,0.0,0.0,0.0,0.0
3.15,50.0,32.4277119031011,50.0,21.25405870234452,50.0,42.87629899234286,50.0,83.82519117701824,50.0,50.0,50.0,50.0,50.0,0.0,20.61012863702342,0.0,-25.401846034040616,0.0,37.59111110113739,0.0,-24.34094267681931,0.0,0.0,0.0,0.0,0.0
3.16,50.0,32.63122901517583,50.0,21.005436100570066,50.0,43.252210103354244,50.0,83.57839692056062,50.0,50.0,50.0,50.0,50.0,0.0,20.093293777922025,0.0,-24.32267432084844,0.0,37.59111110113739,0.0,-25.01790861470251,0.0,0.0,0.0,0.0,0.0
3.17,50.0,32.82957777865954,50.0,20.767605215927546,50.0,43.62812121436561,50.0,83.3248330047242,50.0,50.0,50.0,50.0,50.0,0.0,19.57645891882065,0.0,-23.24350260765631,0.0,37.59111110113739,0.0,-25.694874552585677,0.0,0.0,0.0,0.0,0.0
3.18,50.0,33.02275819355225,50.0,20.540566048416938,50.0,44.00403232537699,50.0,83.06449942950893,50.0,50.0,50.0,50.0,50.0,0.0,19.05962405971925,0.0,-22.164330894464133,0.0,37.59111110113739,0.0,-26.371840490468877,0.0,0.0,0.0,0.0,0.0
3.19,50.0,33.21077025985393,50.0,20.324318598038264,50.0,44.37994343638835,50.0,82.79739619491482,50.0,50.0,50.0,50.0,50.0,0.0,18.542789200617875,0.0,-21.085159181272005,0.0,37.59111110113739,0.0,-27.048806428352048,0.0,0.0,0.0,0.0,0.0
3.2,50.0,33.393613977564605,50.0,20.118862864791502,50.0,44.755854547399736,50.0,82.52372971036407,50.0,50.0,50.0,50.0,50.0,0.0,18.025954341516478,0.0,-20.005987468079827,0.0,37.59111110113739,0.0,-27.558600509709,0.0,0.0,0.0,0.0,0.0
3.21,50.0,33.57128934668426,50.0,19.924198848676667,50.0,45.1317656584111,50.0,82.24814370526697,50.0,50.0,50.0,50.0,50.0,0.0,17.5091194824151,0.0,-18.9268157548877,0.0,37.59111110113739,0.0,-27.558600509709,0.0,0.0,0.0,0.0,0.0
3.22,50.0,33.74379636721291,50.0,19.740326549693744,50.0,45.50767676942248,50.0,81.97255770016989,50.0,50.0,50.0,50.0,50.0,0.0,16.992284623313708,0.0,-17.847644041695524,0.0,37.59111110113739,0.0,-27.558600509709,0.0,0.0,0.0,0.0,0.0
3.23,50.0,33.91113503915053,50.0,19.567245967842755,50.0,45.88358788043385,50.0,81.69697169507279,50.0,50.0,50.0,50.0,50.0,0.0,16.475449764212332,0.0,-16.768472328503393,0.0,37.59111110113739,0.0,-27.558600509709,0.0,0.0,0.0,0.0,0.0
3.24,50.0,34.073305362497145,50.0,19.404957103123678,50.0,46.25920066107485,50.0,81.4213856899757,50.0,50.0,50.0,50.0,50.0,0.0,15.958614905110935,0.0,-15.689300615311216,0.0,37.34427104913063,0.0,-27.558600509709,0.0,0.0,0.0,0.0,0.0
3.25,50.0,34.23030733725275,50.0,19.25345995553653,50.0,46.627537453989234,50.0,81.14579968487861,50.0,50.0,50.0,50.0,50.0,0.0,15.44178004600956,0.0,-14.610128902119087,0.0,36.323087533746204,0.0,-27.558600509709,0.0,0.0,0.0,0.0,0.0
3.26,50.0,34.38214096341734,50.0,19.112754525081304,50.0,46.985662411749765,50.0,80.87021367978153,50.0,50.0,50.0,50.0,50.0,0.0,14.924945186908186,0.0,-13.530957188926957,0.0,35.301904018361775,0.0,-27.558600509709,0.0,0.0,0.0,0.0,0.0
3.27,50.0,34.52880624099092,50.0,18.98284081175799,50.0,47.33357553435647,50.0,80.59462767468443,50.0,50.0,50.0,50.0,50.0,0.0,14.408110327806787,0.0,-12.45178547573478,0.0,34.280720502977296,0.0,-27.558600509709,0.0,0.0,0.0,0.0,0.0
3.28,50.0,34.67030316997347,50.0,18.863718815566607,50.0,47.67127682180931,50.0,80.31904166958734,50.0,50.0,50.0,50.0,50.0,0.0,13.891275468705413,0.0,-11.37261376254265,0.0,33.25953698759287,0.0,-27.558600509709,0.0,0.0,0.0,0.0,0.0
3.29,50.0,34.80663175036502,50.0,18.755388536507137,50.0,47.99876627410832,50.0,80.04345566449025,50.0,50.0,50.0,50.0,50.0,0.0,13.374440609604015,0.0,-10.293442049350475,0.0,32.238353472208395,0.0,-27.558600509709,0.0,0.0,0.0,0.0,0.0
3.3,50.0,34.93779198216556,50.0,18.657849974579594,50.0,48.31604389125347,50.0,79.76786965939316,50.0,50.0,50.0,50.0,50.0,0.0,12.857605750502643,0.0,-9.214270336158346,0.0,31.217169956823966,0.0,-27.558600509709,0.0,0.0,0.0,0.0,0.0
3.31,50.0,35.06378386537508,50.0,18.57110312978397,50.0,48.623109673244805,50.0,79.49228365429607,50.0,50.0,50.0,50.0,50.0,0.0,12.340770891401244,0.0,-8.135098622966169,0.0,30.19598644143949,0.0,-27.558600509709,0.0,0.0,0.0,0.0,0.0
3.32,50.0,35.18460739999358,50.0,18.495148002120274,50.0,48.919963620082264,50.0,79.21669764919899,50.0,50.0,50.0,50.0,50.0,0.0,11.82393603229987,0.0,-7.05592690977404,0.0,29.174802926055058,0.0,-27.558600509709,0.0,0.0,0.0,0.0,0.0
3.33,50.0,35.30026258602108,50.0,18.429984591588493,50.0,49.206605731765904,50.0,78.94111164410188,50.0,50.0,50.0,50.0,50.0,0.0,11.307101173198472,0.0,-5.976755196581863,0.0,28.153619410670586,0.0,-27.558600509709,0.0,0.0,0.0,0.0,0.0
3.34,50.0,35.41074942345755,50.0,18.375612898188635,50.0,49.483036008295684,50.0,78.66552563900481,50.0,50.0,50.0,50.0,50.0,0.0,10.790266314097096,0.0,-4.8975834833897345,0.0,27.132435895286157,0.0,-27.558600509709,0.0,0.0,0.0,0.0,0.0
3.35,50.0,35.51606791230302,50.0,18.332032921920696,50.0,49.749254449671625,50.0,78.38993963390772,50.0,50.0,50.0,50.0,50.0,0.0,10.273431454995698,0.0,-3.8184117701975566,0.0,26.111252379901682,0.0,-27.558600509709,0.0,0.0,0.0,0.0,0.0
3.36,50.0,35.616218052557464,50.0,18.299244662784684,50.0,50.00526105589372,50.0,78.11435362881062,50.0,50.0,50.0,50.0,50.0,0.0,9.756596595894324,0.0,-2.739240057005428,0.0,25.09006886451725,0.0,-27.558600509709,0.0,0.0,0.0,0.0,0.0
3.37,50.0,35.7111998442209,50.0,18.27724812078059,50.0,50.251055826961974,50.0,77.83876762371352,50.0,50.0,50.0,50.0,50.0,0.0,9.239761736792927,0.0,-1.660068343813251,0.0,24.068885349132774,0.0,-27.558600509709,0.0,0.0,0.0,0.0,0.0
3.38,50.0,35.80101328729332,50.0,18.266043295908418,50.0,50.486638762876375,50.0,77.56318161861645,50.0,50.0,50.0,50.0,50.0,0.0,8.722926877691553,0.0,-0.5808966306211221,0.0,23.047701833748345,0.0,-27.558600509709,0.0,0.0,0.0,0.0,0.0
3.39,50.0,35.88565838177473,50.0,18.26520215461273,50.0,50.712009863636936,50.0,77.28759561351934,50.0,50.0,50.0,50.0,50.0,0.0,8.206092018590155,0.0,0.3128667723902699,0.0,22.02651831836387,0.0,-27.558600509709,0.0,0.0,0.0,0.0,0.0
3.4,50.0,35.96513512766512,50.0,18.271718880284656,50.0,50.92716912924366,50.0,77.01200960842226,50.0,50.0,50.0,50.0,50.0,0.0,7.689257159488781,0.0,0.990478361994797,0.0,21.00533480297944,0.0,-27.558600509709,0.0,0.0,0.0,0.0,0.0
3.41,50.0,36.03944352496451,50.0,18.285011721852626,50.0,51.13211655969653,50.0,76.73642360332516,50.0,50.0,50.0,50.0,50.0,0.0,7.172422300387383,0.0,1.6680899515993544,0.0,19.984151287594965,0.0,-27.558600509709,0.0,0.0,0.0,0.0,0.0
3.42,50.0,36.108583573672874,50.0,18.305080679316646,50.0,51.32685215499555,50.0,76.46083759822807,50.0,50.0,50.0,50.0,50.0,0.0,6.655587441286008,0.0,2.3457015412038817,0.0,18.962967772210536,0.0,-27.558600509709,0.0,0.0,0.0,0.0,0.0
3.43,50.0,36.17255527379023,50.0,18.331925752676707,50.0,51.51137591514073,50.0,76.18525159313099,50.0,50.0,50.0,50.0,50.0,0.0,6.13875258218461,0.0,3.0233131308084387,0.0,17.94178425682606,0.0,-27.558600509709,0.0,0.0,0.0,0.0,0.0
3.44,50.0,36.23135862531657,50.0,18.365546941932813,50.0,51.685687840132076,50.0,75.9096655880339,50.0,50.0,50.0,50.0,50.0,0.0,5.621917723083235,0.0,3.700924720412966,0.0,16.920600741441632,0.0,-27.558600509709,0.0,0.0,0.0,0.0,0.0
3.45,50.0,36.28499362825189,50.0,18.405944247084967,50.0,51.849787929969565,50.0,75.6340795829368,50.0,50.0,50.0,50.0,50.0,0.0,5.105082863981838,0.0,4.378536310017523,0.0,15.899417226057158,0.0,-27.558600509709,0.0,0.0,0.0,0.0,0.0
3.46,50.0,36.3334602825962,50.0,18.45311766813316,50.0,52.003676184653216,50.0,75.35849357783971,50.0,50.0,50.0,50.0,50.0,0.0,4.588248004880464,0.0,5.05614789962205,0.0,14.878233710672728,0.0,-27.558600509709,0.0,0.0,0.0,0.0,0.0
3.47,50.0,36.3767585883495,50.0,18.507067205077405,50.0,52.14735260418303,50.0,75.08290757274263,50.0,50.0,50.0,50.0,50.0,0.0,4.071413145779066,0.0,5.733759489226607,0.0,13.857050195288252,0.0,-27.558600509709,0.0,0.0,0.0,0.0,0.0
3.48,50.0,36.414888545511786,50.0,18.567792857917695,50.0,52.280817188558984,50.0,74.80732156764554,50.0,50.0,50.0,50.0,50.0,0.0,3.5545782866776916,0.0,6.411371078831134,0.0,12.835866679903823,0.0,-27.558600509709,0.0,0.0,0.0,0.0,0.0
3.49,50.0,36.447850154083056,50.0,18.63529462665403,50.0,52.4040699377811,50.0,74.53173556254845,50.0,50.0,50.0,50.0,50.0,0.0,3.037743427576294,0.0,7.088982668435691,0.0,11.814683164519348,0.0,-27.558600509709,0.0,0.0,0.0,0.0,0.0
3.5,50.0,36.475643414063306,50.0,18.709572511286407,50.0,52.51711085184937,50.0,74.25614955745135,50.0,50.0,50.0,50.0,50.0,0.0,2.5209085684749195,0.0,7.766594258040219,0.0,10.793499649134919,0.0,-27.558600509709,0.0,0.0,0.0,0.0,0.0
3.51,50.0,36.49826832545255,50.0,18.790626511814832,50.0,52.6199399307638,50.0,73.98056355235428,50.0,50.0,50.0,50.0,50.0,0.0,2.004073709373545,0.0,8.444205847644746,0.0,9.77231613375049,0.0,-27.558600509709,0.0,0.0,0.0,0.0,0.0
3.52,50.0,36.51572488825078,50.0,18.878456628239302,50.0,52.71255717452438,50.0,73.70497754725719,50.0,50.0,50.0,50.0,50.0,0.0,1.487238850272147,0.0,9.121817437249302,0.0,8.751132618366015,0.0,-27.558600509709,0.0,0.0,0.0,0.0,0.0
3.53,50.0,36.528013102458,50.0,18.973062860559818,50.0,52.794962583131124,50.0,73.42939154216009,50.0,50.0,50.0,50.0,50.0,0.0,0.9704039911707726,0.0,9.799429026853831,0.0,7.729949102981585,0.0,-27.558600509709,0.0,0.0,0.0,0.0,0.0
3.54,50.0,36.535132968074194,50.0,19.07444520877638,50.0,52.86715615658401,50.0,73.153805537063,50.0,50.0,50.0,50.0,50.0,0.0,0.45356913206937505,0.0,10.477040616458387,0.0,6.70876558759711,0.0,-27.558600509709,0.0,0.0,0.0,0.0,0.0
3.55,50.0,36.53718698179379,50.0,19.182603672888984,50.0,52.929137894883056,50.0,72.87821953196591,50.0,50.0,50.0,50.0,50.0,0.0,0.10419892435947116,0.0,11.154652206062915,0.0,5.687582072212681,0.0,-27.558600509709,0.0,0.0,0.0,0.0,0.0
3.56,50.0,36.54248511720975,50.0,19.29753825289764,50.0,52.98090779802827,50.0,72.60263352686881,50.0,50.0,50.0,50.0,50.0,0.0,0.9554281588327507,0.0,11.832263795667473,0.0,4.666398556828206,0.0,-27.558600509709,0.0,0.0,0.0,0.0,0.0
3.57,50.0,36.556295544970446,50.0,19.419248948802334,50.0,53.02246586601963,50.0,72.32704752177173,50.0,50.0,50.0,50.0,50.0,0.0,1.8066573933059924,0.0,12.509875385271998,0.0,3.6452150414437763,0.0,-27.558600509709,0.0,0.0,0.0,0.0,0.0
3.58,50.0,36.57861826507587,50.0,19.547735760603082,50.0,53.053812098857144,50.0,72.05146151667464,50.0,50.0,50.0,50.0,50.0,0.0,2.6578866277792716,0.0,13.187486974876556,0.0,2.6240315260593015,0.0,-27.558600509709,0.0,0.0,0.0,0.0,0.0
3.59,50.0,36.60945327752603,50.0,19.682998688299865,50.0,53.07494649654081,50.0,71.77587551157755,50.0,50.0,50.0,50.0,50.0,0.0,3.509115862252514,0.0,13.865098564481084,0.0,1.6028480106748717,0.0,-27.558600509709,0.0,0.0,0.0,0.0,0.0
3.6,50.0,36.64880058232092,50.0,19.825037731892703,50.0,53.08586905907064,50.0,71.50028950648046,50.0,50.0,50.0,50.0,50.0,0.0,4.360345096725793,0.0,14.542710154085642,0.0,0.5816644952903968,0.0,-27.558600509709,0.0,0.0,0.0,0.0,0.0
3.61,50.0,36.69666017946055,50.0,19.97385289138158,50.0,53.0866301492826,50.0,71.22568304317087,50.0,50.0,50.0,50.0,50.0,0.0,5.211574331199035,0.0,15.220321743690167,0.0,-0.41611630233032254,0.0,-27.194425709681223,0.0,0.0,0.0,0.0,0.0
3.62,50.0,36.75303206894491,50.0,20.129444166766508,50.0,53.07763493939221,50.0,70.95712361576348,50.0,50.0,50.0,50.0,50.0,0.0,6.062803565672315,0.0,15.897933333294725,0.0,-1.382925675748465,0.0,-26.517459771798023,0.0,0.0,0.0,0.0,0.0
3.63,50.0,36.81791625077399,50.0,20.29181155804747,50.0,53.058971635767634,50.0,70.69533384773491,50.0,50.0,50.0,50.0,50.0,0.0,6.914032800145557,0.0,16.575544922899255,0.0,-2.3497350491665645,0.0,-25.840493833914852,0.0,0.0,0.0,0.0,0.0
3.64,50.0,36.89131272494781,50.0,20.460955065224493,50.0,53.03064023840888,50.0,70.44031373908518,50.0,50.0,50.0,50.0,50.0,0.0,7.765262034618836,0.0,17.25315651250381,0.0,-3.316544422584707,0.0,-25.163527896031653,0.0,0.0,0.0,0.0,0.0
3.65,50.0,36.97322149146637,50.0,20.63687468829755,50.0,52.99264074731594,50.0,70.19206328981429,50.0,50.0,50.0,50.0,50.0,0.0,8.616491269092078,0.0,17.930768102108335,0.0,-4.283353796002806,0.0,-24.486561958148485,0.0,0.0,0.0,0.0,0.0
3.66,50.0,37.06364255032966,50.0,20.819570427266658,50.0,52.94497316248882,50.0,69.9505824999222,50.0,50.0,50.0,50.0,50.0,0.0,9.467720503565356,0.0,18.608379691712894,0.0,-5.250163169420949,0.0,-23.809596020265285,0.0,0.0,0.0,0.0,0.0
3.67,50.0,37.16257590153768,50.0,21.009042282131805,50.0,52.88763748392753,50.0,69.71587136940897,50.0,50.0,50.0,50.0,50.0,0.0,10.318949738038599,0.0,19.285991281317422,0.0,-6.2169725428390485,0.0,-23.132630082382114,0.0,0.0,0.0,0.0,0.0
3.68,50.0,37.27002154509043,50.0,21.205290252893008,50.0,52.82063371163204,50.0,69.48792989827457,50.0,50.0,50.0,50.0,50.0,0.0,11.170178972511879,0.0,19.963602870921978,0.0,-7.183781916257191,0.0,-22.455664144498915,0.0,0.0,0.0,0.0,0.0
3.69,50.0,37.38597948098791,50.0,21.408314339550248,50.0,52.74396184560238,50.0,69.26675808651899,50.0,50.0,50.0,50.0,50.0,0.0,12.02140820698512,0.0,20.641214460526506,0.0,-8.15059128967529,0.0,-21.778698206615744,0.0,0.0,0.0,0.0,0.0
3.7,50.0,37.51044970923014,50.0,21.618114542103537,50.0,52.65762188583854,50.0,69.05235593414226,50.0,50.0,50.0,50.0,50.0,0.0,12.8726374414584,0.0,21.31882605013106,0.0,-9.117400663093433,0.0,-21.101732268732544,0.0,0.0,0.0,0.0,0.0
3.71,50.0,37.64343222981708,50.0,21.83469086055287,50.0,52.56161383234051,50.0,68.84472344114435,50.0,50.0,50.0,50.0,50.0,0.0,13.72386667593164,0.0,21.996437639735593,0.0,-10.084210036511532,0.0,-20.424766330849376,0.0,0.0,0.0,0.0,0.0
3.72,50.0,37.78492704274877,50.0,22.05804329489825,50.0,52.4559376851083,50.0,68.64386060752527,50.0,50.0,50.0,50.0,50.0,0.0,14.57509591040492,0.0,22.67404922934015,0.0,-11.051019409929674,0.0,-19.747800392966177,0.0,0.0,0.0,0.0,0.0
3.73,50.0,37.93493414802518,50.0,22.288171845139672,50.0,52.340593444141916,50.0,68.44976743328502,50.0,50.0,50.0,50.0,50.0,0.0,15.426325144878163,0.0,23.351660818944676,0.0,-12.017828783347774,0.0,-19.070834455083006,0.0,0.0,0.0,0.0,0.0
3.74,50.0,38.093453545646334,50.0,22.525076511277145,50.0,52.215581109441345,50.0,68.26244391842361,50.0,50.0,50.0,50.0,50.0,0.0,16.277554379351443,0.0,24.029272408549232,0.0,-12.984638156765916,0.0,-18.393868517199806,0.0,0.0,0.0,0.0,0.0
3.75,50.0,38.26048523561221,50.0,22.768757293310653,50.0,52.0809006810066,50.0,68.08189006294103,50.0,50.0,50.0,50.0,50.0,0.0,17.128783613824684,0.0,24.706883998153756,0.0,-13.951447530184016,0.0,-17.71690257931664,0.0,0.0,0.0,0.0,0.0
3.76,50.0,38.436029217922815,50.0,23.01921419124021,50.0,51.93655215883767,50.0,67.90810586683727,50.0,50.0,50.0,50.0,50.0,0.0,17.980012848297925,0.0,25.384495587758284,0.0,-14.918256903602115,0.0,-17.039936641433467,0.0,0.0,0.0,0.0,0.0
3.77,50.0,38.62008549257817,50.0,23.27644720506582,50.0,51.78253554293456,50.0,67.74109133011235,50.0,50.0,50.0,50.0,50.0,0.0,18.831242082771205,0.0,26.062107177362844,0.0,-15.88506627702026,0.0,-16.36297070355027,0.0,0.0,0.0,0.0,0.0
3.78,50.0,38.812654059578236,50.0,23.540456334787468,50.0,51.618850833297266,50.0,67.58084645276627,50.0,50.0,50.0,50.0,50.0,0.0,19.68247131724445,0.0,26.73971876696737,0.0,-16.85187565043836,0.0,-15.686004765667098,0.0,0.0,0.0,0.0,0.0
3.79,50.0,39.013734918923056,50.0,23.811241580405166,50.0,51.44549802992579,50.0,67.42737123479901,50.0,50.0,50.0,50.0,50.0,0.0,20.53370055171773,0.0,27.417330356571927,0.0,-17.818685023856503,0.0,-15.009038827783899,0.0,0.0,0.0,0.0,0.0
3.8,50.0,39.223328070612595,50.0,24.088802941918907,50.0,51.26247713282014,50.0,67.2806656762106,50.0,50.0,50.0,50.0,50.0,0.0,21.38492978619097,0.0,28.094941946176455,0.0,-18.7854943972746,0.0,-14.33207288990073,0.0,0.0,0.0,0.0,0.0
3.81,50.0,39.441433514646874,50.0,24.3731404193287,50.0,51.06978814198029,50.0,67.140729777001,50.0,50.0,50.0,50.0,50.0,0.0,22.236159020664246,0.0,28.772553535781014,0.0,-19.75230377069274,0.0,-13.65510695201753,0.0,0.0,0.0,0.0,0.0
3.82,50.0,39.66805125102589,50.0,24.664254012634526,50.0,50.86743105740628,50.0,67.00756353717024,50.0,50.0,50.0,50.0,50.0,0.0,23.087388255137487,0.0,29.450165125385542,0.0,-20.719113144110842,0.0,-12.97814101413436,0.0,0.0,0.0,0.0,0.0
3.83,50.0,39.903181279749624,50.0,24.962143721836412,50.0,50.655405879098076,50.0,66.88116695671832,50.0,50.0,50.0,50.0,50.0,0.0,23.93861748961077,0.0,30.127776714990098,0.0,-21.685922517528986,0.0,-12.30117507625116,0.0,0.0,0.0,0.0,0.0
3.84,50.0,40.146823600818095,50.0,25.266809546934326,50.0,50.4337126070557,50.0,66.76154003564523,50.0,50.0,50.0,50.0,50.0,0.0,24.78984672408401,0.0,30.805388304594622,0.0,-22.652731890947084,0.0,-11.624209138367991,0.0,0.0,0.0,0.0,0.0
3.85,50.0,40.39897821423131,50.0,25.578251487928306,50.0,50.20235124127913,50.0,66.64868277395095,50.0,50.0,50.0,50.0,50.0,0.0,25.64107595855729,0.0,31.482999894199178,0.0,-23.61954126436523,0.0,-10.947243200484792,0.0,0.0,0.0,0.0,0.0
3.86,50.0,40.65964511998924,50.0,25.89646954481831,50.0,49.9613217817684,50.0,66.54259517163553,50.0,50.0,50.0,50.0,50.0,0.0,26.492305193030536,0.0,32.160611483803706,0.0,-24.586350637783326,0.0,-10.270277262601622,0.0,0.0,0.0,0.0,0.0
3.87,50.0,40.92882431809192,50.0,26.22146371760438,50.0,49.710624228523464,50.0,66.44327722869892,50.0,50.0,50.0,50.0,50.0,0.0,27.343534427503812,0.0,32.838223073408265,0.0,-25.553160011201467,0.0,-9.593311324718423,0.0,0.0,0.0,0.0,0.0
3.88,50.0,41.20651580853932,50.0,26.552849086450937,50.0,49.45025858154437,50.0,66.35072894514116,50.0,50.0,50.0,50.0,50.0,0.0,28.194763661977053,0.0,33.28743757825417,0.0,-26.519969384619568,0.0,-8.916345386835253,0.0,0.0,0.0,0.0,0.0
3.89,50.0,41.492719591331465,50.0,26.885723462233486,50.0,49.18022484083108,50.0,66.26495032096221,50.0,50.0,50.0,50.0,50.0,0.0,29.045992896450333,0.0,33.28743757825417,0.0,-27.486778758037712,0.0,-8.239379448952054,0.0,0.0,0.0,0.0,0.0
3.9,50.0,41.787435666468326,50.0,27.21859783801602,50.0,48.90052300638362,50.0,66.18594135616212,50.0,50.0,50.0,50.0,50.0,0.0,29.897222130923577,0.0,33.28743757825417,0.0,-28.45358813145581,0.0,-7.562413511068884,0.0,0.0,0.0,0.0,0.0
3.91,50.0,42.090664033949935,50.0,27.55147221379857,50.0,48.61115307820196,50.0,66.11370205074084,50.0,50.0,50.0,50.0,50.0,0.0,30.748451365396853,0.0,33.28743757825417,0.0,-29.420397504873954,0.0,-6.885447573185684,0.0,0.0,0.0,0.0,0.0
3.92,50.0,42.40240469377626,50.0,27.884346589581106,50.0,48.31211505628613,50.0,66.04823240469841,50.0,50.0,50.0,50.0,50.0,0.0,31.599680599870094,0.0,33.28743757825417,0.0,-30.387206878292055,0.0,-6.2084816353025145,0.0,0.0,0.0,0.0,0.0
3.93,50.0,42.722657645947336,50.0,28.217220965363655,50.0,48.00340894063611,50.0,65.98953241803478,50.0,50.0,50.0,50.0,50.0,0.0,32.45090983434338,0.0,33.28743757825417,0.0,-31.354016251710192,0.0,-5.531515697419315,0.0,0.0,0.0,0.0,0.0
3.94,50.0,43.05142289046313,50.0,28.55009534114619,50.0,47.68503473125194,50.0,65.93760209075,50.0,50.0,50.0,50.0,50.0,0.0,33.302139068816615,0.0,33.28743757825417,0.0,-32.32082562512829,0.0,-4.8545497595361455,0.0,0.0,0.0,0.0,0.0
3.95,50.0,43.38870042732367,50.0,28.882969716928738,50.0,47.356992428133545,50.0,65.89244142284407,50.0,50.0,50.0,50.0,50.0,0.0,34.1533683032899,0.0,33.28743757825417,0.0,-33.28763499854644,0.0,-4.177583821652946,0.0,0.0,0.0,0.0,0.0
3.96,50.0,43.73449025652893,50.0,29.215844092711272,50.0,47.019282031281,50.0,65.85405041431696,50.0,50.0,50.0,50.0,50.0,0.0,35.00459753776314,0.0,33.28743757825417,0.0,-34.25444437196454,0.0,-3.500617883769776,0.0,0.0,0.0,0.0,0.0
3.97,50.0,44.088792378078935,50.0,29.548718468493824,50.0,46.67190354069426,50.0,65.82242906516868,50.0,50.0,50.0,50.0,50.0,0.0,35.85582677223642,0.0,33.28743757825417,0.0,-35.22125374538268,0.0,-2.823651945886576,0.0,0.0,0.0,0.0,0.0
3.98,50.0,44.45160679197366,50.0,29.881592844276355,50.0,46.31485695637335,50.0,65.79757737539921,50.0,50.0,50.0,50.0,50.0,0.0,36.70705600670966,0.0,33.28743757825417,0.0,-36.18806311880078,0.0,-2.1466860080034067,0.0,0.0,0.0,0.0,0.0
3.99,50.0,44.82293349821313,50.0,30.214467220058907,50.0,45.948142278318244,50.0,65.77949534500861,50.0,50.0,50.0,50.0,50.0,0.0,37.55828524118294,0.0,33.28743757825417,0.0,-37.15487249221892,0.0,-1.4697200701202071,0.0,0.0,0.0,0.0,0.0
4.0,50.0,45.202772496797316,50.0,30.547341595841445,50.0,45.57175950652898,50.0,65.76818297399682,50.0,50.0,50.0,50.0,50.0,0.0,38.40951447565618,0.0,33.28743757825417,0.0,-38.12168186563702,0.0,-0.7927541322370377,0.0,0.0,0.0,0.0,0.0
4.01,50.0,45.59112378772623,50.0,30.880215971623976,50.0,45.18570864100552,50.0,65.76364026236386,50.0,50.0,50.0,50.0,50.0,0.0,39.260743710129425,0.0,33.28743757825417,0.0,-39.088491239055124,0.0,-0.11578819435386813,0.0,0.0,0.0,0.0,0.0
4.02,50.0,45.98798737099989,50.0,31.21309034740651,50.0,44.790075043084386,50.0,65.74409984929467,50.0,50.0,50.0,50.0,50.0,0.0,40.11197294460266,0.0,33.28743757825417,0.0,-39.92682638139362,0.0,-4.690549360522951,0.0,0.0,0.0,0.0,0.0
4.03,50.0,46.39336324661831,50.0,31.545964723189073,50.0,44.39080677927042,50.0,65.66890258731793,50.0,50.0,50.0,50.0,50.0,0.0,40.963202179075985,0.0,33.28743757825417,0.0,-39.92682638139362,0.0,-10.348903034822232,0.0,0.0,0.0,0.0,0.0
4.04,50.0,46.80312123099535,50.0,31.878839098971607,50.0,43.99153851545649,50.0,65.53712178859823,50.0,50.0,50.0,50.0,50.0,0.0,40.975893040878496,0.0,33.28743757825417,0.0,-39.92682638139362,0.0,-16.00725670912101,0.0,0.0,0.0,0.0,0.0
4.05,50.0,47.21288016140413,50.0,32.21171347475414,50.0,43.59227025164256,50.0,65.34875745313552,50.0,50.0,50.0,50.0,50.0,0.0,40.975893040878496,0.0,33.28743757825417,0.0,-39.92682638139362,0.0,-21.665610383419786,0.0,0.0,0.0,0.0,0.0
4.06,50.0,47.6226390918129,50.0,32.54458785053668,50.0,43.19300198782864,50.0,65.10380958092983,50.0,50.0,50.0,50.0,50.0,0.0,40.975893040878496,0.0,33.28743757825417,0.0,-39.92682638139362,0.0,-27.323964057718566,0.0,0.0,0.0,0.0,0.0
4.07,50.0,48.03239802222171,50.0,32.87746222631924,50.0,42.79373372401467,50.0,64.80227817198113,50.0,50.0,50.0,50.0,50.0,0.0,40.975893040878496,0.0,33.28743757825417,0.0,-39.92682638139362,0.0,-32.98231773201785,0.0,0.0,0.0,0.0,0.0
4.08,50.0,48.4421569526305,50.0,33.210336602101776,50.0,42.39446546020075,50.0,64.44416322628946,50.0,50.0,50.0,50.0,50.0,0.0,40.975893040878496,0.0,33.28743757825417,0.0,-39.92682638139362,0.0,-38.64067140631663,0.0,0.0,0.0,0.0,0.0
4.09,50.0,48.85191588303927,50.0,33.54321097788431,50.0,41.995197196386826,50.0,64.02946474385482,50.0,50.0,50.0,50.0,50.0,0.0,40.975893040878496,0.0,33.28743757825417,0.0,-39.92682638139362,0.0,-44.2990250806154,0.0,0.0,0.0,0.0,0.0
4.1,50.0,49.261674813448046,50.0,33.876085353666845,50.0,41.595928932572896,50.0,63.55818272467718,50.0,50.0,50.0,50.0,50.0,0.0,40.975893040878496,0.0,33.28743757825417,0.0,-39.92682638139362,0.0,-49.95737875491419,0.0,0.0,0.0,0.0,0.0
4.11,50.0,49.67143374385686,50.0,34.208959729449404,50.0,41.19666066875893,50.0,63.030317168756504,50.0,50.0,50.0,50.0,50.0,0.0,40.975893040878496,0.0,33.28743757825417,0.0,-39.92682638139362,0.0,-55.615732429213466,0.0,0.0,0.0,0.0,0.0
4.12,50.0,50.08119267426564,50.0,34.54183410523194,50.0,40.797392404945,50.0,62.445868076092886,50.0,50.0,50.0,50.0,50.0,0.0,40.975893040878496,0.0,33.28743757825417,0.0,-39.92682638139362,0.0,-61.27408610351224,0.0,0.0,0.0,0.0,0.0
4.13,50.0,50.49095160467441,50.0,34.87470848101448,50.0,40.39812414113107,50.0,61.80483544668628,50.0,50.0,50.0,50.0,50.0,0.0,40.975893040878496,0.0,33.28743757825417,0.0,-39.92682638139362,0.0,-66.93243977781103,0.0,0.0,0.0,0.0,0.0
4.14,50.0,50.900710535083185,50.0,35.20758285679702,50.0,39.99885587731715,50.0,61.1072192805367,50.0,50.0,50.0,50.0,50.0,0.0,40.975893040878496,0.0,33.28743757825417,0.0,-39.92682638139362,0.0,-72.5907934521098,0.0,0.0,0.0,0.0,0.0
4.15,50.0,51.310469465492,50.0,35.54045723257958,50.0,39.59958761350318,50.0,60.353019577644055,50.0,50.0,50.0,50.0,50.0,0.0,40.975893040878496,0.0,33.28743757825417,0.0,-39.92682638139362,0.0,-78.24914712640908,0.0,0.0,0.0,0.0,0.0
4.16,50.0,51.720228395900776,50.0,35.87333160836211,50.0,39.20031934968926,50.0,59.54223633800848,50.0,50.0,50.0,50.0,50.0,0.0,40.975893040878496,0.0,33.28743757825417,0.0,-39.92682638139362,0.0,-83.90750080070787,0.0,0.0,0.0,0.0,0.0
4.17,50.0,52.12998732630955,50.0,36.206205984144646,50.0,38.80105108587533,50.0,58.67486956162993,50.0,50.0,50.0,50.0,50.0,0.0,40.975893040878496,0.0,33.28743757825417,0.0,-39.92682638139362,0.0,-89.56585447500663,0.0,0.0,0.0,0.0,0.0
4.18,50.0,52.53974625671833,50.0,36.53908035992718,50.0,38.4017828220614,50.0,57.75112063769488,50.0,50.0,50.0,50.0,50.0,0.0,40.975893040878496,0.0,33.28743757825417,0.0,-39.92682638139362,0.0,-94.74681287422054,0.0,0.0,0.0,0.0,0.0
4.19,50.0,52.949505187127144,50.0,36.87195473570974,50.0,38.00251455824744,50.0,56.80365250895262,50.0,50.0,50.0,50.0,50.0,0.0,40.975893040878496,0.0,33.28743757825417,0.0,-39.92682638139362,0.0,-94.74681287422054,0.0,0.0,0.0,0.0,0.0
4.2,50.0,53.359264117535915,50.0,37.20482911149228,50.0,37.603246294433504,50.0,55.85618438021043,50.0,50.0,50.0,50.0,50.0,0.0,40.975893040878496,0.0,33.28743757825417,0.0,-39.92682638139362,0.0,-94.74681287422054,0.0,0.0,0.0,0.0,0.0
4.21,50.0,53.7690230479447,50.0,37.53770348727482,50.0,37.20397803061958,50.0,54.90871625146824,50.0,50.0,50.0,50.0,50.0,0.0,40.975893040878496,0.0,33.28743757825417,0.0,-39.92682638139362,0.0,-94.74681287422054,0.0,0.0,0.0,0.0,0.0
4.22,50.0,54.17878197835347,50.0,37.87057786305735,50.0,36.80470976680566,50.0,53.96124812272606,50.0,50.0,50.0,50.0,50.0,0.0,40.975893040878496,0.0,33.28743757825417,0.0,-39.92682638139362,0.0,-94.74681287422054,0.0,0.0,0.0,0.0,0.0
4.23,50.0,54.58854090876228,50.0,38.203452238839915,50.0,36.40544150299169,50.0,53.01377999398379,50.0,50.0,50.0,50.0,50.0,0.0,40.975893040878496,0.0,33.28743757825417,0.0,-39.92682638139362,0.0,-94.74681287422054,0.0,0.0,0.0,0.0,0.0
4.24,50.0,54.99829983917106,50.0,38.536326614622446,50.0,36.00617323917777,50.0,52.0663118652416,50.0,50.0,50.0,50.0,50.0,0.0,40.975893040878496,0.0,33.28743757825417,0.0,-39.92682638139362,0.0,-94.74681287422054,0.0,0.0,0.0,0.0,0.0
4.25,50.0,55.40805876957984,50.0,38.86920099040498,50.0,35.60690497536383,50.0,51.11884373649942,50.0,50.0,50.0,50.0,50.0,0.0,40.975893040878496,0.0,33.28743757825417,0.0,-39.92682638139362,0.0,-94.74681287422054,0.0,0.0,0.0,0.0,0.0
