milky766/affetto/tests/data/reference_trajectory_000.csv
t,rq0,rq1,rq2,rq3,rq4,rq5,rq6,rq7,rq8,rq9,rq10,rq11,rq12,rdq0,rdq1,rdq2,rdq3,rdq4,rdq5,rdq6,rdq7,rdq8,rdq9,rdq10,rdq11,rdq12,rpa0,rpa1,rpa2,rpa3,rpa4,rpa5,rpa6,rpa7,rpa8,rpa9,rpa10,rpa11,rpa12,rpb0,rpb1,rpb2,rpb3,rpb4,rpb5,rpb6,rpb7,rpb8,rpb9,rpb10,rpb11,rpb12,q0,q1,q2,q3,q4,q5,q6,q7,q8,q9,q10,q11,q12,dq0,dq1,dq2,dq3,dq4,dq5,dq6,dq7,dq8,dq9,dq10,dq11,dq12,pa0,pa1,pa2,pa3,pa4,pa5,pa6,pa7,pa8,pa9,pa10,pa11,pa12,pb0,pb1,pb2,pb3,pb4,pb5,pb6,pb7,pb8,pb9,pb10,pb11,pb12,ca0,ca1,ca2,ca3,ca4,ca5,ca6,ca7,ca8,ca9,ca10,ca11,ca12,cb0,cb1,cb2,cb3,cb4,cb5,cb6,cb7,cb8,cb9,cb10,cb11,cb12,qdes0,qdes1,qdes2,qdes3,qdes4,qdes5,qdes6,qdes7,qdes8,qdes9,qdes10,qdes11,qdes12,dqdes0,dqdes1,dqdes2,dqdes3,dqdes4,dqdes5,dqdes6,dqdes7,dqdes8,dqdes9,dqdes10,dqdes11,dqdes12
0.0,0.2,0.6,1.0,4.3,0.8,0.0,0.5,1.3,0.0,0.2,0.3,0.0,0.2,0.2725656082606609,-0.8505256363833369,-6.004769420373646,-0.9826009469460217,4.513746437329158,0.0,1.1509913235077163,-8.738465289709685,-0.007543659886878846,0.1952143657525801,0.4595070800051171,0.0,-0.3369198363303072,2.4,46.6,5.1,0.5,1.8,1.2,11.5,1.8,1.5,4.5,4.2,2.1,3.6,556.9,551.4,557.8,562.1,556.3,558.4,564.5,560.5,561.5,552.9,559.0,553.8,556.3,0.27290053070283277,0.8268386398614989,0.864842420205016,4.298660516229314,0.8612531970624197,0.0,0.35286675106078697,0.9868534303351707,-0.00010296640458412518,0.24889576601250502,0.5443757479577774,0.0,0.23545932903743097,0.2725656082606609,-0.8505256363833369,-6.004769420373646,-0.9826009469460217,4.513746437329158,0.0,1.1509913235077163,-8.738465289709685,-0.007543659886878846,0.1952143657525801,0.4595070800051171,0.0,-0.3369198363303072,2.932424582254397,46.06408206542684,4.890118908230852,0.49999999674803797,1.4286373879435033,1.4279209775040778,11.301168781004545,1.6711974180533278,2.2825781585660723,3.898817680925414,4.372528050097671,2.0695778726434484,3.519195067638815,554.6920703306065,548.1702779907183,555.8770744321987,559.776673708579,553.6179823560765,555.8293619532524,561.3337693211862,557.3409923059921,558.4046289150862,552.357554831681,555.963396333117,550.6364784049778,553.7224302574749,169.99235337628446,170.00867825327828,0.0,0.0,0.0,0.0,169.95910527827576,170.07430666574453,170.00035588818542,169.983867074864,169.9903116378484,170.0,170.01311628922832,170.00764662371554,169.99132174672172,0.0,0.0,0.0,0.0,170.04089472172424,169.92569333425547,169.99964411181455,170.01613292513596,170.0096883621516,170.0,169.98688371077168,0.27017487462022616,0.8353438962253322,0.9248901144087525,4.3084865256987745,0.8161157326891281,0.0,0.3413568378257098,1.0742380832322675,-2.752980571533672e-05,0.24694362235497921,0.5397806771577263,0.0,0.23882852740073404,0.0,0.0,0.0,0.0,0.0,0.0,0.0,0.0,0.0,0.0,0.0,0.0,0.0
0.03333333333333333,0.4,0.3,1.1,4.3,0.8,0.0,0.5,0.9,0.0,0.4,0.2,0.0,0.0,-2.1387203589040644,-10.60185205393671,2.711113665757303,-0.533250788322448,-1.8856373205091592,0.0,4.072837076003166,6.656214447059439,0.004911913867722041,-1.3413864446444739,-6.325127712662404,0.0,-0.1183570702092962,2.4,46.0,4.8,0.5,1.5,1.5,11.2,2.1,1.5,4.2,4.2,1.8,3.3,558.7,552.9,558.7,563.6,557.8,559.9,565.4,561.8,563.0,552.6,560.5,555.4,557.5,0.22267180331836892,0.5386373193309805,0.8457676032015241,4.2775725926109125,0.8892103873443682,0.0,0.4582227379821615,1.0343496326071175,-4.6533125292514424e-05,0.21565428348069993,0.3979791352296996,0.0,0.23901351001213003,-2.1387203589040644,-10.60185205393671,2.711113665757303,-0.533250788322448,-1.8856373205091592,0.0,4.072837076003166,6.656214447059439,0.004911913867722041,-1.3413864446444739,-6.325127712662404,0.0,-0.1183570702092962,2.471637056640896,46.25647681708545,4.915276468430946,0.5000000047056182,1.0609296847269354,1.4429347112333486,11.397453319491182,1.8553052976553919,3.186239704861857,3.551748073343818,4.657267096027008,1.9799331033862078,3.616336698163613,556.3849515329756,550.0714677514278,557.1209133494358,561.2334402901909,555.2987023417276,557.3934383773659,563.0620825595549,559.4162184396896,559.963332541612,552.5126205147199,557.6961947189782,552.3022270972009,555.450903373604,170.1099567334695,170.23791054129484,0.0,0.0,0.0,0.0,169.7530393967102,170.0158518547203,169.99993043198242,170.13398529621873,170.23220823805332,170.0,170.00276967364323,169.8900432665305,169.76208945870516,0.0,0.0,0.0,0.0,170.24696060328978,169.98414814527968,170.00006956801758,169.86601470378127,169.76779176194668,170.0,169.99723032635677,0.27017487462022616,0.8353438962253322,0.9248901144087525,4.3084865256987745,0.8161157326891281,0.0,0.3413568378257098,1.0742380832322675,-2.752980571533672e-05,0.24694362235497921,0.5397806771577263,0.0,0.23882852740073404,0.0,0.0,0.0,0.0,0.0,0.0,0.0,0.0,0.0,0.0,0.0,0.0,0.0
0.06666666666666667,0.1,0.7,1.0,4.2,0.7,0.0,0.6,1.3,0.0,0.1,0.3,0.0,0.3,0.024489203156938255,3.3730668022995456,3.6244316323984505,0.4962464544059131,-5.731128011245589,0.0,2.2052841083669006,2.239006269120991,0.0011430220966554099,0.7790953627210689,-1.2555482485506864,0.0,-1.6183315562724814,3.0,46.0,5.1,0.5,1.2,1.5,11.2,1.8,1.8,4.2,4.5,2.1,3.9,559.6,555.1,559.3,564.5,557.5,561.5,566.7,562.4,564.5,553.2,561.8,556.9,558.7,0.19754289112574294,0.4837118350640262,0.9787609038614419,4.281832243445494,0.7235669997801105,0.0,0.5527184535946855,1.2193237410027489,4.7118520353162724e-05,0.21260966472735238,0.29124806541738696,0.0,0.2046162189719612,0.024489203156938255,3.3730668022995456,3.6244316323984505,0.4962464544059131,-5.731128011245589,0.0,2.2052841083669006,2.239006269120991,0.0011430220966554099,0.7790953627210689,-1.2555482485506864,0.0,-1.6183315562724814,2.6547618507647535,46.51752633836711,4.873274221801482,0.49999999977432114,1.1908433465413213,1.3969940273530175,11.5102585219608,1.7767013423261837,2.0052205226341586,4.148317415964105,4.222226087743483,1.946796673107251,4.248384794679379,557.3925299525135,552.1922794911613,557.6348813492925,562.6562803951799,556.7623974205106,558.8383457541695,564.5803568411981,562.1744783166318,561.8277037534154,552.1420819765581,559.3809043268878,553.9254044352695,556.841426066105,170.13874000128948,170.22786470138598,0.0,0.0,0.0,0.0,169.66740457122737,169.89752938579014,169.99979562304816,169.99019723972103,170.32349012479224,170.0,170.08721458490479,169.86125999871052,169.77213529861402,0.0,0.0,0.0,0.0,170.33259542877263,170.10247061420986,170.00020437695184,170.00980276027897,169.67650987520773,170.0,169.91278541509521,0.27017487462022616,0.8353438962253322,0.9248901144087525,4.3084865256987745,0.8161157326891281,0.0,0.3413568378257098,1.0742380832322675,-2.752980571533672e-05,0.24694362235497921,0.5397806771577263,0.0,0.23882852740073404,0.0,0.0,0.0,0.0,0.0,0.0,0.0,0.0,0.0,0.0,0.0,0.0,0.0
0.1,0.3,0.7,1.1,4.3,0.6,0.0,0.5,1.3,0.0,0.3,0.3,0.0,0.2,-1.0163355989185523,4.850753511929651,-0.13389678323481036,-0.8885170583081248,3.49670632044472,0.0,-1.9723583557321067,-6.877412856344744,-0.001426766047157783,-0.6361150797811882,3.662433509437635,0.0,1.1000436564152671,2.4,50.0,6.3,0.2,2.1,2.1,16.7,1.8,1.5,3.9,4.2,2.1,4.2,560.9,555.4,559.6,552.0,546.8,544.7,567.0,563.3,565.7,552.9,563.0,558.1,559.3,0.18315587549194148,0.7823252088226673,0.995278057640896,4.279949429055779,0.7314783819123551,0.0,0.5249990182533667,0.9035918565466549,-1.1885791459249813e-05,0.2309149422479778,0.4194513336636333,0.0,0.18613843676135391,-1.0163355989185523,4.850753511929651,-0.13389678323481036,-0.8885170583081248,3.49670632044472,0.0,-1.9723583557321067,-6.877412856344744,-0.001426766047157783,-0.6361150797811882,3.662433509437635,0.0,1.1000436564152671,2.8480134889006763,46.212827143591575,4.89796590120758,0.4965464872400396,1.871728239865085,1.5102098967819582,11.089457695167138,1.9646486845841324,1.3149504982777676,4.246588063282035,3.894720234149027,2.182593654211774,3.8642169528039565,559.2689342876057,554.386045438109,558.9492156415811,564.0472502997308,558.3295585868588,560.9286100556712,566.0383837202488,562.8126716060078,564.1858462514006,552.6593846445517,561.4683900884019,556.2238786671965,558.4235967113767,170.17558151312227,170.01980149877107,0.0,0.0,0.0,0.0,169.79695767134731,170.12778299945063,169.99999611878377,170.0652224123898,170.12045870836656,170.0,170.0427116784901,169.8244184868777,169.98019850122893,0.0,0.0,0.0,0.0,170.20304232865266,169.87221700054937,170.00000388121623,169.9347775876102,169.87954129163344,170.0,169.9572883215099,0.27017487462022616,0.8353438962253322,0.9248901144087525,4.3084865256987745,0.8161157326891281,0.0,0.3413568378257098,1.0742380832322675,-2.752980571533672e-05,0.24694362235497921,0.5397806771577263,0.0,0.23882852740073404,0.0,0.0,0.0,0.0,0.0,0.0,0.0,0.0,0.0,0.0,0.0,0.0,0.0
0.13333333333333333,0.1,0.6,1.0,4.4,0.9,0.0,0.4,1.4,0.0,0.1,0.3,0.0,0.3,1.8126026953074748,-3.9151579914525003,-2.939885354565741,0.18434951656889353,3.671574789317489,0.0,-2.952126933590576,7.281664573771174,0.0006389526441089281,0.18118960213743818,-1.3735667219412828,0.0,1.7778771232407646,36.3,106.4,17.6,11.8,14.9,14.3,57.6,50.9,32.3,33.8,33.2,26.2,34.4,543.8,534.0,535.8,509.9,506.2,510.5,542.8,543.8,555.4,544.4,548.3,543.2,542.2,0.19936648435885482,0.71873012425001,0.9457896864094454,4.263120669763423,0.8611128491369598,0.0,0.43975453347798377,1.003726947250653,-9.923785383712705e-06,0.22094772251894323,0.42682613847038103,0.0,0.244587422036599,1.8126026953074748,-3.9151579914525003,-2.939885354565741,0.18434951656889353,3.671574789317489,0.0,-2.952126933590576,7.281664573771174,0.0006389526441089281,0.18118960213743818,-1.3735667219412828,0.0,1.7778771232407646,3.069417209495649,47.671726614884236,5.254195061495175,0.5200250076679009,1.7115253372626755,1.7928550367801868,12.47850687706833,2.651821611298684,2.4563988402840184,4.22913716177195,4.6248002078507895,2.6016293145399345,4.0061970815166035,561.0854722983732,554.7323893788206,559.2714683728035,562.2645787068373,556.6908668535348,558.7333851413882,566.1829432499518,562.5622925582958,565.2628044795034,553.0281608168265,562.52151116567,557.303443070656,559.2195590044108,170.11936054295418,170.09288990407444,0.0,0.0,0.0,0.0,169.93309389997134,170.03564467992695,169.99994315929362,170.02119137488864,170.15403521156531,170.0,169.9469299378614,169.88063945704582,169.90711009592553,0.0,0.0,0.0,0.0,170.06690610002863,169.96435532007305,170.00005684070635,169.97880862511136,169.84596478843466,170.0,170.0530700621386,0.27017487462022616,0.8353438962253322,0.9248901144087525,4.3084865256987745,0.8161157326891281,0.0,0.3413568378257098,1.0742380832322675,-2.752980571533672e-05,0.24694362235497921,0.5397806771577263,0.0,0.23882852740073404,0.0,0.0,0.0,0.0,0.0,0.0,0.0,0.0,0.0,0.0,0.0,0.0,0.0
0.16666666666666666,0.2,0.4,0.9,4.3,0.4,0.0,0.6,1.1,0.0,0.2,0.4,0.0,0.3,0.8935020078180311,-3.6183834763319656,1.4086074747143074,2.4694893987411426,-3.6825933457647397,0.0,0.08388003783811881,2.310681517804203,-1.1221843905865792e-05,0.11881865900686406,-1.6463921274903648,0.0,-0.05765771324995339,142.5,254.2,47.9,41.7,43.6,43.9,170.5,192.5,140.0,141.8,138.2,118.7,133.9,509.6,486.4,492.5,447.6,446.4,441.8,505.6,493.7,532.8,506.2,512.3,507.1,506.8,0.28677478531006856,0.5958782514126346,0.8826589565767231,4.3505012596732655,0.8170373546427868,0.0,0.3933350438779356,1.1993273225054455,6.59028339406063e-06,0.2320514623414774,0.35390253491004836,0.0,0.2676996130635181,0.8935020078180311,-3.6183834763319656,1.4086074747143074,2.4694893987411426,-3.6825933457647397,0.0,0.08388003783811881,2.310681517804203,-1.1221843905865792e-05,0.11881865900686406,-1.6463921274903648,0.0,-0.05765771324995339,22.05226333288515,83.5569730365106,12.160080663281104,6.537827959323111,9.022885833790745,9.2103725605398,40.229849130706924,30.14825985320877,19.982925424293573,21.607658390992253,21.462003888937954,16.390892299563127,21.991492976579323,552.1343208614728,543.8178098844195,544.5494952365738,529.1335902393241,525.496366480397,523.8844045040886,551.6382651143144,553.7816492591433,560.5668739871502,546.5380441468542,555.6935114502805,549.8463572380656,550.8757736369431,169.9603880860588,170.1755015625717,0.0,0.0,0.0,0.0,169.92833952043563,169.91104456560748,169.99991904638807,170.01122550944774,170.24817111900185,170.0,169.96269640364275,170.0396119139412,169.8244984374283,0.0,0.0,0.0,0.0,170.07166047956437,170.08895543439252,170.00008095361193,169.98877449055223,169.75182888099815,170.0,170.03730359635725,0.27017487462022616,0.8353438962253322,0.9248901144087525,4.3084865256987745,0.8161157326891281,0.0,0.3413568378257098,1.0742380832322675,-2.752980571533672e-05,0.24694362235497921,0.5397806771577263,0.0,0.23882852740073404,0.0,0.0,0.0,0.0,0.0,0.0,0.0,0.0,0.0,0.0,0.0,0.0,0.0
0.2,0.0,1.2,1.1,4.3,0.7,0.0,0.5,0.3,0.0,0.2,0.6,0.0,0.3,-1.8134987128350433,-3.1230162960102,3.639624526888585,-1.1011517139426275,-3.938814345358066,0.0,2.9719880801271468,1.971443747897128,-0.0002504498954353533,0.3570961778545906,-0.9071680223574186,0.0,-0.3243307719086208,242.9,368.0,57.9,52.4,53.0,53.6,272.2,311.2,245.6,252.9,246.8,217.5,238.3,484.6,451.0,465.0,404.9,405.2,401.2,480.3,459.5,513.9,477.8,483.9,479.4,479.7,0.2508932921621069,0.4725237496814126,1.0011350147891338,4.357165789996306,0.6870561402265695,0.0,0.4513856295059232,1.2633918500292245,-1.068046330162115e-06,0.24094555443020083,0.31421686856196446,0.0,0.2550424202205182,-1.8134987128350433,-3.1230162960102,3.639624526888585,-1.1011517139426275,-3.938814345358066,0.0,2.9719880801271468,1.971443747897128,-0.0002504498954353533,0.3570961778545906,-0.9071680223574186,0.0,-0.3243307719086208,79.55934297076263,170.23857188635213,30.680900020272706,24.865702880420866,27.58258532941608,27.421568200071608,105.08677536248378,109.1158172960719,75.7340245909499,77.43896771125964,75.53844351155664,63.45162327777364,74.94143516339047,529.0955863068125,513.1589328502612,514.4028999216656,479.0007797622241,477.76505882889006,474.4322816033123,525.6163851656985,522.5820227955203,546.020380564984,527.3229058457619,533.2692800686699,527.7902022463396,527.2788953649276,170.05317961780867,170.25782173418565,0.0,0.0,0.0,0.0,169.78655039620264,169.86799307881944,169.9999428595454,169.98313965513555,170.29190814699277,170.0,169.9864951766267,169.94682038219133,169.74217826581432,0.0,0.0,0.0,0.0,170.21344960379733,170.13200692118053,170.00005714045457,170.01686034486443,169.70809185300723,170.0,170.0135048233733,0.27017487462022616,0.8353438962253322,0.9248901144087525,4.3084865256987745,0.8161157326891281,0.0,0.3413568378257098,1.0742380832322675,-2.752980571533672e-05,0.24694362235497921,0.5397806771577263,0.0,0.23882852740073404,0.0,0.0,0.0,0.0,0.0,0.0,0.0,0.0,0.0,0.0,0.0,0.0,0.0
0.23333333333333334,0.5,1.3,1.1,4.3,1.0,0.0,0.5,0.6,0.0,0.4,0.6,0.0,0.3,-1.7531126332223061,8.202878397131386,-2.526278094429668,-1.8188431365476987,2.2347392058724713,0.0,2.5888981033886926,-4.36313732804785,7.323524768638173e-05,-1.2153116244737805,2.0687868375364404,0.0,1.0845257704934164,325.9,431.5,52.4,46.6,48.8,49.7,353.6,382.6,333.8,335.9,337.5,306.6,326.5,468.1,426.0,438.5,367.4,368.3,365.5,460.1,431.8,499.2,457.1,460.1,457.1,457.7,0.19402432607862874,0.5969076220611655,0.9792699757730388,4.297278190073087,0.684238434529204,0.0,0.5483577320797759,1.2144826063980583,-1.8928251710175254e-06,0.224645508686442,0.34350600215179694,0.0,0.2748305696578638,-1.7531126332223061,8.202878397131386,-2.526278094429668,-1.8188431365476987,2.2347392058724713,0.0,2.5888981033886926,-4.36313732804785,7.323524768638173e-05,-1.2153116244737805,2.0687868375364404,0.0,1.0845257704934164,173.683643119722,291.53588649029626,52.06067649960992,46.642875236667486,47.864991296043165,47.86422209202769,202.351665227677,230.14284131867166,172.36012162616169,175.5521753648388,171.14408893607643,148.6201485428136,166.03384472672255,501.25906786516276,472.9972361191697,481.72018716390596,431.0519388427554,430.76707999897025,426.73523466233473,496.8870873974607,481.2835972924235,526.3177339076182,497.272421303368,502.51728221133504,497.61863880688,497.1500986077682,170.1614349336659,170.13481372734392,0.0,0.0,0.0,0.0,169.6647831509319,169.91197246917986,169.99993725093097,170.11384541689,170.22985021736454,170.0,169.92399385010108,169.8385650663341,169.86518627265605,0.0,0.0,0.0,0.0,170.3352168490681,170.0880275308201,170.00006274906903,169.88615458311,169.77014978263546,170.0,170.07600614989892,0.27017487462022616,0.8353438962253322,0.9248901144087525,4.3084865256987745,0.8161157326891281,0.0,0.3413568378257098,1.0742380832322675,-2.752980571533672e-05,0.24694362235497921,0.5397806771577263,0.0,0.23882852740073404,0.0,0.0,0.0,0.0,0.0,0.0,0.0,0.0,0.0,0.0,0.0,0.0,0.0
0.26666666666666666,0.6,1.0,1.1,4.3,0.6,0.0,0.7,0.6,0.0,0.3,0.4,0.0,0.4,7.9285168356638955,7.378109949916955,1.8151473510342964,0.6453810134207316,3.110214243678344,0.0,-0.8936399585266597,-3.5390291806736474,1.5093725368773955e-05,1.395686807476909,2.0720880062455094,0.0,0.6350222129931304,386.0,444.6,42.7,36.3,39.6,40.2,407.0,401.9,387.8,385.1,395.1,371.0,390.0,447.6,406.7,407.0,323.1,325.0,322.8,440.3,413.1,482.1,435.1,437.6,434.8,433.9,0.3357338005564671,0.9794547331235636,0.952150794489832,4.29352250778623,0.844884859150485,0.0,0.5538747524585684,0.9627151185923504,1.031050224933306e-06,0.2145572117880008,0.4521062580644061,0.0,0.30251691494148936,7.9285168356638955,7.378109949916955,1.8151473510342964,0.6453810134207316,3.110214243678344,0.0,-0.8936399585266597,-3.5390291806736474,1.5093725368773955e-05,1.395686807476909,2.0720880062455094,0.0,0.6350222129931304,302.0842253362038,418.0701049317929,56.879112178326395,51.675752632829756,52.639334599306764,53.30008098046036,330.20972899461276,366.32760399964735,307.9712442746536,312.91063685581,310.13822231122464,278.9769216193089,300.19456606508743,471.17387925004556,432.2844193436632,446.74691347350705,379.58602304488807,379.7680513060229,376.61763661914017,466.06561758277485,440.7182013305813,503.4962759018081,461.9221943865937,467.37565763269816,463.13474180456126,464.08591690944354,169.8039791581737,169.8774369068575,0.0,0.0,0.0,0.0,169.7343378837315,170.08181129484518,169.99993164509644,169.94496447974316,170.09324029712056,170.0,169.89827342910144,170.19602084182628,170.1225630931425,0.0,0.0,0.0,0.0,170.2656621162685,169.91818870515482,170.00006835490356,170.05503552025684,169.90675970287944,170.0,170.10172657089856,0.27017487462022616,0.8353438962253322,0.9248901144087525,4.3084865256987745,0.8161157326891281,0.0,0.3413568378257098,1.0742380832322675,-2.752980571533672e-05,0.24694362235497921,0.5397806771577263,0.0,0.23882852740073404,0.0,0.0,0.0,0.0,0.0,0.0,0.0,0.0,0.0,0.0,0.0,0.0,0.0
0.3,0.8,2.7,1.0,4.4,1.0,0.0,0.6,0.4,0.1,0.3,0.3,0.0,0.5,7.679993120020378,5.542381384949846,2.8439719086552184,0.172064021275542,-1.3078717863336808,0.0,0.041486770470022805,2.6983312059342346,0.012784447387814233,1.7261529749223126,-0.6047166911263502,0.0,2.8556150704886316,395.8,445.5,35.9,29.5,33.5,33.8,414.7,401.2,387.8,389.6,401.6,383.5,399.4,435.4,402.2,385.4,294.4,296.3,294.7,429.6,404.9,472.4,424.4,425.7,422.0,424.1,0.6061585559717132,1.1293703543316362,1.0511420230405997,4.306150427739031,0.843542381132917,0.0,0.5349444246149898,1.0296863970773007,0.00012822899763968566,0.2796172800904583,0.4539105633453974,0.0,0.36688609704665337,7.679993120020378,5.542381384949846,2.8439719086552184,0.172064021275542,-1.3078717863336808,0.0,0.041486770470022805,2.6983312059342346,0.012784447387814233,1.7261529749223126,-0.6047166911263502,0.0,2.8556150704886316,364.97016959097374,448.04664593834576,47.358484956201586,41.45995446149928,44.10339469613891,44.93444512649447,389.74083420355595,403.0581244788416,371.08777271398765,371.2659762617035,377.0646259431241,348.04778881005143,368.5430292653183,456.1664287124034,414.7794703225171,421.9220919842338,344.6522466959401,345.7672889985812,343.1982428121873,449.305596692428,421.93770612103106,490.2749110317526,444.6966086560675,448.09330773036277,444.4295571595279,445.5468385485259,169.28886709453957,169.78163579256113,0.0,0.0,0.0,0.0,169.7390950133146,170.02568246039147,169.99933039724098,169.83780117084183,170.11375981580312,170.0,169.75520049966806,170.71113290546043,170.21836420743884,0.0,0.0,0.0,0.0,170.26090498668538,169.9743175396085,170.00066960275902,170.16219882915817,169.88624018419688,170.0,170.24479950033194,0.27017487462022616,0.8353438962253322,0.9248901144087525,4.3084865256987745,0.8161157326891281,0.0,0.3413568378257098,1.0742380832322675,-2.752980571533672e-05,0.24694362235497921,0.5397806771577263,0.0,0.23882852740073404,0.0,0.0,0.0,0.0,0.0,0.0,0.0,0.0,0.0,0.0,0.0,0.0,0.0
0.3333333333333333,0.8,2.1,0.9,4.3,1.0,0.0,0.3,1.0,1.1,0.3,0.4,0.0,0.5,0.5919180004813396,20.473111631167516,-3.9562397957618956,0.18941663611027337,2.0140356134362714,0.0,2.1708731949399485,-7.461771760100621,2.794122785521314,-2.031940556156653,-0.2510087369880454,0.0,2.5494002054015197,397.0,444.6,30.2,23.7,27.4,28.3,416.2,402.5,382.9,390.0,402.2,386.3,399.1,426.3,400.6,364.9,268.5,269.4,269.7,422.0,401.2,464.7,416.5,416.8,414.1,415.3,0.6796282711708541,1.585856190884564,0.99661364905023,4.308487252768141,0.8517372798107924,0.0,0.5876211745638014,0.8931448845141832,0.037919481394490494,0.25103445196391694,0.44566156740833174,0.0,0.45173977183998026,0.5919180004813396,20.473111631167516,-3.9562397957618956,0.18941663611027337,2.0140356134362714,0.0,2.1708731949399485,-7.461771760100621,2.794122785521314,-2.031940556156653,-0.2510087369880454,0.0,2.5494002054015197,393.044991789592,445.4408961966352,39.676723571206274,33.185340579849004,36.842917572910004,37.5072914201329,413.29381941187944,402.78340872153376,392.2605401019425,389.64686591472474,401.7227531912439,379.32570790981737,397.84062123610954,443.43728159105586,404.69050244089703,398.6716621519505,312.85494663009945,314.79291215245416,312.6973785465699,436.3409330080386,409.66646193573933,478.74453697221776,431.3674410989507,433.2423759356212,429.8344468713741,430.96197624656736,169.21144331696956,169.42020576668781,0.0,0.0,0.0,0.0,169.62129069815256,170.13586443566422,169.8443653691427,170.1366602631641,170.12117053570338,170.0,169.64905049348033,170.78855668303044,170.57979423331219,0.0,0.0,0.0,0.0,170.3787093018474,169.86413556433578,170.1556346308573,169.86333973683588,169.8788294642966,170.0,170.35094950651964,0.27017487462022616,0.8353438962253322,0.9248901144087525,4.3084865256987745,0.8161157326891281,0.0,0.3413568378257098,1.0742380832322675,-2.752980571533672e-05,0.24694362235497921,0.5397806771577263,0.0,0.23882852740073404,0.0,0.0,0.0,0.0,0.0,0.0,0.0,0.0,0.0,0.0,0.0,0.0,0.0
0.36666666666666664,0.8,2.7,0.7,4.3,0.8,0.0,0.6,0.9,2.2,0.3,0.3,0.0,0.5,2.972488713011079,5.94784295357047,-0.02223348317091922,-0.7180158711255658,-0.3508886168010372,0.0,-2.3185080738701624,7.363305312763557,24.9996817444989,1.095354031812945,-1.1185473130570445,0.0,0.562833940760632,396.4,444.9,24.0,17.9,21.6,21.9,416.5,401.9,375.0,390.0,402.2,386.3,398.5,417.1,400.0,339.9,238.0,240.4,240.4,415.3,400.0,458.0,408.0,409.2,405.8,408.3,0.7429050079848735,2.172930323789424,0.9022718870982767,4.297638426303293,0.9399462144676601,0.0,0.5688485338412101,0.9166852761023331,0.6711885921905114,0.2271796702086257,0.40175581769651375,0.0,0.5051476345255789,2.972488713011079,5.94784295357047,-0.02223348317091922,-0.7180158711255658,-0.3508886168010372,0.0,-2.3185080738701624,7.363305312763557,24.9996817444989,1.095354031812945,-1.1185473130570445,0.0,0.562833940760632,397.9304835346849,443.466721085049,32.12737315053626,25.83007895551837,29.552856515093357,30.063225944457077,416.2208840182332,400.64835419964487,385.0190818864112,389.8540344925854,402.08197401031765,386.31569087062985,399.85530573651823,428.9580050942858,400.4501822678641,371.7267026323428,276.4046492724319,278.6754618910589,277.5858265611692,424.02373363122746,401.8330018387726,466.8099279325882,418.55417227987766,419.1618066277581,416.08502742619856,417.8857714606613,169.06897905389675,169.069926490431,0.0,0.0,0.0,0.0,169.74571768068373,170.09470790631482,167.81798731135618,169.9495518867447,170.1838367073027,170.0,169.62798117364193,170.93102094610325,170.930073509569,0.0,0.0,0.0,0.0,170.25428231931627,169.90529209368515,172.18201268864382,170.0504481132553,169.81616329269727,170.0,170.37201882635804,0.27017487462022616,0.8353438962253322,0.9248901144087525,4.3084865256987745,0.8161157326891281,0.0,0.3413568378257098,1.0742380832322675,-2.752980571533672e-05,0.24694362235497921,0.5397806771577263,0.0,0.23882852740073404,0.0,0.0,0.0,0.0,0.0,0.0,0.0,0.0,0.0,0.0,0.0,0.0,0.0
0.4,0.7,3.1,0.9,4.3,1.0,0.0,0.6,1.3,3.4,0.2,0.3,0.0,0.5,1.4108501300719167,8.733743838005203,0.2456311687202839,-0.006648661685293433,-4.6294747758513495,0.0,1.3394924479877224,7.648220826082963,30.98911851232744,-0.7132137592403859,-0.475696822494448,0.0,0.024648490896617137,395.8,445.2,21.0,14.6,17.9,18.6,417.1,403.1,370.1,389.6,402.5,386.0,398.2,412.2,400.3,322.5,216.9,219.4,220.6,411.6,399.7,454.3,401.2,406.1,401.9,404.0,0.8190050150224488,2.31861493389409,0.9234488462608915,4.286872264818463,0.8176597028330536,0.0,0.5556762721941612,1.1916346627008059,1.5787623251221037,0.24005624176506435,0.3822842314583421,0.0,0.5065958117840688,1.4108501300719167,8.733743838005203,0.2456311687202839,-0.006648661685293433,-4.6294747758513495,0.0,1.3394924479877224,7.648220826082963,30.98911851232744,-0.7132137592403859,-0.475696822494448,0.0,0.024648490896617137,396.62377765553276,444.63303100863703,26.67981827082438,20.676749316050458,24.256918667213164,24.91398908023647,416.03849882939426,403.01765343664056,378.38475182861794,389.47940312858543,401.6761753679978,386.3401426254606,397.9231243857475,420.95872557270883,400.2208386666637,352.1795650104076,252.41323749891245,254.12583844628563,254.5381536989881,417.9982545264271,400.14153524405657,460.9384139087603,411.7990817604502,412.302092948356,410.067213084433,411.24870090454755,168.93714216198046,168.96088458039992,0.0,0.0,0.0,0.0,169.68256621654263,169.9072180522182,165.5176232496868,170.05898775244128,170.20293466961,170.0,169.6397600005553,171.06285783801954,171.03911541960008,0.0,0.0,0.0,0.0,170.31743378345735,170.0927819477818,174.4823767503132,169.9410122475587,169.79706533039,170.0,170.36023999944467,0.27017487462022616,0.8353438962253322,0.9248901144087525,4.3084865256987745,0.8161157326891281,0.0,0.3413568378257098,1.0742380832322675,-2.752980571533672e-05,0.24694362235497921,0.5397806771577263,0.0,0.23882852740073404,0.0,0.0,0.0,0.0,0.0,0.0,0.0,0.0,0.0,0.0,0.0,0.0,0.0
0.43333333333333335,0.9,4.2,0.9,4.4,0.7,0.0,0.5,1.1,4.7,0.3,0.4,0.0,0.6,-2.7160452085564835,26.59877926311922,-0.6992112092771618,0.48573597162953064,3.142953438102447,0.0,3.501037134247431,-4.086698976801539,31.897944790055675,-2.025284641937064,0.909822193821852,0.0,0.7573040761761907,395.1,443.4,18.2,11.8,15.2,15.8,417.1,402.2,367.4,390.0,401.6,386.6,398.2,408.3,400.6,306.3,197.4,200.7,202.9,409.5,400.6,451.9,398.8,404.6,399.4,401.9,0.7666617314556108,2.9754847285728188,0.901799526667501,4.299784717751653,0.8282700766143108,0.0,0.6585527420333276,1.174869390441268,2.511066134795373,0.17704207388335877,0.39537378904428255,0.0,0.522765890190305,-2.7160452085564835,26.59877926311922,-0.6992112092771618,0.48573597162953064,3.142953438102447,0.0,3.501037134247431,-4.086698976801539,31.897944790055675,-2.025284641937064,0.909822193821852,0.0,0.7573040761761907,396.48596493335646,444.5680680573842,22.656444353535637,16.66893450058481,20.184206188058393,20.81017608895102,416.83886150364316,402.70052404645514,373.84024478409435,390.00106170960277,402.57872700244104,386.5834535522153,398.25459647298067,415.9608950246023,400.1596839021947,333.8253311307461,230.55980397744918,232.5391066796565,233.6693039835849,413.7113144956934,399.9493792954886,456.7865232920042,405.64451205922285,407.9202971113892,404.9394561274188,406.3955435003444,169.07387022578513,168.45274435169,0.0,0.0,0.0,0.0,169.49663297998228,169.93853358637514,163.27696276101878,170.23200788029055,170.17475246745562,170.0,169.5993608678311,170.92612977421487,171.54725564831,0.0,0.0,0.0,0.0,170.5033670200177,170.06146641362486,176.7230372389812,169.76799211970945,169.82524753254438,170.0,170.4006391321689,0.27017487462022616,0.8353438962253322,0.9248901144087525,4.3084865256987745,0.8161157326891281,0.0,0.3413568378257098,1.0742380832322675,-2.752980571533672e-05,0.24694362235497921,0.5397806771577263,0.0,0.23882852740073404,0.0,0.0,0.0,0.0,0.0,0.0,0.0,0.0,0.0,0.0,0.0,0.0,0.0
0.4666666666666667,0.6,5.2,0.5,4.5,1.3,0.0,0.6,0.4,6.0,0.3,0.6,0.0,0.5,1.8505500575888845,18.398487566568456,1.2842751729311153,1.4316175740527903,-4.764052943831453,0.0,-2.3241269835836187,4.402780665059014,42.92838484926236,1.5294615245011467,-1.131503403309303,0.0,0.9593221626907789,394.8,441.8,16.1,9.1,12.8,13.4,415.9,402.2,367.1,390.0,402.2,386.0,397.6,402.5,402.2,285.3,173.9,177.2,180.3,408.0,400.3,448.5,397.9,402.8,397.9,400.3,0.7630592878302163,3.880190938512964,0.9346705759584234,4.332212820912636,0.80952206749974,0.0,0.6553897355300675,1.1527990206473315,4.060251593538492,0.19596048694992715,0.3935945691342888,0.0,0.5582361431799725,1.8505500575888845,18.398487566568456,1.2842751729311153,1.4316175740527903,-4.764052943831453,0.0,-2.3241269835836187,4.402780665059014,42.92838484926236,1.5294615245011467,-1.131503403309303,0.0,0.9593221626907789,395.31993713473054,444.0784940389748,19.17365863953009,12.833350084322653,16.174440698902117,16.719624487108618,417.17428993767425,402.3116892122304,368.130174733305,389.858519630999,402.27483068247045,386.3727754514403,397.9940736701334,410.3328920175206,400.64842993488725,311.5511621454849,203.86434317896496,206.69166361489303,208.27348110501734,409.9983589882573,400.0858997985455,452.71567006663116,399.0550165274497,404.60577483136404,399.7413709894919,402.24076876292526,169.03979356059273,167.8643898727046,0.0,0.0,0.0,0.0,169.62961702472023,169.93908261172515,159.3312020235125,169.95991215553704,170.19440412277393,170.0,169.54657285685985,170.96020643940727,172.1356101272954,0.0,0.0,0.0,0.0,170.37038297527974,170.06091738827485,180.6687979764875,170.04008784446293,169.80559587722607,170.0,170.45342714314012,0.27017487462022616,0.8353438962253322,0.9248901144087525,4.3084865256987745,0.8161157326891281,0.0,0.3413568378257098,1.0742380832322675,-2.752980571533672e-05,0.24694362235497921,0.5397806771577263,0.0,0.23882852740073404,0.0,0.0,0.0,0.0,0.0,0.0,0.0,0.0,0.0,0.0,0.0,0.0,0.0
0.5,0.8,5.4,1.0,4.4,0.6,0.0,0.7,1.1,7.2,0.2,0.4,0.0,0.6,-0.7160858059567565,19.663746439035634,-5.550092984102439,2.4548785641027138,1.791067378510669,0.0,-1.0735791877326095,1.4044366689533128,41.99088746054809,0.7434988624825806,1.7017600522111154,0.0,0.36323012103124386,394.8,442.1,14.3,8.2,10.9,11.5,416.2,402.5,366.1,389.6,402.2,386.9,397.3,404.3,403.4,271.9,158.6,162.0,164.7,407.3,400.3,446.4,399.4,402.5,397.0,399.7,0.7846188592473222,4.432600306753204,0.8584721972884654,4.400943379266467,0.7511330153365916,0.0,0.5962748745647288,1.2830286498744496,5.3578319814841855,0.2294915913028082,0.40062450887479056,0.0,0.5761771586949155,-0.7160858059567565,19.663746439035634,-5.550092984102439,2.4548785641027138,1.791067378510669,0.0,-1.0735791877326095,1.4044366689533128,41.99088746054809,0.7434988624825806,1.7017600522111154,0.0,0.36323012103124386,394.5224637488661,442.9892818537474,16.950490480133094,10.443625405704342,13.658697549640886,14.443787088975592,417.0846304479809,402.7966339285499,366.6173159908466,389.74291565532445,402.03423517414967,386.4455987609378,397.77240054926943,406.3050244702443,401.4225700659175,295.53617171319576,185.51701107099774,188.46341710614405,191.00922434425058,408.71673017153506,400.09019880395067,450.3264043728304,397.53042917700105,403.30802683317506,398.1885175737697,400.83908643598113,169.0212494666462,167.48322655495528,0.0,0.0,0.0,0.0,169.68137117670838,169.8555526598514,156.2637361565168,169.97141013524444,170.16153686057996,170.0,169.53767842008563,170.9787505333538,172.51677344504472,0.0,0.0,0.0,0.0,170.3186288232916,170.14444734014856,183.7362638434832,170.02858986475556,169.83846313942004,170.0,170.46232157991437,0.27017487462022616,0.8353438962253322,0.9248901144087525,4.3084865256987745,0.8161157326891281,0.0,0.3413568378257098,1.0742380832322675,-2.752980571533672e-05,0.24694362235497921,0.5397806771577263,0.0,0.23882852740073404,0.0,0.0,0.0,0.0,0.0,0.0,0.0,0.0,0.0,0.0,0.0,0.0,0.0
0.5333333333333333,0.7,6.3,0.8,4.4,0.8,0.0,0.6,1.1,8.5,0.2,0.6,0.0,0.5,-1.9821540013024719,19.81123537265521,-6.564988920327652,0.21457862358849056,4.857167964336617,0.0,1.3615421518824888,-5.0552459483310885,36.38939281957079,-0.6364249568618641,1.7638626473990782,0.0,0.5527523047580307,395.1,440.6,13.1,7.0,10.0,10.3,417.1,403.4,365.2,389.6,402.2,386.6,397.3,403.4,403.7,259.0,144.3,147.3,151.6,407.0,400.0,444.9,401.6,401.9,396.7,399.4,0.7148670631440406,5.042181713635636,0.6179491816904793,4.4356716884293,0.9232258268634176,0.0,0.6184632408278796,1.1496092054190596,6.493997789300903,0.22054364721371236,0.4739864162205327,0.0,0.5903956734089907,-1.9821540013024719,19.81123537265521,-6.564988920327652,0.21457862358849056,4.857167964336617,0.0,1.3615421518824888,-5.0552459483310885,36.38939281957079,-0.6364249568618641,1.7638626473990782,0.0,0.5527523047580307,394.59595404258357,442.40576639740027,14.790582938662634,8.707532568833876,11.813343328740002,12.665624208796132,416.65823694481674,402.73107324548414,366.58306033304353,389.91560893175244,402.25743512047353,386.18433071420964,397.6887171275245,404.53363918860634,402.41298811480175,280.53512659068906,168.82889695596688,171.7227334238428,174.93794060183393,407.8112520623058,400.11540934184393,448.00442762082247,398.2055669325596,402.67742491400355,397.34165626767043,400.0028535036723,169.16576044115706,167.066779411043,0.0,0.0,0.0,0.0,169.5977560192115,169.95723371634892,153.68921649076555,170.07920991316092,170.0687476716408,170.0,169.51375013913957,170.83423955884294,172.933220588957,0.0,0.0,0.0,0.0,170.4022439807885,170.04276628365108,186.31078350923443,169.92079008683908,169.93125232835916,170.0,170.48624986086043,0.27017487462022616,0.8353438962253322,0.9248901144087525,4.3084865256987745,0.8161157326891281,0.0,0.3413568378257098,1.0742380832322675,-2.752980571533672e-05,0.24694362235497921,0.5397806771577263,0.0,0.23882852740073404,0.0,0.0,0.0,0.0,0.0,0.0,0.0,0.0,0.0,0.0,0.0,0.0,0.0
0.5666666666666667,0.8,7.0,0.7,4.4,1.0,0.0,0.9,1.7,10.1,0.2,0.3,0.0,0.6,1.6616681697681268,23.33576702658151,9.31600338505122,-0.9492858083057776,-5.82798742533488,0.0,0.8844697821749459,6.01090170476124,42.27957691226489,-0.7982395895960198,-1.0585148553751644,0.0,-0.9877113834599105,395.1,439.7,11.8,5.7,8.5,9.1,417.1,400.9,360.7,389.6,402.2,386.6,397.3,402.5,404.0,243.2,126.9,130.2,134.5,407.0,400.3,444.6,402.8,402.2,396.4,399.1,0.7592423629546208,5.882470203527863,0.8076638926131431,4.395674644390071,0.7830911556850901,0.0,0.6753795886056007,1.2370640480966255,8.056914492361557,0.20934607749362927,0.45430587075902557,0.0,0.5810079051965986,1.6616681697681268,23.33576702658151,9.31600338505122,-0.9492858083057776,-5.82798742533488,0.0,0.8844697821749459,6.01090170476124,42.27957691226489,-0.7982395895960198,-1.0585148553751644,0.0,-0.9877113834599105,394.36100944155703,441.37985868195943,13.214841147866515,7.268233691726236,10.00699397514001,9.967401541427309,416.75365256995474,402.53607802937324,365.28984348389685,389.90568220555014,402.2500234294374,386.6241770950354,397.4186050902755,404.23110008935174,403.45346376163127,262.95778410457905,150.0300077988365,151.9771931806153,155.6953788157164,406.93813911285804,400.219952779138,445.51335647070465,400.4269184752134,402.5563778382762,396.71770748970624,399.32826426943086,169.04816371370998,166.48168380734845,0.0,0.0,0.0,0.0,169.53186066351654,169.87889661148986,149.83007958413478,170.10503874371497,170.11753233339772,170.0,169.56563973589837,170.95183628629002,173.51831619265153,0.0,0.0,0.0,0.0,170.46813933648346,170.1211033885101,190.16992041586522,169.89496125628503,169.88246766660228,170.0,170.43436026410163,0.27017487462022616,0.8353438962253322,0.9248901144087525,4.3084865256987745,0.8161157326891281,0.0,0.3413568378257098,1.0742380832322675,-2.752980571533672e-05,0.24694362235497921,0.5397806771577263,0.0,0.23882852740073404,0.0,0.0,0.0,0.0,0.0,0.0,0.0,0.0,0.0,0.0,0.0,0.0,0.0
0.6,0.6,7.9,0.7,4.4,0.8,0.0,0.6,0.6,11.0,0.3,0.5,0.0,0.5,-1.2277053814769845,25.253415396052237,0.6687240586114362,0.37510855807862953,4.715458993923782,0.0,0.06203985238909526,6.498947050453441,42.939440926170924,-2.344401640098764,-2.917023859227219,0.0,-1.3684180236488097,394.5,440.0,9.7,4.8,7.9,8.2,416.8,402.8,357.3,389.6,401.9,386.3,397.3,405.8,404.9,231.9,115.3,118.3,122.9,407.0,400.6,444.9,403.4,402.2,396.7,399.1,0.745743202287258,6.634471629658181,0.9459211572784045,4.394383696088426,0.8058719734363442,0.0,0.6769453898465664,1.4442602595459573,9.371146957766864,0.13983407993947772,0.38733443759035024,0.0,0.5378707055684063,-1.2277053814769845,25.253415396052237,0.6687240586114362,0.37510855807862953,4.715458993923782,0.0,0.06203985238909526,6.498947050453441,42.939440926170924,-2.344401640098764,-2.917023859227219,0.0,-1.3684180236488097,394.30316344192556,439.889923506363,12.15178223218032,6.529436623988384,9.006730894930861,9.08418447316249,416.8914273188649,402.5156880098872,362.85531086857895,389.7598065060207,402.1716370364578,387.5279813391132,397.365634017419,403.2168361746633,403.7431743989333,250.65995576904314,135.89918019063913,138.33885781166228,142.84509704610528,406.8578883334519,400.18941265583743,444.5705305174292,402.1863301336421,402.2937444266047,397.1275682553154,399.21628072086185,169.09956640089192,165.96183112969425,0.0,0.0,0.0,0.0,169.5479334938982,169.73704770307668,146.68479062056647,170.30285245156372,170.21764451250846,170.0,169.63328101432387,170.90043359910808,174.03816887030573,0.0,0.0,0.0,0.0,170.4520665061018,170.2629522969233,193.3152093794335,169.69714754843625,169.78235548749151,170.0,170.36671898567613,0.27017487462022616,0.8353438962253322,0.9248901144087525,4.3084865256987745,0.8161157326891281,0.0,0.3413568378257098,1.0742380832322675,-2.752980571533672e-05,0.24694362235497921,0.5397806771577263,0.0,0.23882852740073404,0.0,0.0,0.0,0.0,0.0,0.0,0.0,0.0,0.0,0.0,0.0,0.0,0.0
0.6333333333333333,0.8,9.3,0.8,4.5,0.9,0.0,0.6,1.3,11.8,0.3,0.4,0.0,0.6,-0.10843800362373424,29.86470243992496,-4.907178674751089,0.8834329795310403,4.179944986617512,0.0,0.3561486668642533,-6.3528500230325635,32.387462065073436,2.930953054087529,0.6870121404531415,0.0,-0.14376978175045796,394.5,438.5,10.3,3.9,7.0,7.6,417.1,402.8,355.2,389.6,401.9,386.3,397.3,401.6,406.1,221.2,104.6,107.7,112.9,406.7,400.6,445.8,403.7,402.2,396.4,399.1,0.7294035241498136,7.468053572173443,0.8176332837513657,4.419042545914027,0.9851792224797219,0.0,0.6899931073379417,1.4148583643240535,10.455807653425873,0.17156307442234517,0.35222723840651915,0.0,0.520103780592978,-0.10843800362373424,29.86470243992496,-4.907178674751089,0.8834329795310403,4.179944986617512,0.0,0.3561486668642533,-6.3528500230325635,32.387462065073436,2.930953054087529,0.6870121404531415,0.0,-0.14376978175045796,394.51061413410196,439.2245083737335,11.202503561554003,5.461304914472518,8.174507729559169,8.732427313247316,416.89989226498733,401.9941006721209,359.61514926692166,389.7435481949373,402.1770128067833,387.0184296072457,397.41475804419946,402.96702284413055,404.29505432702865,239.00735550203433,121.97184173167072,125.93399624494461,130.71352857028182,407.0016411167812,400.34320525551465,444.5661550122891,403.17850095197565,402.1352626677904,396.8295202689654,399.1892610194702,169.1206314018064,165.3770619115449,0.0,0.0,0.0,0.0,169.52391060450736,169.77877323595695,144.34772880579973,169.894332959518,170.23125477329592,170.0,169.62591346439746,170.8793685981936,174.6229380884551,0.0,0.0,0.0,0.0,170.47608939549264,170.22122676404302,195.65227119420024,170.105667040482,169.76874522670408,170.0,170.37408653560254,0.27017487462022616,0.8353438962253322,0.9248901144087525,4.3084865256987745,0.8161157326891281,0.0,0.3413568378257098,1.0742380832322675,-2.752980571533672e-05,0.24694362235497921,0.5397806771577263,0.0,0.23882852740073404,0.0,0.0,0.0,0.0,0.0,0.0,0.0,0.0,0.0,0.0,0.0,0.0,0.0
0.6666666666666666,0.6,10.2,1.0,4.5,0.9,0.0,0.7,0.7,12.6,0.2,0.5,0.0,0.6,1.188495040607418,33.76416435893077,1.5969653311951326,1.0077189455770963,-4.738501074921309,0.0,-0.6411636916955676,-6.043717877361643,25.292203690715276,1.33744737617858,3.199184325726756,0.0,1.6905283292565576,394.2,435.7,9.4,3.6,6.0,6.7,416.8,402.5,353.6,389.6,401.9,386.3,397.3,402.5,408.6,207.5,92.4,95.5,100.0,407.0,400.6,447.0,404.3,402.2,396.4,398.5,0.7523871744968252,8.800829425715744,0.7800749644361754,4.446246251352519,0.8630720985266325,0.0,0.6796498133762181,1.0212726413522812,11.533248039097797,0.28193005098234225,0.4937972921711148,0.0,0.5694050396210898,1.188495040607418,33.76416435893077,1.5969653311951326,1.0077189455770963,-4.738501074921309,0.0,-0.6411636916955676,-6.043717877361643,25.292203690715276,1.33744737617858,3.199184325726756,0.0,1.6905283292565576,394.53383493277994,438.61301051833505,10.291884861976307,4.009761995480636,7.187886035310405,7.703192079457969,416.82325758838743,402.41806747060696,355.8259408325232,389.62489037759275,401.73384213083546,386.1271181917759,397.35966791546,402.93552890642553,405.80747912434157,224.73192634785823,107.62495290792283,111.16056237176495,115.92624866302101,407.0787437360874,400.7024606002096,445.50945253376364,403.60836479688857,402.2688619474389,396.18435149592807,399.1011139753458,169.0648951028705,164.45480789553147,0.0,0.0,0.0,0.0,169.55984225142214,170.04590401118037,141.9468215313428,169.86272885154548,170.03182572502382,170.0,169.51292727169204,170.93510489712946,175.54519210446853,0.0,0.0,0.0,0.0,170.44015774857786,169.95409598881963,198.0531784686572,170.13727114845452,169.96817427497615,170.0,170.48707272830796,0.27017487462022616,0.8353438962253322,0.9248901144087525,4.3084865256987745,0.8161157326891281,0.0,0.3413568378257098,1.0742380832322675,-2.752980571533672e-05,0.24694362235497921,0.5397806771577263,0.0,0.23882852740073404,0.0,0.0,0.0,0.0,0.0,0.0,0.0,0.0,0.0,0.0,0.0,0.0,0.0
0.7,0.8,10.8,0.9,4.6,0.8,0.0,0.6,1.7,12.8,0.0,0.4,0.0,0.6,0.23559684185584517,27.158238645095167,6.203047546312456,1.4781039150402187,0.11503813724795808,0.0,-1.157202624256204,5.192197977239932,21.49300837011765,-1.5134328224073568,-1.308086448499457,0.0,-0.4130785267632442,394.5,434.8,8.8,2.4,5.4,6.0,416.5,402.5,352.1,389.3,399.1,386.6,400.0,402.5,409.2,196.2,84.5,86.6,91.8,406.7,400.9,453.4,404.0,402.2,396.4,399.1,0.7794954612008292,9.694300161638871,0.9285437145436775,4.493191175913843,0.8123433404595877,0.0,0.6506632226244428,1.087435036576538,12.228052458998985,0.26211842032302074,0.4999259688407065,0.0,0.5827479029992852,0.23559684185584517,27.158238645095167,6.203047546312456,1.4781039150402187,0.11503813724795808,0.0,-1.157202624256204,5.192197977239932,21.49300837011765,-1.5134328224073568,-1.308086448499457,0.0,-0.4130785267632442,394.3549485645496,436.97228445942625,9.848211777848796,3.477114411727294,6.419423385882506,7.179419825576118,416.738030036947,403.0100305678504,354.6832164613369,389.5099994522883,401.83268328931246,386.40038486928466,397.3735759905027,402.17109698885906,407.16904791025377,214.28290064890487,98.6320942026993,101.11616105011475,106.13873880738777,407.1230980281642,400.76529320387465,446.36751979018504,403.7506210401537,402.3643157203172,396.2667482283641,399.03088408866904,169.02133865972368,163.86669589740055,0.0,0.0,0.0,0.0,169.61017570321135,169.9818080385109,140.3793947355993,170.08699829189524,170.06244458960543,170.0,169.5486497810036,170.97866134027632,176.13330410259945,0.0,0.0,0.0,0.0,170.38982429678865,170.0181919614891,199.62060526440067,169.91300170810476,169.93755541039454,170.0,170.45135021899637,0.27017487462022616,0.8353438962253322,0.9248901144087525,4.3084865256987745,0.8161157326891281,0.0,0.3413568378257098,1.0742380832322675,-2.752980571533672e-05,0.24694362235497921,0.5397806771577263,0.0,0.23882852740073404,0.0,0.0,0.0,0.0,0.0,0.0,0.0,0.0,0.0,0.0,0.0,0.0,0.0
0.7333333333333333,0.8,12.4,1.1,4.8,1.0,0.0,0.5,1.1,12.6,0.2,0.6,0.0,0.5,-1.3988244994605603,20.448935162218085,-0.4327311288527369,0.930389039661339,3.0597305341507286,0.0,-1.8619276961225562,8.849865003948953,11.245899214046062,-2.783107573876234,-3.1869935629368182,0.0,-1.0540515955365315,393.9,433.0,8.5,2.1,4.8,5.7,416.5,402.5,352.1,389.6,401.9,386.3,397.6,403.7,411.3,188.5,76.8,79.3,84.5,407.0,402.2,447.9,401.9,403.1,396.1,399.4,0.7448868517679605,10.363617341644026,1.0063437837584304,4.5202779154759165,0.8868778386896512,0.0,0.5967145552120338,1.3266048831315909,12.680955301825113,0.18692404888901665,0.4116834448633737,0.0,0.5467271409602955,-1.3988244994605603,20.448935162218085,-0.4327311288527369,0.930389039661339,3.0597305341507286,0.0,-1.8619276961225562,8.849865003948953,11.245899214046062,-2.783107573876234,-3.1869935629368182,0.0,-1.0540515955365315,394.1118495419747,435.31505554984,9.29835927021819,3.0495734586165613,5.702085129560591,6.6186649379992515,416.84490763335225,402.8586377205112,353.4563310341347,389.5351777410823,401.74949506336725,386.4988623494533,397.6886097441033,402.35381424547495,408.5797664068038,204.01039822576817,89.76426000966785,92.07802898473508,97.1026894118147,407.02692435853237,400.6268153442711,447.75955741039485,403.8834780107551,402.34083165490955,396.41648222106284,398.97100081296435,169.101913083145,163.4311322338674,0.0,0.0,0.0,0.0,169.69820318763448,169.8128687041961,139.5383174373446,170.27277839322272,170.18947883656537,170.0,169.6133704776757,170.898086916855,176.5688677661326,0.0,0.0,0.0,0.0,170.30179681236552,170.1871312958039,200.4616825626554,169.72722160677725,169.81052116343463,170.0,170.38662952232428,0.27017487462022616,0.8353438962253322,0.9248901144087525,4.3084865256987745,0.8161157326891281,0.0,0.3413568378257098,1.0742380832322675,-2.752980571533672e-05,0.24694362235497921,0.5397806771577263,0.0,0.23882852740073404,0.0,0.0,0.0,0.0,0.0,0.0,0.0,0.0,0.0,0.0,0.0,0.0,0.0
0.7666666666666666,0.7,12.7,0.9,5.3,1.0,0.0,0.6,1.4,13.0,0.0,0.1,0.0,0.6,1.5819806938429104,25.91812935602782,3.2828949596081958,7.419653215622812,-1.525291300519438,0.0,0.6074019246447571,-1.9691387835717222,-2.4050563732158636,1.1841978878503412,1.429227601287919,0.0,0.2599385156123568,393.3,432.1,8.2,0.2,4.8,5.1,416.2,402.2,351.5,389.3,401.9,386.0,396.7,403.4,412.2,176.9,68.9,69.8,75.3,407.0,400.9,450.4,404.0,402.2,396.1,399.4,0.7599894834019055,11.278837924256408,0.9905769551704603,4.695361355210583,0.9312190215455209,0.0,0.580364444464473,1.4540046220601062,12.75511457536465,0.15680120717368914,0.397065875251834,0.0,0.5490769537894271,1.5819806938429104,25.91812935602782,3.2828949596081958,7.419653215622812,-1.525291300519438,0.0,0.6074019246447571,-1.9691387835717222,-2.4050563732158636,1.1841978878503412,1.429227601287919,0.0,0.2599385156123568,394.25906564538707,434.03818802500234,8.540845343760662,2.1170360643424355,5.006898296075977,5.844521458091285,416.7683589144761,402.3845055286947,351.69990477654454,389.65970781340224,401.41481211603104,386.2511200182728,397.9872641246484,402.71723936877504,410.2578268332105,191.35266176483884,79.35337871081072,81.3136685063592,87.2839373794812,406.8412088489826,400.9027116537483,449.29373181849405,403.58884442079204,402.3734975135207,396.2979893175798,399.2125532150829,169.0462174425861,162.78663618946248,0.0,0.0,0.0,0.0,169.66558920174947,169.7445000675403,139.67819898547538,170.03537512877412,170.1686905130316,170.0,169.57670793121187,170.9537825574139,177.21336381053752,0.0,0.0,0.0,0.0,170.3344107982505,170.2554999324597,200.32180101452462,169.96462487122585,169.8313094869684,170.0,170.42329206878813,0.27017487462022616,0.8353438962253322,0.9248901144087525,4.3084865256987745,0.8161157326891281,0.0,0.3413568378257098,1.0742380832322675,-2.752980571533672e-05,0.24694362235497921,0.5397806771577263,0.0,0.23882852740073404,0.0,0.0,0.0,0.0,0.0,0.0,0.0,0.0,0.0,0.0,0.0,0.0,0.0
0.8,0.8,13.5,1.1,5.9,0.8,0.0,0.6,1.4,12.7,0.0,0.6,0.0,0.6,0.16294423869521735,27.126928730244515,6.146339585831728,13.080957164777818,-5.670954200386224,0.0,1.977007404137121,-5.231470313479747,-0.2875585529883651,0.5014039997757819,-0.8899279317369613,0.0,-0.02675124357897074,394.2,432.1,7.9,0.5,4.2,4.8,416.8,402.5,346.9,389.6,401.9,386.3,397.0,402.5,413.1,169.0,63.7,63.7,69.2,407.0,400.9,454.7,404.3,402.2,396.1,399.1,0.7921418388091395,12.088409908227849,1.1868098150006894,5.040767183716105,0.7732346189461535,0.0,0.6312270968250062,1.3004945297773034,12.701234145280019,0.20080552522886153,0.40438109102462727,0.0,0.5517736590111041,0.16294423869521735,27.126928730244515,6.146339585831728,13.080957164777818,-5.670954200386224,0.0,1.977007404137121,-5.231470313479747,-0.2875585529883651,0.5014039997757819,-0.8899279317369613,0.0,-0.02675124357897074,394.142848303963,432.62756985602886,8.156635149045615,1.1910603425082238,4.694904537789954,5.34024907269032,416.5797744005686,402.2937898692068,351.65778411229184,389.467605298058,402.0540263927244,386.1476280430703,397.2857257284889,402.78789190886954,411.71060476191883,182.79072236009665,72.69234697227138,73.99598636294078,81.251074551634,406.9362493767867,401.06404326179074,448.887215947917,403.65591273858746,402.35921979010976,395.97572037243316,399.2766953024054,168.99716912727217,162.22819128004548,0.0,0.0,0.0,0.0,169.56701237853252,169.8543559667016,139.75423887942304,170.0262142490403,170.17925833844424,170.0,169.58039684495853,171.0028308727278,177.7718087199545,0.0,0.0,0.0,0.0,170.43298762146748,170.1456440332984,200.24576112057693,169.9737857509597,169.82074166155576,170.0,170.41960315504144,0.27017487462022616,0.8353438962253322,0.9248901144087525,4.3084865256987745,0.8161157326891281,0.0,0.3413568378257098,1.0742380832322675,-2.752980571533672e-05,0.24694362235497921,0.5397806771577263,0.0,0.23882852740073404,0.0,0.0,0.0,0.0,0.0,0.0,0.0,0.0,0.0,0.0,0.0,0.0,0.0
0.8333333333333334,0.9,13.5,0.8,7.0,1.1,0.0,0.7,1.0,12.7,0.4,0.5,0.0,0.6,-2.1299744071965,23.123764266034286,-0.9329614066013736,16.633897022179678,2.2708685838961573,0.0,0.49262420671803975,0.23252247696770034,1.7340148429383362,-3.798828548720674,0.6101973651306714,0.0,-1.6143059976214569,393.3,431.2,7.6,0.5,3.9,4.2,416.2,402.2,346.3,389.6,401.9,386.0,397.3,402.2,413.8,161.1,57.9,57.9,63.7,407.0,401.2,458.0,404.0,402.5,396.7,399.4,0.7362948649151358,12.849092357198643,1.2221135911005818,5.494169249934773,0.7535220526689996,0.0,0.6674795138125931,1.245877941182602,12.749763014401129,0.11391490799126987,0.39017131672129624,0.0,0.5184553762816586,-2.1299744071965,23.123764266034286,-0.9329614066013736,16.633897022179678,2.2708685838961573,0.0,0.49262420671803975,0.23252247696770034,1.7340148429383362,-3.798828548720674,0.6101973651306714,0.0,-1.6143059976214569,394.01403385174575,431.89508030262414,7.98695007810281,0.34426745583280993,4.4362740141291255,5.002809776156067,416.542097640986,402.7903964973374,350.2317525916355,389.31308746728575,402.2189058485776,386.2024781920864,396.9782741098495,402.69477707719375,412.82966545016836,174.30329752884697,66.91192166395305,67.63515929277234,73.302429425716,407.0189603643204,400.79200328242285,451.3190953319208,404.26543946292145,402.19054063689583,395.9587344522308,399.36555942835105,169.12424266276318,161.72045329944692,0.0,0.0,0.0,0.0,169.55113025118115,169.88214810165056,139.58877656229436,170.4384971286002,170.18444675347263,170.0,169.66562594489227,170.87575733723682,178.27954670055306,0.0,0.0,0.0,0.0,170.44886974881885,170.11785189834944,200.41122343770562,169.5615028713998,169.81555324652737,170.0,170.33437405510773,0.27017487462022616,0.8353438962253322,0.9248901144087525,4.3084865256987745,0.8161157326891281,0.0,0.3413568378257098,1.0742380832322675,-2.752980571533672e-05,0.24694362235497921,0.5397806771577263,0.0,0.23882852740073404,0.0,0.0,0.0,0.0,0.0,0.0,0.0,0.0,0.0,0.0,0.0,0.0,0.0
0.8666666666666667,0.8,13.6,1.1,9.3,0.8,0.0,0.7,1.3,11.6,0.3,0.4,0.0,0.6,2.867841469904908,5.314652651522422,-2.5653462409256367,37.37785710875263,3.814375657731528,0.0,-1.0946354787898849,-1.523700732821598,-2.815512123055619,6.115073643353585,1.7673263313169207,0.0,2.2880851957656434,396.1,432.1,7.6,0.5,3.6,4.2,416.5,402.5,347.5,389.6,401.9,386.0,397.3,402.5,413.8,151.0,54.9,50.9,56.4,407.0,400.9,459.5,404.0,402.2,395.8,399.4,0.7924517525220273,13.293164512338677,1.1372202795525221,6.626790480988825,0.9482871553906919,0.0,0.6259716464716859,1.2792774961245936,12.745321102114037,0.199605022803487,0.4657760796636463,0.0,0.5363467800568429,2.867841469904908,5.314652651522422,-2.5653462409256367,37.37785710875263,3.814375657731528,0.0,-1.0946354787898849,-1.523700732821598,-2.815512123055619,6.115073643353585,1.7673263313169207,0.0,2.2880851957656434,394.1437647574112,431.8469909939093,7.802120861559386,0.45064622714489705,4.0135416438275575,4.751211243410497,416.5184582829028,402.7760684606735,346.18611247764795,389.5497994075487,401.50179651014446,386.1418699109951,397.43876695553706,402.80854131774475,413.43896135925263,163.5745388681249,60.345022986092744,59.84766685025882,64.82374421743576,407.09253732479726,400.6356197773189,457.5644370344427,404.3699748293164,401.98673487015355,396.18985320631316,399.45834126023357,168.97201514083875,161.47479955443157,0.0,0.0,0.0,0.0,169.6419537560697,169.86235227034624,139.70298511978348,169.63689113578025,170.0795318174325,170.0,169.5420868141908,171.02798485916125,178.5252004455684,0.0,0.0,0.0,0.0,170.3580462439303,170.13764772965376,200.29701488021652,170.36310886421973,169.9204681825675,170.0,170.45791318580916,0.27017487462022616,0.8353438962253322,0.9248901144087525,4.3084865256987745,0.8161157326891281,0.0,0.3413568378257098,1.0742380832322675,-2.752980571533672e-05,0.24694362235497921,0.5397806771577263,0.0,0.23882852740073404,0.0,0.0,0.0,0.0,0.0,0.0,0.0,0.0,0.0,0.0,0.0,0.0,0.0
0.9,0.8,13.6,1.2,11.3,0.9,0.0,0.6,1.4,10.8,0.2,0.7,0.0,0.6,-1.000835438063763,3.6792771217232456,0.3186843091782743,54.44635198919298,-6.10118083741814,0.0,1.688549689300456,-4.218647845706269,-20.82801333440134,1.658885862330567,-0.5153664682403358,0.0,1.9134503935776648,394.2,431.2,7.0,0.5,3.6,3.6,416.5,402.2,347.8,389.6,401.6,385.7,397.6,402.8,414.4,144.3,51.8,46.6,51.8,407.3,400.6,460.8,404.3,402.2,395.4,399.7,0.8044834721773158,13.418243133132195,1.1056346257578253,8.10302033938323,0.8630129485417372,0.0,0.6493924286292493,1.141615282985317,12.321835018341368,0.3199812169085524,0.47900198278086464,0.0,0.6108696309533089,-1.000835438063763,3.6792771217232456,0.3186843091782743,54.44635198919298,-6.10118083741814,0.0,1.688549689300456,-4.218647845706269,-20.82801333440134,1.658885862330567,-0.5153664682403358,0.0,1.9134503935776648,394.1843692374857,431.06052571715503,7.564860681128,0.5813033081587472,3.9551362086700173,4.506721886233665,416.4622057445215,402.18793351004774,346.5901947712744,389.6568090990122,401.40842156838136,385.91741020178216,397.467230576127,403.0177281461745,413.6013085985238,155.88255957378527,56.51344711767406,54.30169475256723,60.048353010661785,407.16559959662357,400.86089718878424,459.4562671841883,404.1684504196244,402.1424271726086,396.64192060050203,399.4829166250621,168.98330533724769,161.39102818335274,0.0,0.0,0.0,0.0,169.54899125341728,169.96052107712495,141.12930581918616,169.79179996824985,170.0823223510524,170.0,169.45155581289265,171.01669466275231,178.60897181664723,0.0,0.0,0.0,0.0,170.4510087465827,170.03947892287505,198.87069418081384,170.20820003175012,169.9176776489476,170.0,170.54844418710735,0.27017487462022616,0.8353438962253322,0.9248901144087525,4.3084865256987745,0.8161157326891281,0.0,0.3413568378257098,1.0742380832322675,-2.752980571533672e-05,0.24694362235497921,0.5397806771577263,0.0,0.23882852740073404,0.0,0.0,0.0,0.0,0.0,0.0,0.0,0.0,0.0,0.0,0.0,0.0,0.0
0.9333333333333333,0.9,13.5,0.9,13.8,0.9,0.0,0.7,1.3,9.9,0.4,0.3,0.0,0.5,0.27825649104876726,-2.3182177138391324,3.0252407565478867,65.67843916839955,1.3153933339968393,0.0,-1.8259119654243428,4.772343001180701,-30.072510449665124,-3.5497568042020893,-0.1824804148575221,0.0,-1.1468753120480346,393.6,430.5,7.0,0.5,3.3,4.2,416.5,402.5,347.2,389.6,402.2,385.7,397.3,403.7,415.3,135.1,48.5,41.1,46.6,407.3,400.9,461.4,404.3,402.5,395.4,399.4,0.7748975520753166,13.394189022015755,1.2115948734891508,10.610085311356032,0.724390311402376,0.0,0.6568203513956437,1.2574420740028307,11.137942237034146,0.216907031699036,0.4392662359338475,0.0,0.6003841593648961,0.27825649104876726,-2.3182177138391324,3.0252407565478867,65.67843916839955,1.3153933339968393,0.0,-1.8259119654243428,4.772343001180701,-30.072510449665124,-3.5497568042020893,-0.1824804148575221,0.0,-1.1468753120480346,394.4344947616806,431.19562623087455,7.232559907909666,0.4729766909960071,3.6996888225597977,4.233491555707644,416.3882734695287,402.52269957699633,348.41750553295503,389.54150389755046,401.97221636535807,385.8980363791227,397.4391315067402,402.8960063630868,413.9574227377238,146.30353560739513,52.89091881369246,47.88531445710599,53.34630865446607,407.2349996619625,400.7362147762216,459.78731516709763,404.1606748841268,402.27597817570273,396.21284958644975,399.5890252528209,169.0282580068375,161.42350645401007,0.0,0.0,0.0,0.0,169.61668515571145,169.86641188543646,144.16069394019118,170.28808059026323,170.1295231077697,170.0,169.54367610672935,170.9717419931625,178.5764935459899,0.0,0.0,0.0,0.0,170.38331484428852,170.1335881145635,195.83930605980882,169.71191940973677,169.87047689223027,170.0,170.45632389327062,0.27017487462022616,0.8353438962253322,0.9248901144087525,4.3084865256987745,0.8161157326891281,0.0,0.3413568378257098,1.0742380832322675,-2.752980571533672e-05,0.24694362235497921,0.5397806771577263,0.0,0.23882852740073404,0.0,0.0,0.0,0.0,0.0,0.0,0.0,0.0,0.0,0.0,0.0,0.0,0.0
0.9666666666666667,0.9,14.2,1.2,15.7,0.9,0.0,0.6,1.4,8.9,0.1,0.6,0.0,0.5,0.747587746546563,3.0299746659627758,-0.989883593583829,63.58764143167086,4.879296077207629,0.0,-2.0748827819112026,-2.253845005953714,-24.465726954475286,1.1406399271856908,-0.6260443866939303,0.0,-1.120327091571982,397.6,428.7,6.7,0.5,3.0,3.9,415.9,402.5,346.9,390.0,401.9,385.4,397.6,402.8,415.6,129.0,45.7,37.2,42.4,407.3,400.6,462.0,404.3,402.5,395.4,399.4,0.7977310030590564,13.419068937196068,1.23332499886434,12.551196894405297,0.8702516999259994,0.0,0.5770780499174791,1.2515107054234076,10.360911839599906,0.189456076533222,0.4360202735161633,0.0,0.5624207288707102,0.747587746546563,3.0299746659627758,-0.989883593583829,63.58764143167086,4.879296077207629,0.0,-2.0748827819112026,-2.253845005953714,-24.465726954475286,1.1406399271856908,-0.6260443866939303,0.0,-1.120327091571982,394.3299322076531,431.1948226767258,7.06535178172214,0.4883413954061372,3.394947364820765,4.108260070526501,416.20670979762536,402.6721213528641,347.5286174625742,389.56269827531446,401.9760863931917,385.7989546388167,397.514348378444,402.1656595644112,414.6261990581879,139.60610859959328,50.18104095713411,43.533831187537885,49.01162465070574,407.2371440173513,400.7038922815077,460.83653295356265,404.316144440299,402.2858827450223,395.32456866753324,399.48329245472223,168.9801760390212,161.3841257910822,0.0,0.0,0.0,0.0,169.729281321641,169.88232946299104,145.8767660222686,169.996753619636,170.13742092042332,170.0,169.5939840142609,171.0198239609788,178.6158742089178,0.0,0.0,0.0,0.0,170.270718678359,170.11767053700893,194.1232339777314,170.00324638036398,169.86257907957668,170.0,170.4060159857391,0.27017487462022616,0.8353438962253322,0.9248901144087525,4.3084865256987745,0.8161157326891281,0.0,0.3413568378257098,1.0742380832322675,-2.752980571533672e-05,0.24694362235497921,0.5397806771577263,0.0,0.23882852740073404,0.0,0.0,0.0,0.0,0.0,0.0,0.0,0.0,0.0,0.0,0.0,0.0,0.0
1.0,0.7,14.1,1.4,17.2,0.7,0.0,0.7,1.4,8.1,0.0,0.4,0.0,0.5,0.9712148461856973,8.86764473157573,-2.645066168071608,61.777610482103285,-2.1554748937551604,0.0,2.528464541088804,2.29297967574138,-28.477917171994704,2.8380768608403826,-0.49369052083804155,0.0,-0.0920499474052816,395.8,428.4,6.7,0.5,3.0,3.6,415.9,402.5,346.6,389.6,401.6,385.7,397.6,402.8,416.8,122.9,42.4,33.5,39.3,407.3,400.6,462.3,404.3,402.5,395.1,399.7,0.822071392531904,13.6313791568158,1.1506420799467492,14.413365656261355,0.8770761204076067,0.0,0.6135844698865928,1.2552432040518482,9.562033913983141,0.28738296774701966,0.40683983452456723,0.0,0.5511655513742288,0.9712148461856973,8.86764473157573,-2.645066168071608,61.777610482103285,-2.1554748937551604,0.0,2.528464541088804,2.29297967574138,-28.477917171994704,2.8380768608403826,-0.49369052083804155,0.0,-0.0920499474052816,394.4947979192648,430.00155436691915,6.9016918282064355,0.512273652254855,2.9915708911161834,4.066729760880375,416.51039663818165,402.58139406963323,346.78006621450726,389.5996468270482,401.90665199950394,385.6883856112408,397.501093510394,402.15352472313674,415.3462765974814,133.08951987209485,47.494756985062786,39.43647237329092,45.089760204813494,407.2575743562547,400.5890309995712,461.69730065784955,404.78367757463224,402.23392876556113,395.2831093826504,399.37205954257695,168.93139461626998,161.2155561115291,0.0,0.0,0.0,0.0,169.57851922378418,169.87200022022375,147.8698484935142,169.75183135095872,170.1730614046731,170.0,169.58287865046242,171.06860538373002,178.7844438884709,0.0,0.0,0.0,0.0,170.42148077621582,170.12799977977622,192.13015150648576,170.24816864904128,169.8269385953269,170.0,170.41712134953755,0.27017487462022616,0.8353438962253322,0.9248901144087525,4.3084865256987745,0.8161157326891281,0.0,0.3413568378257098,1.0742380832322675,-2.752980571533672e-05,0.24694362235497921,0.5397806771577263,0.0,0.23882852740073404,0.0,0.0,0.0,0.0,0.0,0.0,0.0,0.0,0.0,0.0,0.0,0.0,0.0
1.0333333333333332,1.0,14.5,1.4,19.0,0.8,0.0,0.7,1.1,6.9,0.4,0.6,0.0,0.6,-1.0210695136153358,7.576129097691542,5.479347005673985,55.0473424232532,-1.7985995546309752,0.0,-0.11744337752486178,1.8724158577782868,-29.89114453170938,-4.734247231512096,0.13060813156107187,0.0,0.13140507598361495,393.3,426.0,6.3,0.5,2.1,3.6,416.5,402.2,346.9,389.6,401.9,385.4,397.3,403.4,418.0,115.6,38.7,29.5,34.4,407.3,400.9,462.3,404.0,402.2,395.1,399.7,0.8277776673519311,13.987238989010859,1.2395077354004846,16.77220175733411,0.7627384101023151,0.0,0.6705150688389877,1.388556365498475,8.354274240251105,0.18256250546456765,0.4294742128455039,0.0,0.5488268392424167,-1.0210695136153358,7.576129097691542,5.479347005673985,55.0473424232532,-1.7985995546309752,0.0,-0.11744337752486178,1.8724158577782868,-29.89114453170938,-4.734247231512096,0.13060813156107187,0.0,0.13140507598361495,394.9380004887192,428.4836172717468,6.738938812425386,0.49681169918665663,2.842195814718679,3.1639233965792295,416.263553315327,402.7260316674321,347.1909701966365,389.4198971983674,401.823253429784,385.6087595398211,397.526853529038,402.8574204636946,416.4233422543551,124.95840235018909,44.07820024733194,34.747806799711505,39.96961195899242,408.4943408634739,400.5889965902434,462.11141958181594,404.6667478519291,402.3396391203804,395.4075513645251,399.52610353109435,168.938025522401,160.97349093446013,0.0,0.0,0.0,0.0,169.56053599439247,169.78195536071462,150.77557541740367,170.41519265973295,170.1393276984473,170.0,169.58032143775904,171.061974477599,179.02650906553987,0.0,0.0,0.0,0.0,170.43946400560753,170.21804463928538,189.22442458259633,169.58480734026705,169.8606723015527,170.0,170.41967856224096,0.27017487462022616,0.8353438962253322,0.9248901144087525,4.3084865256987745,0.8161157326891281,0.0,0.3413568378257098,1.0742380832322675,-2.752980571533672e-05,0.24694362235497921,0.5397806771577263,0.0,0.23882852740073404,0.0,0.0,0.0,0.0,0.0,0.0,0.0,0.0,0.0,0.0,0.0,0.0,0.0
1.0666666666666667,0.8,14.4,0.8,20.4,1.3,0.0,0.7,1.6,6.3,0.3,0.3,0.0,0.6,0.22682499932348277,4.8717553827904325,2.154883053803336,44.059956846760784,2.6943443277253176,0.0,-2.0386961298308304,-1.3828420482843828,-28.706611713269048,1.7844753447915889,-1.0815914057682896,0.0,1.0376795284320228,394.8,423.8,6.7,0.5,2.4,3.6,415.0,401.9,354.2,386.6,403.1,384.5,397.6,398.5,418.9,109.2,36.3,26.8,31.4,407.3,400.6,461.7,404.3,402.5,395.1,400.0,0.806349548850133,14.149126035443292,1.3653079389823313,18.191937096581796,0.7969460084217882,0.0,0.6172682694086173,1.3835368051905947,7.480395862095035,0.15311829747142594,0.3976206609098472,0.0,0.5742617879742475,0.22682499932348277,4.8717553827904325,2.154883053803336,44.059956846760784,2.6943443277253176,0.0,-2.0386961298308304,-1.3828420482843828,-28.706611713269048,1.7844753447915889,-1.0815914057682896,0.0,1.0376795284320228,394.40453107614195,427.1386258720005,6.664044815759888,0.4974822189023781,3.0838099967782377,3.1237545486476583,416.4313286277181,402.47190074158567,346.94618827078426,389.410581179595,401.8984431473924,385.5902283497609,397.4884642849104,403.2011851204847,417.34413218635854,119.0823391079297,40.7801848946717,31.540405293647932,36.500411513300044,408.04116155066663,400.26139429365844,462.3159214418871,405.1667123243531,402.0198970302405,395.1786696497423,399.6679345305726,168.96764146627115,160.8680759275894,0.0,0.0,0.0,0.0,169.6745061318534,169.79079743859882,152.82612791281326,169.9990869668597,170.18976358085652,170.0,169.52305230307473,171.03235853372883,179.1319240724106,0.0,0.0,0.0,0.0,170.32549386814657,170.20920256140118,187.1738720871867,170.00091303314028,169.81023641914345,170.0,170.47694769692527,0.27017487462022616,0.8353438962253322,0.9248901144087525,4.3084865256987745,0.8161157326891281,0.0,0.3413568378257098,1.0742380832322675,-2.752980571533672e-05,0.24694362235497921,0.5397806771577263,0.0,0.23882852740073404,0.0,0.0,0.0,0.0,0.0,0.0,0.0,0.0,0.0,0.0,0.0,0.0,0.0
1.1,0.8,15.3,1.5,22.0,0.8,0.0,0.7,1.4,5.8,0.3,0.4,0.0,0.6,1.5358376037644228,10.147968966649223,-2.530691048301126,43.218850393764185,4.8928413659972465,0.0,1.769909108945833,-4.579786202165792,-24.263786362925988,3.92090818606442,0.7406628810310067,0.0,0.07119177302928881,394.2,422.6,6.0,0.5,2.1,3.0,415.9,402.5,349.4,389.6,402.2,385.4,397.6,402.8,419.3,104.9,33.8,24.4,28.6,407.3,400.6,460.8,404.6,402.5,395.1,399.4,0.8560309474504169,14.388649758505665,1.316913157361118,19.47225698587445,0.9355405518214,0.0,0.6241812121448337,1.2538704221850248,6.7001850595271275,0.2795685070120804,0.4081399948215081,0.0,0.5866244049775498,1.5358376037644228,10.147968966649223,-2.530691048301126,43.218850393764185,4.8928413659972465,0.0,1.769909108945833,-4.579786202165792,-24.263786362925988,3.92090818606442,0.7406628810310067,0.0,0.07119177302928881,393.8636373590582,425.3168716175798,6.427309533269132,0.5017578806705077,2.8767311911491222,3.5970175512522222,416.38095448158555,402.30947677451985,347.83749225429176,389.325771539549,402.1072808853229,385.393682485709,397.4983505290034,403.025099637284,418.16755501547067,113.4242684924381,37.54807057263821,28.553742164617283,33.47923158531904,406.9898224383217,400.5373360895567,462.18621845208116,404.8221867794296,402.29066563535923,395.04685192981475,399.7929006016403,168.86069386512253,160.6826525457287,0.0,0.0,0.0,0.0,169.58105187398172,169.88434430910894,154.5777547851854,169.68673182610138,170.16109704464787,170.0,169.5310947462021,171.13930613487747,179.3173474542713,0.0,0.0,0.0,0.0,170.41894812601828,170.11565569089103,185.42224521481458,170.31326817389862,169.8389029553521,170.0,170.4689052537979,0.27017487462022616,0.8353438962253322,0.9248901144087525,4.3084865256987745,0.8161157326891281,0.0,0.3413568378257098,1.0742380832322675,-2.752980571533672e-05,0.24694362235497921,0.5397806771577263,0.0,0.23882852740073404,0.0,0.0,0.0,0.0,0.0,0.0,0.0,0.0,0.0,0.0,0.0,0.0,0.0
1.1333333333333333,0.8,15.6,1.5,24.3,1.0,0.0,0.7,1.4,5.4,0.2,0.4,0.0,0.5,-2.6200401687195285,21.89880709963905,4.534954022502369,52.9053741290781,-3.2410835924507553,0.0,1.2053987882638673,6.841753689061791,-16.628010160565232,-2.2207398155961897,-0.019004990034188207,0.0,0.3727164449150888,394.5,425.0,5.7,0.5,1.2,3.0,415.0,402.5,350.9,389.6,401.9,385.4,397.6,402.8,421.4,98.5,31.1,21.6,25.6,407.3,400.6,458.6,404.6,402.2,394.8,400.6,0.8047635929496051,15.088977518254367,1.3991432652224909,21.428946348894367,0.9182844069501537,0.0,0.7269638913252892,1.3503728531021333,5.914771653854854,0.2694364734166036,0.41009219646197714,0.0,0.5935075143479343,-2.6200401687195285,21.89880709963905,4.534954022502369,52.9053741290781,-3.2410835924507553,0.0,1.2053987882638673,6.841753689061791,-16.628010160565232,-2.2207398155961897,-0.019004990034188207,0.0,0.3727164449150888,394.4996462245944,422.6874547281131,6.1493128841487215,0.4997039312374452,2.430969125899248,3.1328653310537624,415.36622047778104,402.71874747909385,350.49072999743424,388.9558564470549,402.2078901743918,385.2131093023791,397.61798108429184,402.09335734886554,419.5941171388184,106.40213241108103,34.60247319012548,25.190463735419783,29.790427652130987,407.45589462717203,400.90814399011225,460.974499606818,404.45041220624324,402.9221637861211,394.9416304169235,400.08508805535763,168.99560668951946,160.1616305840159,0.0,0.0,0.0,0.0,169.45549041392943,169.7992121524485,156.2672955271287,170.12784557002163,170.1651534694925,170.0,169.51416185118458,171.00439331048054,179.8383694159841,0.0,0.0,0.0,0.0,170.54450958607057,170.2007878475515,183.7327044728713,169.87215442997834,169.83484653050746,170.0,170.48583814881542,0.27017487462022616,0.8353438962253322,0.9248901144087525,4.3084865256987745,0.8161157326891281,0.0,0.3413568378257098,1.0742380832322675,-2.752980571533672e-05,0.24694362235497921,0.5397806771577263,0.0,0.23882852740073404,0.0,0.0,0.0,0.0,0.0,0.0,0.0,0.0,0.0,0.0,0.0,0.0,0.0
1.1666666666666667,0.7,15.7,1.3,26.1,0.8,0.0,0.6,1.4,5.2,0.1,0.4,0.0,0.6,-1.2749111931977697,15.19631233727683,0.38230014460562955,57.29600872312233,1.597159122285574,0.0,-1.6265353360885526,1.0102204865991116,-8.987760159789016,-1.6364459359919592,0.3475940697924951,0.0,-0.6217059789117574,394.5,425.4,5.7,0.5,1.8,2.1,415.9,402.5,350.9,389.6,401.9,385.4,397.6,402.8,422.0,93.9,29.8,19.5,23.4,407.7,400.6,458.6,404.6,402.2,394.5,400.6,0.7413030567128083,15.66441150740104,1.4617217759788261,23.115238600800847,0.9088339393739511,0.0,0.6934194985878885,1.4772492563378623,5.564822324452757,0.2039403117113049,0.42146536128053963,0.0,0.5900446619928955,-1.2749111931977697,15.19631233727683,0.38230014460562955,57.29600872312233,1.597159122285574,0.0,-1.6265353360885526,1.0102204865991116,-8.987760159789016,-1.6364459359919592,0.3475940697924951,0.0,-0.6217059789117574,394.8522957522276,422.9543743496451,6.15125443045358,0.49951590454597977,2.2828153157240254,2.914355692091833,415.8207449005563,402.6453221851033,350.24092314978486,389.5617895965455,401.9853783431919,385.42917694424864,397.6133316870569,402.7336820602709,420.67573054069607,101.58772788010427,32.50423542436795,22.761437862587467,27.255154126296887,407.4661795867469,400.3837441350453,459.66318339375374,405.20386978798143,402.5953516132731,394.6827832850346,400.4100987629727,169.1047694594884,159.7880820706004,0.0,0.0,0.0,0.0,169.56312627752396,169.72271278089352,156.9204015567435,170.17183636485296,170.14778022015147,170.0,169.54417023370496,170.8952305405116,180.2119179293996,0.0,0.0,0.0,0.0,170.43687372247604,170.27728721910646,183.0795984432565,169.828163635147,169.85221977984853,170.0,170.455829766295,0.27017487462022616,0.8353438962253322,0.9248901144087525,4.3084865256987745,0.8161157326891281,0.0,0.3413568378257098,1.0742380832322675,-2.752980571533672e-05,0.24694362235497921,0.5397806771577263,0.0,0.23882852740073404,0.0,0.0,0.0,0.0,0.0,0.0,0.0,0.0,0.0,0.0,0.0,0.0,0.0
1.2,0.8,16.2,1.5,28.0,0.9,0.0,0.6,1.3,5.1,0.3,0.4,0.0,0.6,1.1646787029017225,-1.1138240748929107,-3.398915895992083,59.8250298328292,0.6635282504121043,0.0,-0.5886612961037874,-0.8511610413896697,-4.810434561836985,-0.03322561093516141,-1.97185342858191,0.0,-0.828066572015751,394.2,426.9,5.4,0.5,2.1,2.1,416.2,402.5,350.9,389.3,402.2,385.4,397.6,402.5,422.0,89.7,28.3,17.6,21.6,407.3,400.6,458.6,405.2,402.2,394.2,400.6,0.7616814730363178,15.77159386328375,1.3890713630614717,24.881060712045784,0.9569216535464407,0.0,0.6667633774297599,1.4310402355622878,5.400220940087536,0.1919460579836615,0.3862006131048812,0.0,0.5575943081432172,1.1646787029017225,-1.1138240748929107,-3.398915895992083,59.8250298328292,0.6635282504121043,0.0,-0.5886612961037874,-0.8511610413896697,-4.810434561836985,-0.03322561093516141,-1.97185342858191,0.0,-0.828066572015751,394.630689040947,425.19825633376774,5.884733217513341,0.5002327009744394,1.9328439139896836,2.8308493952068297,415.88939741016986,402.45139463631244,350.56944976455816,389.81110356650976,401.82247479669365,385.5077666818611,397.59089406785415,402.99451208722763,421.45285611008387,96.92692636624314,30.543584871569397,20.76293134330593,24.883552418868817,407.2116393908785,400.4807230648458,458.56380638856643,404.8012567200307,402.280493635363,394.5831404230638,400.4517885516908,169.04381350814268,159.76557420741275,0.0,0.0,0.0,0.0,169.57598843195564,169.7571779508867,157.21336031288078,170.07571002862989,170.21192384861985,170.0,169.59301325404923,170.95618649185732,180.23442579258725,0.0,0.0,0.0,0.0,170.42401156804434,170.24282204911327,182.78663968711922,169.9242899713701,169.78807615138012,170.0,170.40698674595075,0.27017487462022616,0.8353438962253322,0.9248901144087525,4.3084865256987745,0.8161157326891281,0.0,0.3413568378257098,1.0742380832322675,-2.752980571533672e-05,0.24694362235497921,0.5397806771577263,0.0,0.23882852740073404,0.0,0.0,0.0,0.0,0.0,0.0,0.0,0.0,0.0,0.0,0.0,0.0,0.0
1.2333333333333334,0.8,16.2,1.5,30.5,0.7,0.0,0.7,1.3,5.1,0.2,0.4,0.0,0.6,-0.7356803973338266,8.034439294557316,2.471935966841232,63.82382084492377,-0.748850802940304,0.0,-1.1047091497681127,1.2886902261863398,-5.712892236947287,0.8241557494966217,0.6629499707557551,0.0,1.4195224664362738,394.5,425.7,5.4,0.5,1.8,2.1,415.9,402.2,350.6,389.6,402.2,385.4,397.9,403.1,423.2,84.5,27.1,15.8,19.2,407.0,402.2,455.9,404.9,401.9,394.2,399.7,0.7525650725921529,15.884547774924904,1.3668973122563566,27.38844510398965,0.9280295370021976,0.0,0.6242710057790769,1.5144745430402158,5.168559233009294,0.2064210271807625,0.3509613940132387,0.0,0.5927671035560715,-0.7356803973338266,8.034439294557316,2.471935966841232,63.82382084492377,-0.748850802940304,0.0,-1.1047091497681127,1.2886902261863398,-5.712892236947287,0.8241557494966217,0.6629499707557551,0.0,1.4195224664362738,394.3309241716122,426.32228797663345,5.546280390074484,0.4999892188467059,1.8909357668944877,2.3500867306589326,415.871635682979,401.9114341117372,351.07302788446776,389.5642386010533,401.9147596194075,385.45781223526023,397.6020002640454,402.7397568117347,422.06469669075034,91.14567417289305,28.598355933236082,18.273326844259312,22.190351081972338,407.2456134927766,400.88305592738567,458.3878023218165,404.5383307348952,402.22516093060756,394.48902882352957,400.30417246835384,169.07800431312762,159.65254472272184,0.0,0.0,0.0,0.0,169.6444603446485,169.6966551942505,157.78471179919558,169.9973384425405,170.23393920553812,170.0,169.48846266932924,170.92199568687238,180.34745527727813,0.0,0.0,0.0,0.0,170.3555396553515,170.3033448057495,182.2152882008044,170.0026615574595,169.76606079446185,170.0,170.51153733067073,0.27017487462022616,0.8353438962253322,0.9248901144087525,4.3084865256987745,0.8161157326891281,0.0,0.3413568378257098,1.0742380832322675,-2.752980571533672e-05,0.24694362235497921,0.5397806771577263,0.0,0.23882852740073404,0.0,0.0,0.0,0.0,0.0,0.0,0.0,0.0,0.0,0.0,0.0,0.0,0.0
1.2666666666666666,0.8,16.3,1.5,32.4,0.9,0.0,0.7,1.1,5.1,0.3,0.5,0.0,0.6,1.047503482998502,6.256475381747251,5.558034454425642,63.469076970890015,-1.40858880955268,0.0,-0.6775426860455958,-5.0979650665509135,-1.054950625050921,1.0230135780819993,1.61791464073488,0.0,0.09020535415555919,394.5,425.0,5.7,0.5,2.1,2.7,415.9,402.8,355.5,389.6,401.9,385.1,397.6,404.0,422.0,79.6,25.3,14.3,17.6,406.1,400.6,452.2,404.9,401.9,393.9,400.0,0.7671575164426375,16.122373514293383,1.524375689879927,29.301294898049818,0.8969988151484232,0.0,0.5989146143284038,1.413488690935784,5.08294399897677,0.2440848628952078,0.40066078911194575,0.0,0.6110832222194805,1.047503482998502,6.256475381747251,5.558034454425642,63.469076970890015,-1.40858880955268,0.0,-0.6775426860455958,-5.0979650665509135,-1.054950625050921,1.0230135780819993,1.61791464073488,0.0,0.09020535415555919,394.6913919045518,426.26080500559533,5.522757367637917,0.4999139610919025,1.9428033219618623,2.2801865548242692,415.9905122959645,401.2956402142079,350.61742978861054,389.60647385495065,402.007877733148,385.2718684535445,397.6298477887956,403.09575505723274,422.4384893564696,87.10485464221391,27.439125434956047,16.535273946310134,20.31549014901386,407.141172795876,400.8356836638758,457.83998355190255,404.85861374217234,402.1343683293441,394.3344735699452,400.3373231094946,169.0339701305088,159.4916707071847,0.0,0.0,0.0,0.0,169.66907359951847,169.77606754247253,157.87851653956506,169.93482269400343,170.16335929276156,170.0,169.49776170832746,170.96602986949117,180.5083292928153,0.0,0.0,0.0,0.0,170.3309264004815,170.22393245752747,182.12148346043494,170.06517730599654,169.83664070723844,170.0,170.50223829167254,0.27017487462022616,0.8353438962253322,0.9248901144087525,4.3084865256987745,0.8161157326891281,0.0,0.3413568378257098,1.0742380832322675,-2.752980571533672e-05,0.24694362235497921,0.5397806771577263,0.0,0.23882852740073404,0.0,0.0,0.0,0.0,0.0,0.0,0.0,0.0,0.0,0.0,0.0,0.0,0.0
1.3,0.8,16.3,1.3,34.2,0.8,0.0,0.6,1.3,5.1,0.3,0.4,0.0,0.5,0.6424276094959325,2.064409017229707,-0.018613347644769185,62.45323419261943,-1.3663551569492283,0.0,1.6238627406434558,-1.8877782232187057,2.3811250396812866,-0.6918548600382712,-0.17022245232990452,0.0,-0.5304113378644892,394.5,423.8,5.7,0.5,2.1,2.1,415.9,402.5,357.3,389.6,401.9,385.4,397.6,403.1,422.6,76.5,24.4,13.1,16.1,407.0,400.6,449.8,404.6,402.2,393.9,400.0,0.7924482940814174,16.216753542935546,1.5831366786291234,31.1795761640626,0.8481468717194741,0.0,0.624977108406178,1.3064603178390952,5.133828449173669,0.23201348625175316,0.4142752558276983,0.0,0.5981388596056098,0.6424276094959325,2.064409017229707,-0.018613347644769185,62.45323419261943,-1.3663551569492283,0.0,1.6238627406434558,-1.8877782232187057,2.3811250396812866,-0.6918548600382712,-0.17022245232990452,0.0,-0.5304113378644892,394.46129815677347,425.9973853050813,5.671728010071092,0.5000274598265946,1.8747486480936635,2.29552839180318,415.9759760193448,402.1672438585568,352.0042990776659,390.3239188617753,402.03533115597384,384.7160279898579,397.66666500381007,403.4173660268122,422.704353190395,83.04093731909263,26.341830971866177,15.138787094252752,18.577272569449104,406.91503289258645,400.8931332259689,455.1043655189739,404.75133199324625,402.0895768015502,394.0748954171731,400.1179459697226,168.9889948542424,159.43651563406752,0.0,0.0,0.0,0.0,169.58321061004222,169.84331056298484,157.6760023350378,170.06997823836454,170.16148479872822,170.0,169.5309717129644,171.0110051457576,180.56348436593248,0.0,0.0,0.0,0.0,170.41678938995778,170.15668943701513,182.3239976649622,169.93002176163546,169.83851520127175,170.0,170.4690282870356,0.27017487462022616,0.8353438962253322,0.9248901144087525,4.3084865256987745,0.8161157326891281,0.0,0.3413568378257098,1.0742380832322675,-2.752980571533672e-05,0.24694362235497921,0.5397806771577263,0.0,0.23882852740073404,0.0,0.0,0.0,0.0,0.0,0.0,0.0,0.0,0.0,0.0,0.0,0.0,0.0
1.3333333333333333,0.8,16.9,1.0,36.4,1.0,0.0,0.6,1.6,5.6,0.2,0.4,0.0,0.6,0.20880718247954233,3.2853696426865753,-0.7739495220015824,60.29174669404398,-3.145959857001168,0.0,-0.12603073981757307,-1.7122368680385636,0.7173740514978988,1.3946461682498634,-0.2503285327433158,0.0,-1.018523786741754,394.2,421.4,5.7,0.5,1.8,1.8,415.9,402.2,357.0,389.6,401.9,385.4,397.6,402.8,423.2,72.0,22.5,11.5,14.9,407.3,400.6,447.9,404.6,402.2,393.6,400.3,0.8142369934592781,16.300778448255,1.5446210196553343,33.66167040314707,0.754991923256542,0.0,0.655120063427959,1.2920225174350357,5.168823367953663,0.2692101010649918,0.39049028714003475,0.0,0.5616512686506903,0.20880718247954233,3.2853696426865753,-0.7739495220015824,60.29174669404398,-3.145959857001168,0.0,-0.12603073981757307,-1.7122368680385636,0.7173740514978988,1.3946461682498634,-0.2503285327433158,0.0,-1.018523786741754,393.9475572414996,424.65351187301246,5.792123559144732,0.5000041766513453,1.8668519537552866,2.2701278532730664,416.01977497392903,402.9464422147455,356.9391452575416,389.79312110986507,401.94106866268913,385.11446948996985,397.5477904977789,403.04525703594317,422.3591180156621,77.7479832121328,24.746710018561835,13.188509092172536,16.675141721272002,407.02031524447335,400.5847544712933,450.60028471029983,404.67149038493534,402.15257399819404,393.6431191830756,400.0798486515711,168.95096280259284,159.36996918457606,0.0,0.0,0.0,0.0,169.58140126736615,169.8527558002482,157.6305062268744,169.87644188143622,170.1921506394366,170.0,169.59242141506323,171.04903719740716,180.63003081542394,0.0,0.0,0.0,0.0,170.41859873263382,170.1472441997518,182.36949377312558,170.12355811856378,169.80784936056338,170.0,170.40757858493677,0.27017487462022616,0.8353438962253322,0.9248901144087525,4.3084865256987745,0.8161157326891281,0.0,0.3413568378257098,1.0742380832322675,-2.752980571533672e-05,0.24694362235497921,0.5397806771577263,0.0,0.23882852740073404,0.0,0.0,0.0,0.0,0.0,0.0,0.0,0.0,0.0,0.0,0.0,0.0,0.0
1.3666666666666667,0.8,17.4,1.8,38.0,1.1,0.0,0.4,1.6,6.0,0.2,0.3,0.0,0.6,-0.43326589619421263,9.89312866307408,-1.4430836625024313,53.50090973698016,2.1632367091082294,0.0,-1.1299169985395707,-1.535810593463105,9.475101169494593,-0.6027747130555261,0.23135579621428315,0.0,0.924717985016521,392.1,420.8,5.7,0.5,1.8,0.9,415.9,402.2,357.6,389.6,401.9,385.4,397.6,403.4,425.0,68.6,21.6,8.8,15.8,407.3,400.6,447.3,404.6,402.2,393.6,400.6,0.8027815042502002,16.522438954936263,1.5193969583194988,35.32706447541276,0.7486143533176937,0.0,0.6294960261077888,1.2203979678555246,5.350767767307879,0.27119385795205125,0.3972783553368431,0.0,0.5678853934199233,-0.43326589619421263,9.89312866307408,-1.4430836625024313,53.50090973698016,2.1632367091082294,0.0,-1.1299169985395707,-1.535810593463105,9.475101169494593,-0.6027747130555261,0.23135579621428315,0.0,0.924717985016521,394.1251227640117,422.35097626559894,5.530307653028179,0.49998563645025906,1.8314280924395545,2.041898629569734,416.0565421452456,402.4292252950368,357.8668965074501,389.14566714576904,401.9864342583284,385.72325740271765,397.49697612895716,402.62941534280935,422.74657364660754,74.32248110247855,23.52457486231761,11.998710528286331,15.411865154724527,407.44695414376673,400.46824237382634,448.7362615901489,404.627810543068,402.2094192640775,394.35799068566615,401.0843274095125,168.9783755701148,159.1914400470435,0.0,0.0,0.0,0.0,169.6380002358049,169.9011108749347,156.99162964102757,170.01304550994445,170.17957749633564,170.0,169.5344963203183,171.0216244298852,180.8085599529565,0.0,0.0,0.0,0.0,170.3619997641951,170.09888912506528,183.00837035897243,169.98695449005555,169.82042250366433,170.0,170.4655036796817,0.27017487462022616,0.8353438962253322,0.9248901144087525,4.3084865256987745,0.8161157326891281,0.0,0.3413568378257098,1.0742380832322675,-2.752980571533672e-05,0.24694362235497921,0.5397806771577263,0.0,0.23882852740073404,0.0,0.0,0.0,0.0,0.0,0.0,0.0,0.0,0.0,0.0,0.0,0.0,0.0
1.4,0.8,18.1,1.9,39.3,1.0,0.0,0.7,1.6,7.0,0.3,0.4,0.0,0.6,0.6762640666723052,19.993950081203593,-0.6201054514357152,51.84180119064408,5.692982791932288,0.0,-0.3437587516947449,-1.9450628105242451,16.696596405994146,0.13913956704915686,-0.45190244544587865,0.0,0.7300940056122251,393.3,418.6,5.4,0.5,1.8,0.2,415.9,402.8,357.6,389.6,401.9,385.1,397.9,403.4,425.7,65.6,20.4,10.0,14.0,407.0,399.4,446.4,404.6,401.9,393.6,400.6,0.8092617673510277,17.00936760137142,1.4708893789184019,36.889059866885425,0.9094234441647088,0.0,0.6085022883241955,1.1832724556948186,5.79452697713012,0.2598137490474538,0.3897903013989502,0.0,0.6008470389378727,0.6762640666723052,19.993950081203593,-0.6201054514357152,51.84180119064408,5.692982791932288,0.0,-0.3437587516947449,-1.9450628105242451,16.696596405994146,0.13913956704915686,-0.45190244544587865,0.0,0.7300940056122251,394.0007174453171,420.62877867950476,5.441783459718868,0.5000025988683631,1.830502176126156,1.5343213941307101,415.95771270777766,402.37680147396134,357.2608139911564,389.263361045392,402.0033258753123,385.61144494409706,397.62572285881083,402.6242333471643,423.6900541722093,70.94876912733672,22.284282527706825,10.959439223366473,14.595166929285897,407.2756391818153,400.59164547712606,447.6739178535573,404.5832886014156,402.1602191898881,394.0037667499567,401.40526853048175,168.95585040008646,158.8204866065862,0.0,0.0,0.0,0.0,169.648820728393,169.92701488028635,155.76544892766472,169.9760087423459,170.1948689091533,170.0,169.4951917418625,171.04414959991354,181.17951339341377,0.0,0.0,0.0,0.0,170.351179271607,170.07298511971365,184.23455107233528,170.02399125765407,169.80513109084666,170.0,170.5048082581375,0.27017487462022616,0.8353438962253322,0.9248901144087525,4.3084865256987745,0.8161157326891281,0.0,0.3413568378257098,1.0742380832322675,-2.752980571533672e-05,0.24694362235497921,0.5397806771577263,0.0,0.23882852740073404,0.0,0.0,0.0,0.0,0.0,0.0,0.0,0.0,0.0,0.0,0.0,0.0,0.0
1.4333333333333333,0.7,19.0,1.5,40.7,0.9,0.0,0.7,1.6,7.3,0.0,0.4,0.0,0.5,0.034056753752864655,29.468376848861055,4.185101628195098,46.64702257183038,-3.959802280409086,0.0,2.112326528163644,6.942603920649515,19.688168192407485,-1.0003193206407135,0.8911069406669303,0.0,-0.6113581187756401,393.6,419.9,7.6,0.5,1.8,0.2,415.3,402.8,357.3,390.0,401.2,385.4,397.3,402.8,426.0,61.6,18.6,8.5,13.4,407.7,400.6,446.1,404.9,401.6,392.7,400.0,0.8450365096249272,18.117112006641218,1.5801873218625775,38.87358696684617,0.9251839356265777,0.0,0.6455343812553963,1.2637737479447224,6.5622730409598224,0.2699246379696272,0.3934937908653513,0.0,0.5800450424751821,0.034056753752864655,29.468376848861055,4.185101628195098,46.64702257183038,-3.959802280409086,0.0,2.112326528163644,6.942603920649515,19.688168192407485,-1.0003193206407135,0.8911069406669303,0.0,-0.6113581187756401,393.43651257656114,419.09738196912275,5.475509507315312,0.5000015675905417,1.8660526398106216,0.3869350148153042,415.99404792897747,402.7896968028065,357.550783975199,389.5965582552731,401.97469365999086,385.0549481172489,397.6640233405124,403.29184807608647,425.5343465330379,66.55283299006942,20.770721738475913,9.663953067593166,14.056741404600778,407.0190315459678,400.4323252108825,446.6264165953432,404.60209940197564,402.063364386917,393.18328343707407,400.1858428773401,168.89291858956057,158.02913155883516,0.0,0.0,0.0,0.0,169.5448071429015,169.85710052598742,153.86689081637132,170.04231497028593,170.1788565115493,170.0,169.55733585228379,171.10708141043943,181.9708684411648,0.0,0.0,0.0,0.0,170.4551928570985,170.14289947401258,186.13310918362868,169.95768502971407,169.8211434884507,170.0,170.44266414771621,0.27017487462022616,0.8353438962253322,0.9248901144087525,4.3084865256987745,0.8161157326891281,0.0,0.3413568378257098,1.0742380832322675,-2.752980571533672e-05,0.24694362235497921,0.5397806771577263,0.0,0.23882852740073404,0.0,0.0,0.0,0.0,0.0,0.0,0.0,0.0,0.0,0.0,0.0,0.0,0.0
1.4666666666666666,0.8,19.3,1.1,41.5,1.0,1.3,0.6,1.4,8.0,0.2,0.3,0.0,0.6,-3.3901228928251426,23.742002822531916,2.2835844156718688,36.611000689772055,-5.147826096053964,0.7929936493655575,2.7838620763716904,7.003734590721877,15.181292353797016,-5.706695740416129,1.7734553653243723,0.0,0.16357196615737202,393.0,420.5,5.4,0.5,1.5,0.2,415.6,402.8,357.0,389.6,403.1,385.1,397.6,402.8,425.7,58.5,17.0,8.2,14.0,407.0,400.6,444.9,404.6,401.9,392.7,399.4,0.7711707013726437,18.914450709713527,1.6823874353564812,40.07645784387738,0.739227125103407,0.008827743248928054,0.7372014169637703,1.5221333405123734,7.062758989711947,0.13345418767626532,0.4468879984137726,0.0,0.580655967325252,-3.3901228928251426,23.742002822531916,2.2835844156718688,36.611000689772055,-5.147826096053964,0.7929936493655575,2.7838620763716904,7.003734590721877,15.181292353797016,-5.706695740416129,1.7734553653243723,0.0,0.16357196615737202,393.51460103577585,418.8211023380973,5.5965889168444845,0.49999773471740744,1.845750811159899,0.05630874813380123,415.91545711105607,402.8911480591448,357.5328095780195,389.6661690849835,402.0002496331486,385.0214513280805,397.705779130345,403.2174618855353,426.0890389713163,63.61496494566727,19.435053280223055,9.164220357872516,13.500005835824766,407.23161568356915,400.3358455881756,446.1951852887522,404.6322862906415,401.89548146995264,393.1400019220097,400.0613122225428,169.06453482796238,157.50026401611893,0.0,0.0,0.0,0.0,169.4068573783298,169.6811597965148,152.7795816389334,170.54692004017392,170.10422611623227,170.0,169.53675466304435,170.93546517203762,182.49973598388104,0.0,0.0,0.0,0.0,170.5931426216702,170.3188402034852,187.2204183610666,169.45307995982606,169.89577388376773,170.0,170.46324533695562,0.27017487462022616,0.8353438962253322,0.9248901144087525,4.3084865256987745,0.8161157326891281,0.0,0.3413568378257098,1.0742380832322675,-2.752980571533672e-05,0.24694362235497921,0.5397806771577263,0.0,0.23882852740073404,0.0,0.0,0.0,0.0,0.0,0.0,0.0,0.0,0.0,0.0,0.0,0.0,0.0
1.5,0.6,19.8,1.6,42.1,0.9,3.2,0.7,1.7,8.8,0.0,0.4,0.0,0.4,0.11530272660776886,7.75165139273426,-1.7546097367989955,27.027677009994022,3.953114848736894,20.045160860309412,-2.0938263212391783,-4.856717351797735,18.932042161767626,0.6337967053218874,-1.0455387967811591,0.0,-0.1777164487750449,393.6,419.9,5.4,0.5,1.5,0.2,415.9,402.5,356.7,389.6,402.8,385.1,397.9,402.8,425.7,55.8,15.8,7.6,14.0,407.0,400.6,444.6,404.6,401.6,392.7,400.0,0.725265926267624,19.307647979223137,1.6722474172732547,40.97236909990694,0.7734521173266466,0.3389824082450186,0.7261215906781374,1.4771066237722699,7.569223800580054,0.06997047982136467,0.44651330360957425,0.0,0.5792802823259908,0.11530272660776886,7.75165139273426,-1.7546097367989955,27.027677009994022,3.953114848736894,20.045160860309412,-2.0938263212391783,-4.856717351797735,18.932042161767626,0.6337967053218874,-1.0455387967811591,0.0,-0.1777164487750449,393.5119619919675,419.75209887394504,5.879291003543293,0.5000001079430882,1.811051317308785,0.1996841408618159,415.9533986629603,402.6156202156479,357.1549485015516,389.67849088547376,401.9699598777954,385.1316253407141,398.07012578034136,403.1913508103156,425.830473769435,60.61788605916538,17.878147808401053,8.418069244276387,13.593237753905948,407.312784091629,400.536363881992,445.9319912177107,404.6659635287199,401.7353869535487,392.81695946433456,400.04943914598766,169.12084837300034,157.2809764843255,0.0,0.0,0.0,0.0,169.52953449861855,169.73180375689657,151.48491314639827,170.18739977789951,170.1286985713076,170.0,169.54730506257914,170.87915162699963,182.71902351567448,0.0,0.0,0.0,0.0,170.47046550138143,170.2681962431034,188.5150868536017,169.81260022210049,169.8713014286924,170.0,170.45269493742086,0.27017487462022616,0.8353438962253322,0.9248901144087525,4.3084865256987745,0.8161157326891281,0.0,0.3413568378257098,1.0742380832322675,-2.752980571533672e-05,0.24694362235497921,0.5397806771577263,0.0,0.23882852740073404,0.0,0.0,0.0,0.0,0.0,0.0,0.0,0.0,0.0,0.0,0.0,0.0,0.0
1.5333333333333332,0.8,20.1,1.7,43.1,0.8,5.6,0.7,1.3,9.5,0.2,0.5,0.0,0.6,0.7051617196693227,8.659482387467321,-2.516297350985597,23.674499893049727,3.702429690251352,67.03999825109968,-1.286976913195348,4.137755229655982,24.880831061139475,0.7686053578649571,-0.4314154125823644,0.0,-1.1449727226081174,395.8,419.6,4.8,0.5,1.5,0.2,415.6,401.9,355.5,390.0,402.2,385.1,397.6,402.8,425.7,52.1,14.0,6.7,15.8,407.0,400.6,446.4,404.3,401.6,392.7,399.4,0.7826678970913007,19.535279240539612,1.5338889485015974,41.953570876533036,0.9758256114383318,2.4228322043491404,0.6284599611614768,1.493434275441015,8.51750403256078,0.15205850027955853,0.3980469436743681,0.0,0.5444016048982327,0.7051617196693227,8.659482387467321,-2.516297350985597,23.674499893049727,3.702429690251352,67.03999825109968,-1.286976913195348,4.137755229655982,24.880831061139475,0.7686053578649571,-0.4314154125823644,0.0,-1.1449727226081174,393.35713833401417,420.3217470684907,5.361862536217724,0.5000003795829312,1.559813128665498,0.22376755359295367,415.9553681152562,402.0667240839217,356.81188948018576,389.5330826908831,402.3969621821756,385.1055470074464,398.18372503914827,402.8397314081218,425.5064911495224,55.99470385872169,15.954578520597229,7.640227581842092,14.314194019523416,407.0368992613675,400.6178066075223,445.58227253054883,404.626415284256,401.7749057406272,392.6200237961029,399.8466856501366,169.00558480275242,157.11674262323112,0.0,0.0,0.0,0.0,169.6428626951417,169.705267823668,149.08714327830432,170.07215558850507,170.18450944017712,170.0,169.61881216134736,170.99441519724758,182.88325737676885,0.0,0.0,0.0,0.0,170.3571373048583,170.294732176332,190.91285672169568,169.92784441149493,169.81549055982288,170.0,170.38118783865264,0.27017487462022616,0.8353438962253322,0.9248901144087525,4.3084865256987745,0.8161157326891281,0.0,0.3413568378257098,1.0742380832322675,-2.752980571533672e-05,0.24694362235497921,0.5397806771577263,0.0,0.23882852740073404,0.0,0.0,0.0,0.0,0.0,0.0,0.0,0.0,0.0,0.0,0.0,0.0,0.0
1.5666666666666667,0.9,20.8,1.8,43.7,0.7,7.5,0.8,1.4,10.0,0.1,0.4,0.0,0.6,1.7486017256500674,17.42591225956076,0.44500669625791023,22.677380062431496,-1.2569654316727963,65.56578942759334,-0.722345294452853,-7.110697510538233,19.498829910129345,2.1843260590827946,2.806383264656498,0.0,0.5083331495248977,393.3,418.6,5.7,0.5,1.5,0.2,414.4,403.4,355.2,390.3,402.2,385.1,396.1,403.1,426.3,51.2,13.1,5.1,14.0,407.0,400.3,447.0,403.7,401.6,393.9,400.3,0.8121339046818168,19.983423295357497,1.5286109446329204,42.639976094250976,0.9848430370329855,4.461097205282147,0.6065624375043895,1.4202032146996335,9.167490466945805,0.188604041687192,0.44916931223665063,0.0,0.5402373208902331,1.7486017256500674,17.42591225956076,0.44500669625791023,22.677380062431496,-1.2569654316727963,65.56578942759334,-0.722345294452853,-7.110697510538233,19.498829910129345,2.1843260590827946,2.806383264656498,0.0,0.5083331495248977,393.79049698209684,419.6332034889357,5.0451415603962095,0.49999966290722647,1.2962307029627755,0.18045153822945273,415.69076422978725,401.92698350654877,356.3304086711959,389.5676230005608,402.34399606944567,385.06247813403047,397.7435196922552,402.7147940746461,425.7119879584959,53.86688806336519,14.754391056309869,7.159760085952613,14.465903867064782,407.0399635730768,400.5899697849326,445.9471865121258,404.60463243395606,401.7475091191995,392.7564169507737,399.9372321994713,168.93968802859442,156.77568845739415,0.0,0.0,0.0,0.0,169.65979271063892,169.77406968648577,147.66403174379852,169.9263919466048,170.09271472159932,170.0,169.58224549503072,171.06031197140558,183.22431154260585,0.0,0.0,0.0,0.0,170.34020728936105,170.2259303135142,192.33596825620148,170.0736080533952,169.90728527840065,170.0,170.41775450496928,0.27017487462022616,0.8353438962253322,0.9248901144087525,4.3084865256987745,0.8161157326891281,0.0,0.3413568378257098,1.0742380832322675,-2.752980571533672e-05,0.24694362235497921,0.5397806771577263,0.0,0.23882852740073404,0.0,0.0,0.0,0.0,0.0,0.0,0.0,0.0,0.0,0.0,0.0,0.0,0.0
1.6,1.0,21.9,1.7,44.5,0.7,9.3,0.6,1.4,10.4,0.2,0.4,0.0,0.5,2.0753051080048324,17.593835697155313,1.8583324189206385,22.782729219983366,-2.3409008971339462,58.86305794879538,1.4525290078234554,-7.3351791360591445,15.753887696297042,1.3978817076625487,1.0161660322067112,0.0,0.9428917596804198,393.6,418.9,5.1,0.5,0.9,0.2,414.7,402.5,354.6,391.5,402.2,385.4,397.6,402.8,426.9,47.2,12.5,5.7,14.3,407.3,400.6,447.6,402.8,401.6,394.8,400.3,0.8853201690628454,20.530822209373095,1.5631411689147818,43.32253557770076,0.9120443666592724,6.271050983110301,0.6267904211953749,1.1394268348158472,9.66457657823843,0.25995950740770923,0.5194068619653319,0.0,0.5698208291353425,2.0753051080048324,17.593835697155313,1.8583324189206385,22.782729219983366,-2.3409008971339462,58.86305794879538,1.4525290078234554,-7.3351791360591445,15.753887696297042,1.3978817076625487,1.0161660322067112,0.0,0.9428917596804198,394.3065669172167,419.15622869026276,5.038497889866791,0.4999999674589502,1.2294867830002927,0.197663270757611,415.1643541038094,402.2410756546666,355.5874071955344,390.0523611094176,402.14281154477464,385.0194401950758,397.40876793166,403.0055985417628,426.6672781736622,51.96401296842583,13.746251054708821,6.594955579790467,14.629145669629636,407.2560449216706,400.56943280706713,446.714387599481,404.20489425681404,401.6073995228235,393.2984048070234,399.80654949573227,168.79654203352806,156.39618979354924,0.0,0.0,0.0,0.0,169.58456180646164,169.9653570793946,146.56645109479746,169.8889870910819,170.01958138938795,170.0,169.5314335988986,171.20345796647194,183.60381020645076,0.0,0.0,0.0,0.0,170.41543819353836,170.0346429206054,193.43354890520254,170.11101290891807,169.98041861061205,170.0,170.4685664011014,0.27017487462022616,0.8353438962253322,0.9248901144087525,4.3084865256987745,0.8161157326891281,0.0,0.3413568378257098,1.0742380832322675,-2.752980571533672e-05,0.24694362235497921,0.5397806771577263,0.0,0.23882852740073404,0.0,0.0,0.0,0.0,0.0,0.0,0.0,0.0,0.0,0.0,0.0,0.0,0.0
1.6333333333333333,1.0,21.9,1.6,45.3,1.0,11.8,0.7,1.3,10.6,0.2,0.4,0.0,0.5,0.7475840363534103,18.185083842353578,-0.3330333426511345,22.030318497913015,0.8137393064173049,62.51753748853002,-1.0002616647145524,8.310120031786127,13.621940317984027,-3.014007344092978,-2.5656573169136276,0.0,-0.19396639921880343,393.6,417.7,5.1,0.5,0.9,0.2,415.0,403.1,353.3,390.6,402.2,384.8,397.6,402.5,427.5,44.8,11.8,5.7,14.3,407.3,400.6,449.2,403.1,401.2,395.4,400.0,0.9088351584101757,21.208868699383935,1.646196841542933,44.226292270547034,0.9039060669311111,8.703800017588742,0.6284696261697654,1.3342630897968826,10.246784326476876,0.1665296463265428,0.41469143014675863,0.0,0.5786411894458543,0.7475840363534103,18.185083842353578,-0.3330333426511345,22.030318497913015,0.8137393064173049,62.51753748853002,-1.0002616647145524,8.310120031786127,13.621940317984027,-3.014007344092978,-2.5656573169136276,0.0,-0.19396639921880343,393.55867727299227,418.6331047148212,5.002084806846371,0.5000000777919211,1.0624149069242839,0.20473507473610497,414.1419283305242,402.9052949372224,354.7758585223033,391.20367871309566,402.148452699312,385.2249581133701,397.3680301098549,402.58280747767566,427.3593259977537,48.567390672546665,12.755410280856402,5.759400716261998,14.17725011987233,407.3948600694412,400.69717986332284,447.5630639264465,403.0683376649548,401.36546298472086,395.0089848127778,400.05356064061493,168.76314809634516,155.92618093821514,0.0,0.0,0.0,0.0,169.63651330804413,169.80618300891993,145.22845347643857,170.31738485339315,170.18181206401323,170.0,169.54857773805347,171.2368519036548,184.07381906178486,0.0,0.0,0.0,0.0,170.36348669195587,170.19381699108004,194.77154652356143,169.68261514660682,169.81818793598677,170.0,170.4514222619465,0.27017487462022616,0.8353438962253322,0.9248901144087525,4.3084865256987745,0.8161157326891281,0.0,0.3413568378257098,1.0742380832322675,-2.752980571533672e-05,0.24694362235497921,0.5397806771577263,0.0,0.23882852740073404,0.0,0.0,0.0,0.0,0.0,0.0,0.0,0.0,0.0,0.0,0.0,0.0,0.0
